;FLAVOR:Marlin
;TIME:5091
;Filament used: 3.15002m
;Layer height: 0.16
;MINX:76.2
;MINY:87.342
;MINZ:0.2
;MAXX:143.8
;MAXY:132.657
;MAXZ:8.88
;TARGET_MACHINE.NAME:Creality Ender-3 Pro
;Generated with Cura_SteamEngine 5.8.1
M82 ;absolute extrusion mode
; Ender 3 Custom Start G-code
G92 E0 ; Reset Extruder
G28 ; Home all axes
G1 Z5.0 F3000 ; Move Z Axis up a bit during heating to not damage bed
M104 S175 ; Start heating up the nozzle most of the way
M190 S67.0 ; Start heating the bed, wait until target temperature reached
M109 S215.0 ; Finish heating the nozzle
G1 Z2.0 F3000 ; Move Z Axis up little to prevent scratching of Heat Bed
G29;
G1 X0.1 Y20 Z0.3 F5000.0 ; Move to start position
G1 X0.1 Y200.0 Z0.3 F1500.0 E15 ; Draw the first line
G1 X0.4 Y200.0 Z0.3 F5000.0 ; Move to side a little
G1 X0.4 Y20 Z0.3 F1500.0 E30 ; Draw the second line
G92 E0 ; Reset Extruder
G1 Z2.0 F3000 ; Move Z Axis up little to prevent scratching of Heat Bed
G1 X5 Y20 Z0.3 F5000.0 ; Move over to prevent blob squish
G92 E0
G92 E0
G1 F1500 E-6.5
;LAYER_COUNT:52
;LAYER:0
M107
;MESH:lev fluid v1.stl
G0 F6000 X110 Y130.998 Z0.2
;TYPE:WALL-INNER
G1 F1500 E0
G1 F1200 X111.218 Y130.961 E0.04053
G1 X112.428 Y130.858 E0.08092
G1 X113.64 Y130.679 E0.12167
G1 X114.868 Y130.422 E0.1634
G1 X116.041 Y130.109 E0.20378
G1 X117.223 Y129.716 E0.24521
G1 X118.365 Y129.258 E0.28613
G1 X119.464 Y128.743 E0.3265
G1 X120.56 Y128.147 E0.36799
G1 X121.599 Y127.502 E0.40867
G1 X122.642 Y126.764 E0.45116
G1 X123.577 Y126.016 E0.49099
G1 X124.493 Y125.195 E0.5319
G1 X125.398 Y124.279 E0.57473
G1 X125.64 Y124.107 E0.5846
G1 X126.004 Y124.003 E0.59719
G1 X143 Y124 E1.16248
G1 X143 Y96 E2.09377
G1 X126.041 Y95.999 E2.65783
G1 X125.64 Y95.893 E2.67162
G1 X125.38 Y95.703 E2.68233
G1 X124.489 Y94.801 E2.7245
G1 X123.573 Y93.98 E2.76541
G1 X122.63 Y93.224 E2.80561
G1 X121.59 Y92.49 E2.84795
G1 X120.599 Y91.873 E2.88678
G1 X119.463 Y91.253 E2.92982
G1 X118.404 Y90.754 E2.96876
G1 X117.224 Y90.28 E3.01105
G1 X116.035 Y89.886 E3.05271
G1 X114.7 Y89.525 E3.09871
G1 X114.687 Y89.535 E3.09926
G1 X113.683 Y89.325 E3.13337
G1 X112.427 Y89.138 E3.17561
G1 X111.219 Y89.035 E3.21593
G1 X110.019 Y89.001 E3.25586
G1 X108.777 Y89.035 E3.29719
G1 X107.568 Y89.138 E3.33754
G1 X106.356 Y89.317 E3.37829
G1 X105.128 Y89.574 E3.42002
G1 X103.961 Y89.886 E3.4602
G1 X102.772 Y90.284 E3.5019
G1 X101.63 Y90.739 E3.54279
G1 X100.532 Y91.253 E3.58311
G1 X99.436 Y91.849 E3.6246
G1 X98.405 Y92.49 E3.66498
G1 X97.369 Y93.221 E3.70715
G1 X96.42 Y93.979 E3.74755
G1 X95.507 Y94.804 E3.78848
G1 X94.577 Y95.741 E3.83239
G1 X94.279 Y95.928 E3.84409
G1 X93.992 Y95.997 E3.85391
G1 X77 Y96 E4.41906
G1 X77 Y124 E5.35035
G1 X93.955 Y124.001 E5.91427
G1 X94.279 Y124.072 E5.9253
G1 X94.533 Y124.221 E5.9351
G1 X95.507 Y125.195 E5.98091
G1 X96.423 Y126.02 E6.02191
G1 X97.349 Y126.76 E6.06134
G1 X98.406 Y127.506 E6.10437
G1 X99.4 Y128.127 E6.14335
G1 X100.537 Y128.743 E6.18636
G1 X101.593 Y129.243 E6.22522
G1 X102.772 Y129.716 E6.26747
G1 X103.96 Y130.109 E6.30909
G1 X105.301 Y130.471 E6.35529
G1 X105.31 Y130.464 E6.35567
G1 X106.311 Y130.671 E6.38967
G1 X107.57 Y130.858 E6.432
G1 X108.783 Y130.965 E6.4725
G1 X109.975 Y130.999 E6.51217
G1 X110 Y130.998 E6.513
G0 F6000 X110 Y131.398
G1 F1200 X111.241 Y131.36 E6.55429
G1 X112.474 Y131.255 E6.59545
G1 X113.71 Y131.073 E6.637
G1 X114.961 Y130.812 E6.67951
G1 X116.155 Y130.492 E6.72062
G1 X117.361 Y130.092 E6.76288
G1 X118.524 Y129.625 E6.80457
G1 X119.645 Y129.1 E6.84574
G1 X120.762 Y128.493 E6.88802
G1 X121.82 Y127.835 E6.92946
G1 X122.883 Y127.084 E6.97275
G1 X123.836 Y126.321 E7.01335
G1 X124.769 Y125.485 E7.05502
G1 X125.687 Y124.556 E7.09846
G1 X125.961 Y124.4 E7.10895
G1 X143.4 Y124.4 E7.68897
G1 X143.4 Y95.6 E8.64686
G1 X126.061 Y95.6 E9.22356
G1 X125.716 Y95.475 E9.23576
G1 X124.765 Y94.511 E9.2808
G1 X123.831 Y93.674 E9.32252
G1 X122.871 Y92.904 E9.36345
G1 X121.812 Y92.157 E9.40655
G1 X120.801 Y91.527 E9.44617
G1 X119.644 Y90.896 E9.49
G1 X118.564 Y90.387 E9.52972
G1 X117.361 Y89.904 E9.57283
G1 X116.151 Y89.503 E9.61523
G1 X114.782 Y89.133 E9.6624
G1 X114.769 Y89.144 E9.66296
G1 X113.754 Y88.931 E9.69746
G1 X112.474 Y88.741 E9.7405
G1 X111.241 Y88.636 E9.78165
G1 X110.019 Y88.601 E9.82231
G1 X108.754 Y88.636 E9.8644
G1 X107.522 Y88.741 E9.90553
G1 X106.286 Y88.923 E9.94708
G1 X105.036 Y89.184 E9.98955
G1 X103.845 Y89.503 E10.03056
G1 X102.635 Y89.908 E10.073
G1 X101.471 Y90.371 E10.11467
G1 X100.351 Y90.896 E10.15581
G1 X99.235 Y91.503 E10.19806
G1 X98.184 Y92.157 E10.23923
G1 X97.129 Y92.901 E10.28217
G1 X96.161 Y93.674 E10.32337
G1 X95.231 Y94.515 E10.36508
G1 X94.277 Y95.476 E10.41011
G1 X93.935 Y95.6 E10.42221
G1 X76.6 Y95.6 E10.99878
G1 X76.6 Y124.4 E11.95667
G1 X93.989 Y124.4 E12.53503
G1 X94.153 Y124.453 E12.54076
G1 X94.32 Y124.566 E12.54747
G1 X95.231 Y125.485 E12.59051
G1 X96.165 Y126.326 E12.63231
G1 X97.109 Y127.08 E12.6725
G1 X98.185 Y127.84 E12.71631
G1 X99.199 Y128.473 E12.75607
G1 X100.356 Y129.1 E12.79984
G1 X101.433 Y129.609 E12.83946
G1 X102.635 Y130.092 E12.88254
G1 X103.845 Y130.493 E12.92494
G1 X105.22 Y130.864 E12.97231
G1 X105.23 Y130.856 E12.97273
G1 X106.241 Y131.065 E13.00707
G1 X107.523 Y131.255 E13.05018
G1 X108.759 Y131.364 E13.09145
G1 X109.975 Y131.399 E13.13191
G1 X110 Y131.398 E13.13274
G0 F6000 X110 Y131.798
;TYPE:WALL-OUTER
G1 F1200 X111.264 Y131.76 E13.1748
G1 X112.52 Y131.653 E13.21672
G1 X113.78 Y131.467 E13.25909
G1 X115.053 Y131.201 E13.30234
G1 X116.27 Y130.876 E13.34424
G1 X117.499 Y130.468 E13.38731
G1 X118.684 Y129.992 E13.42978
G1 X119.825 Y129.457 E13.4717
G1 X120.963 Y128.839 E13.51477
G1 X122.041 Y128.169 E13.55698
G1 X123.123 Y127.404 E13.60106
G1 X124.094 Y126.627 E13.64242
G1 X125.045 Y125.775 E13.68489
G1 X125.976 Y124.836 E13.72887
G1 X126.074 Y124.8 E13.73234
G1 X143.8 Y124.8 E14.32191
G1 X143.8 Y95.2 E15.30641
G1 X126.052 Y95.197 E15.89671
G1 X125.961 Y95.152 E15.90009
G1 X125.041 Y94.221 E15.94362
G1 X124.09 Y93.369 E15.98609
G1 X123.111 Y92.584 E16.02782
G1 X122.033 Y91.823 E16.07171
G1 X121.003 Y91.181 E16.11208
G1 X119.825 Y90.539 E16.1567
G1 X118.724 Y90.02 E16.19719
G1 X117.499 Y89.528 E16.24109
G1 X116.266 Y89.12 E16.28429
G1 X114.865 Y88.741 E16.33256
G1 X114.851 Y88.752 E16.33315
G1 X113.824 Y88.537 E16.36805
G1 X112.52 Y88.343 E16.4119
G1 X111.264 Y88.236 E16.45383
G1 X110.019 Y88.201 E16.49525
G1 X108.732 Y88.236 E16.53807
G1 X107.476 Y88.343 E16.58
G1 X106.216 Y88.529 E16.62236
G1 X104.943 Y88.795 E16.66562
G1 X103.73 Y89.12 E16.70738
G1 X102.497 Y89.532 E16.75062
G1 X101.312 Y90.004 E16.79305
G1 X100.171 Y90.539 E16.83496
G1 X99.033 Y91.157 E16.87803
G1 X97.963 Y91.823 E16.91995
G1 X96.889 Y92.581 E16.96367
G1 X95.902 Y93.369 E17.00568
G1 X94.955 Y94.225 E17.04814
G1 X94.02 Y95.164 E17.09221
G1 X93.944 Y95.197 E17.09497
G1 X76.2 Y95.2 E17.68514
G1 X76.2 Y124.8 E18.66964
G1 X93.944 Y124.803 E19.2598
G1 X94.039 Y124.851 E19.26334
G1 X94.955 Y125.775 E19.30662
G1 X95.906 Y126.631 E19.34917
G1 X96.869 Y127.4 E19.39016
G1 X97.963 Y128.173 E19.43472
G1 X98.997 Y128.819 E19.47527
G1 X100.175 Y129.457 E19.51983
G1 X101.273 Y129.976 E19.56022
G1 X102.497 Y130.468 E19.6041
G1 X103.73 Y130.876 E19.64729
G1 X105.138 Y131.256 E19.6958
G1 X105.149 Y131.248 E19.69625
G1 X106.171 Y131.459 E19.73096
G1 X107.476 Y131.653 E19.77484
G1 X108.736 Y131.764 E19.81691
G1 X109.975 Y131.799 E19.85814
G1 X110 Y131.798 E19.85897
G0 F6000 X109.979 Y131.099
G0 X110 Y130.634
;TYPE:SKIN
G1 F1200 X109.971 Y130.635 E19.85993
G1 X108.792 Y130.604 E19.89916
G1 X107.616 Y130.501 E19.93842
G1 X106.38 Y130.315 E19.98
G1 X105.397 Y130.112 E20.01338
G1 X105.373 Y130.117 E20.0142
G1 X104.07 Y129.764 E20.0591
G1 X102.885 Y129.372 E20.10061
G1 X101.737 Y128.912 E20.14174
G1 X100.703 Y128.421 E20.17982
G1 X99.573 Y127.811 E20.22253
G1 X98.611 Y127.209 E20.26027
G1 X97.557 Y126.464 E20.3032
G1 X96.654 Y125.743 E20.34163
G1 X95.747 Y124.927 E20.38221
G1 X94.817 Y123.989 E20.42615
G1 X94.454 Y123.754 E20.44053
G1 X93.985 Y123.641 E20.45657
G1 X77.36 Y123.64 E21.00952
G1 X77.36 Y96.36 E21.91686
G1 X93.978 Y96.356 E22.46958
G1 X94.46 Y96.266 E22.48588
G1 X94.841 Y95.983 E22.50167
G1 X95.75 Y95.069 E22.54454
G1 X96.646 Y94.261 E22.58467
G1 X97.577 Y93.512 E22.62442
G1 X98.611 Y92.783 E22.66649
G1 X99.609 Y92.165 E22.70554
G1 X100.703 Y91.567 E22.747
G1 X101.764 Y91.072 E22.78595
G1 X102.905 Y90.616 E22.82681
G1 X104.054 Y90.232 E22.86711
G1 X105.391 Y89.873 E22.91315
G1 X105.406 Y89.884 E22.91377
G1 X106.428 Y89.669 E22.94851
G1 X107.616 Y89.491 E22.98846
G1 X108.788 Y89.392 E23.02758
G1 X110.015 Y89.361 E23.0684
G1 X111.204 Y89.392 E23.10796
G1 X112.376 Y89.491 E23.14708
G1 X113.608 Y89.677 E23.18852
G1 X114.594 Y89.884 E23.22203
G1 X114.627 Y89.877 E23.22315
G1 X115.922 Y90.228 E23.26778
G1 X117.107 Y90.62 E23.30929
G1 X118.26 Y91.084 E23.35063
G1 X119.289 Y91.567 E23.38844
G1 X120.423 Y92.185 E23.43139
G1 X121.381 Y92.783 E23.46896
G1 X122.411 Y93.512 E23.51093
G1 X123.33 Y94.245 E23.55002
G1 X124.237 Y95.061 E23.5906
G1 X125.193 Y96.029 E23.63585
G1 X125.429 Y96.189 E23.64534
G1 X125.765 Y96.321 E23.65734
G1 X126.008 Y96.355 E23.6655
G1 X142.64 Y96.36 E24.21869
G1 X142.64 Y123.64 E25.12602
G1 X125.869 Y123.646 E25.68383
G1 X125.435 Y123.808 E25.69924
G1 X125.213 Y123.959 E25.70817
G1 X124.25 Y124.927 E25.75358
G1 X123.35 Y125.735 E25.79381
G1 X122.431 Y126.468 E25.83291
G1 X121.389 Y127.205 E25.87536
G1 X120.387 Y127.831 E25.91465
G1 X119.289 Y128.425 E25.95617
G1 X118.228 Y128.924 E25.99517
G1 X117.107 Y129.372 E26.03532
G1 X115.926 Y129.764 E26.07671
G1 X114.602 Y130.121 E26.12232
G1 X114.591 Y130.112 E26.12279
G1 X113.564 Y130.323 E26.15766
G1 X112.38 Y130.501 E26.19749
G1 X111.204 Y130.6 E26.23674
G1 X110 Y130.634 E26.2768
G1 F1500 E19.7768
G0 F6000 X110.008 Y130.898
G0 X107.59 Y130.698
G0 X105.35 Y130.314
G0 X102.828 Y129.565
G0 X98.31 Y127.638
G0 X94.256 Y124.164
G0 X77.618 Y123.9
G0 X77.619 Y123.44
G1 F1500 E26.2768
G1 F1200 X77.56 Y123.38 E26.2796
G0 F6000 X77.56 Y122.815
G1 F1200 X78.185 Y123.44 E26.309
G0 F6000 X78.75 Y123.44
G1 F1200 X77.56 Y122.249 E26.36499
G0 F6000 X77.56 Y121.683
G1 F1200 X79.316 Y123.44 E26.44761
G0 F6000 X79.882 Y123.44
G1 F1200 X77.56 Y121.117 E26.55686
G0 F6000 X77.56 Y120.552
G1 F1200 X80.448 Y123.44 E26.6927
G0 F6000 X81.013 Y123.44
G1 F1200 X77.56 Y119.986 E26.85514
G0 F6000 X77.56 Y119.42
G1 F1200 X81.579 Y123.44 E27.04421
G0 F6000 X82.145 Y123.44
G1 F1200 X77.56 Y118.855 E27.25987
G0 F6000 X77.56 Y118.289
G1 F1200 X82.71 Y123.44 E27.50213
G0 F6000 X83.276 Y123.44
G1 F1200 X77.56 Y117.723 E27.77102
G0 F6000 X77.56 Y117.158
G1 F1200 X83.842 Y123.44 E28.06651
G0 F6000 X84.407 Y123.44
G1 F1200 X77.56 Y116.592 E28.38859
G0 F6000 X77.56 Y116.026
G1 F1200 X84.973 Y123.44 E28.7373
G0 F6000 X85.539 Y123.44
G1 F1200 X77.56 Y115.461 E29.11261
G0 F6000 X77.56 Y114.895
G1 F1200 X86.105 Y123.44 E29.51454
G0 F6000 X86.671 Y123.44
G1 F1200 X77.56 Y114.329 E29.94309
G0 F6000 X77.56 Y113.764
G1 F1200 X87.236 Y123.44 E30.39822
G0 F6000 X87.802 Y123.44
G1 F1200 X77.56 Y113.198 E30.87997
G0 F6000 X77.56 Y112.632
G1 F1200 X88.368 Y123.44 E31.38835
G0 F6000 X88.934 Y123.44
G1 F1200 X77.56 Y112.067 E31.92332
G0 F6000 X77.56 Y111.501
G1 F1200 X89.499 Y123.44 E32.4849
G0 F6000 X90.065 Y123.44
G1 F1200 X77.56 Y110.935 E33.0731
G0 F6000 X77.56 Y110.369
G1 F1200 X90.631 Y123.44 E33.68791
G0 F6000 X91.196 Y123.44
G1 F1200 X77.56 Y109.804 E34.32931
G0 F6000 X77.56 Y109.238
G1 F1200 X91.762 Y123.44 E34.99733
G0 F6000 X92.328 Y123.44
G1 F1200 X77.56 Y108.672 E35.69197
G0 F6000 X77.56 Y108.107
G1 F1200 X92.893 Y123.44 E36.41319
G0 F6000 X93.459 Y123.44
G1 F1200 X77.56 Y107.541 E37.16103
G0 F6000 X77.56 Y106.975
G1 F1200 X94.035 Y123.45 E37.93596
G0 F6000 X93.954 Y123.9
G0 X96.048 Y125.546
G0 X96.355 Y125.205
G1 F1200 X77.56 Y106.41 E38.82002
G0 F6000 X77.56 Y105.844
G1 F1200 X98.817 Y127.101 E39.81988
G0 F6000 X98.573 Y127.491
G0 X99.988 Y128.331
G0 X100.208 Y127.926
G1 F1200 X77.56 Y105.278 E40.88518
G0 F6000 X77.56 Y104.713
G1 F1200 X101.358 Y128.511 E42.00456
G0 F6000 X101.161 Y128.927
G0 X102.186 Y129.372
G0 X102.358 Y128.945
G1 F1200 X77.56 Y104.147 E43.17098
G0 F6000 X77.56 Y103.581
G1 F1200 X103.264 Y129.286 E44.38004
G0 F6000 X104.111 Y129.567
G1 F1200 X77.56 Y103.016 E45.62892
G0 F6000 X77.56 Y102.45
G1 F1200 X104.888 Y129.778 E46.91435
G0 F6000 X105.631 Y129.956
G1 F1200 X77.56 Y101.884 E48.23475
G0 F6000 X77.56 Y101.319
G1 F1200 X106.345 Y130.103 E49.58868
G0 F6000 X107.014 Y130.207
G1 F1200 X77.56 Y100.753 E50.97411
G0 F6000 X77.56 Y100.187
G1 F1200 X107.677 Y130.304 E52.39072
G0 F6000 X108.297 Y130.359
G1 F1200 X77.56 Y99.621 E53.83651
G0 F6000 X77.56 Y99.056
G1 F1200 X108.911 Y130.407 E55.31117
G0 F6000 X109.491 Y130.422
G1 F1200 X77.56 Y98.49 E56.81313
G0 F6000 X77.56 Y97.924
G1 F1200 X110.068 Y130.432 E58.34221
G0 F6000 X110.617 Y130.416
G1 F1200 X77.56 Y97.359 E59.89711
G0 F6000 X77.56 Y96.793
G1 F1200 X111.167 Y130.4 E61.47788
G0 F6000 X111.69 Y130.358
G1 F1200 X77.892 Y96.56 E63.06763
G0 F6000 X78.458 Y96.56
G1 F1200 X112.212 Y130.314 E64.65532
G0 F6000 X112.712 Y130.248
G1 F1200 X79.023 Y96.56 E66.23992
G0 F6000 X79.588 Y96.559
G1 F1200 X113.204 Y130.174 E67.82109
G0 F6000 X113.688 Y130.093
G1 F1200 X80.154 Y96.559 E69.39843
G0 F6000 X80.72 Y96.559
G1 F1200 X114.157 Y129.997 E70.97122
G0 F6000 X114.632 Y129.905
G1 F1200 X81.285 Y96.558 E72.53976
G0 F6000 X81.85 Y96.558
G1 F1200 X115.077 Y129.785 E74.10266
G0 F6000 X115.523 Y129.665
G1 F1200 X82.416 Y96.558 E75.65991
G0 F6000 X82.981 Y96.558
G1 F1200 X115.963 Y129.54 E77.21128
G0 F6000 X116.388 Y129.399
G1 F1200 X83.547 Y96.558 E78.75602
G0 F6000 X84.112 Y96.558
G1 F1200 X116.813 Y129.258 E80.29416
G0 F6000 X117.228 Y129.108
G1 F1200 X84.677 Y96.557 E81.82525
G0 F6000 X85.243 Y96.557
G1 F1200 X117.632 Y128.946 E83.34873
G0 F6000 X118.036 Y128.784
G1 F1200 X85.808 Y96.556 E84.86464
G0 F6000 X86.374 Y96.556
G1 F1200 X118.426 Y128.609 E86.37229
G0 F6000 X118.811 Y128.428
G1 F1200 X86.939 Y96.556 E87.87145
G0 F6000 X87.504 Y96.555
G1 F1200 X119.196 Y128.247 E89.36215
G0 F6000 X119.563 Y128.049
G1 F1200 X88.07 Y96.555 E90.8435
G0 F6000 X88.636 Y96.555
G1 F1200 X119.93 Y127.85 E92.3155
G0 F6000 X120.297 Y127.65
G1 F1200 X89.201 Y96.555 E93.77814
G0 F6000 X89.766 Y96.555
G1 F1200 X120.645 Y127.433 E95.23057
G0 F6000 X120.993 Y127.216
G1 F1200 X90.332 Y96.555 E96.67277
G0 F6000 X90.897 Y96.554
G1 F1200 X121.338 Y126.995 E98.10462
G0 F6000 X121.67 Y126.761
G1 F1200 X91.463 Y96.554 E99.52546
G0 F6000 X92.029 Y96.554
G1 F1200 X122.001 Y126.526 E100.93526
G0 F6000 X122.331 Y126.291
G1 F1200 X92.594 Y96.553 E102.33402
G0 F6000 X93.159 Y96.553
G1 F1200 X122.646 Y126.04 E103.72099
G0 F6000 X122.96 Y125.789
G1 F1200 X93.725 Y96.553 E105.09614
G0 F6000 X94.247 Y96.51
G1 F1200 X123.272 Y125.535 E106.46139
G0 F6000 X123.57 Y125.268
G1 F1200 X94.665 Y96.362 E107.82102
G0 F6000 X94.986 Y96.118
G1 F1200 X123.869 Y125 E109.17956
G0 F6000 X124.164 Y124.73
G1 F1200 X95.269 Y95.835 E110.53869
G0 F6000 X95.551 Y95.551
G1 F1200 X124.447 Y124.447 E111.89787
G0 F6000 X124.728 Y124.162
G1 F1200 X95.834 Y95.268 E113.25696
G0 F6000 X96.129 Y94.998
G1 F1200 X125.01 Y123.879 E114.61543
G0 F6000 X125.333 Y123.635
G1 F1200 X96.426 Y94.729 E115.9751
G0 F6000 X96.724 Y94.461
G1 F1200 X125.743 Y123.48 E117.34007
G0 F6000 X126.268 Y123.44
G1 F1200 X97.034 Y94.206 E118.71515
G0 F6000 X97.347 Y93.953
G1 F1200 X126.834 Y123.44 E120.10212
G0 F6000 X127.399 Y123.44
G1 F1200 X97.661 Y93.702 E121.50091
G0 F6000 X97.991 Y93.465
G1 F1200 X127.965 Y123.44 E122.91082
