;FLAVOR:Marlin
;TIME:9515
;Filament used: 4.43476m
;Layer height: 0.16
;MINX:72.085
;MINY:61.2
;MINZ:0.2
;MAXX:147.043
;MAXY:158.8
;MAXZ:9.92
;TARGET_MACHINE.NAME:Creality Ender-3 Pro
;Generated with Cura_SteamEngine 5.8.1
M82 ;absolute extrusion mode
; Ender 3 Custom Start G-code
G92 E0 ; Reset Extruder
G28 ; Home all axes
G1 Z5.0 F3000 ; Move Z Axis up a bit during heating to not damage bed
M104 S175 ; Start heating up the nozzle most of the way
M190 S67.0 ; Start heating the bed, wait until target temperature reached
M109 S207.0 ; Finish heating the nozzle
G1 Z2.0 F3000 ; Move Z Axis up little to prevent scratching of Heat Bed
G29;
G1 X0.1 Y20 Z0.3 F5000.0 ; Move to start position
G1 X0.1 Y200.0 Z0.3 F1500.0 E15 ; Draw the first line
G1 X0.4 Y200.0 Z0.3 F5000.0 ; Move to side a little
G1 X0.4 Y20 Z0.3 F1500.0 E30 ; Draw the second line
G92 E0 ; Reset Extruder
G1 Z2.0 F3000 ; Move Z Axis up little to prevent scratching of Heat Bed
G1 X5 Y20 Z0.3 F5000.0 ; Move over to prevent blob squish
G92 E0
G92 E0
G1 F1500 E-6.5
;LAYER_COUNT:64
;LAYER:0
M107
;MESH:ArcRadius v0.stl
G0 F6000 X74.748 Y103 Z0.2
;TYPE:WALL-INNER
G1 F1500 E0
G1 F1200 X74.748 Y77 E0.86476
G1 X73.748 Y77 E0.89802
G1 X73.748 Y103 E1.76279
G1 X74.748 Y103 E1.79605
G0 F6000 X75.148 Y103.4
G1 F1200 X75.148 Y76.6 E2.68742
G1 X73.348 Y76.6 E2.74729
G1 X73.348 Y103.4 E3.63866
G1 X75.148 Y103.4 E3.69853
G0 F6000 X75.548 Y103.8
;TYPE:WALL-OUTER
G1 F1200 X75.548 Y76.2 E4.61651
G1 X72.948 Y76.2 E4.70298
G1 X72.948 Y103.8 E5.62096
G1 X75.548 Y103.8 E5.70744
G0 F6000 X75.28 Y103.53
G0 X74.83 Y76.918
G0 X73.666 Y76.918
G0 X73.848 Y77.5
G0 X74.248 Y77.5
;TYPE:SKIN
G1 F705.9 X74.248 Y102.5 E7.12099
G1 F1500 E0.62099
G0 F6000 X73.848 Y102.5
G0 X73.913 Y102.795
G0 X75.336 Y103.586
G0 X76.415 Y103.586
G0 X82.085 Y103.586
G0 X83.17 Y103.586
G0 X83.92 Y122.828
G0 X84.748 Y123
;TYPE:WALL-INNER
G1 F1500 E7.12099
G1 F1200 X84.748 Y97 E7.98576
G1 X83.748 Y97 E8.01902
G1 X83.748 Y123 E8.88378
G1 X84.748 Y123 E8.91704
G0 F6000 X85.148 Y123.4
G1 F1200 X85.148 Y96.6 E9.80841
G1 X83.348 Y96.6 E9.86828
G1 X83.348 Y123.4 E10.75965
G1 X85.148 Y123.4 E10.81952
G0 F6000 X85.548 Y123.8
;TYPE:WALL-OUTER
G1 F1200 X85.548 Y96.2 E11.7375
G1 X82.948 Y96.2 E11.82398
G1 X82.948 Y123.8 E12.74196
G1 X85.548 Y123.8 E12.82843
G0 F6000 X85.28 Y123.53
G0 X84.83 Y96.918
G0 X83.666 Y96.918
G0 X83.848 Y97.5
G0 X84.248 Y97.5
;TYPE:SKIN
G1 F705.9 X84.248 Y122.5 E14.24199
G1 F1500 E7.74199
G0 F6000 X83.848 Y122.5
G0 X83.913 Y122.795
G0 X85.336 Y123.586
G0 X86.415 Y123.586
G0 X92.085 Y123.586
G0 X93.17 Y123.586
G0 X93.92 Y142.708
G0 X94.748 Y142.88
;TYPE:WALL-INNER
G1 F1500 E14.24199
G1 F1200 X94.748 Y116.88 E15.10675
G1 X93.748 Y116.88 E15.14001
G1 X93.748 Y142.88 E16.00478
G1 X94.748 Y142.88 E16.03804
G0 F6000 X95.148 Y143.28
G1 F1200 X95.148 Y116.48 E16.92941
G1 X93.348 Y116.48 E16.98928
G1 X93.348 Y143.28 E17.88065
G1 X95.148 Y143.28 E17.94052
G0 F6000 X95.548 Y143.68
;TYPE:WALL-OUTER
G1 F1200 X95.548 Y116.08 E18.8585
G1 X92.948 Y116.08 E18.94497
G1 X92.948 Y143.68 E19.86295
G1 X95.548 Y143.68 E19.94943
G0 F6000 X95.28 Y143.412
G0 X94.83 Y116.798
G0 X93.666 Y116.798
G0 X93.848 Y117.38
G0 X94.248 Y117.38
;TYPE:SKIN
G1 F705.9 X94.248 Y142.38 E21.36298
G1 F1500 E14.86298
G0 F6000 X93.848 Y142.38
G0 X93.913 Y142.675
G0 X95.336 Y143.468
G0 X96.415 Y143.468
G0 X102.085 Y143.468
G0 X103.17 Y143.468
G0 X103.92 Y157.828
G0 X104.748 Y158
;TYPE:WALL-INNER
G1 F1500 E21.36298
G1 F1200 X104.748 Y132 E22.22775
G1 X103.748 Y132 E22.26101
G1 X103.748 Y158 E23.12577
G1 X104.748 Y158 E23.15903
G0 F6000 X105.148 Y158.4
G1 F1200 X105.148 Y131.6 E24.0504
G1 X103.348 Y131.6 E24.11027
G1 X103.348 Y158.4 E25.00164
G1 X105.148 Y158.4 E25.06151
G0 F6000 X105.548 Y158.8
;TYPE:WALL-OUTER
G1 F1200 X105.548 Y131.2 E25.97949
G1 X102.948 Y131.2 E26.06597
G1 X102.948 Y158.8 E26.98395
G1 X105.548 Y158.8 E27.07042
G0 F6000 X105.28 Y158.53
G0 X104.83 Y131.918
G0 X103.666 Y131.918
G0 X103.848 Y132.5
G0 X104.248 Y132.5
;TYPE:SKIN
G1 F705.9 X104.248 Y157.5 E28.48398
M104 S207
G1 F1500 E21.98398
;MESH:NONMESH
G0 F300 X104.248 Y157.5 Z0.4
G0 F6000 X103.848 Y157.5
G0 X103.164 Y131.414
G0 X102.085 Y131.414
G0 X96.403 Y115.229
G0 X92.097 Y115.229
G0 X86.403 Y124.653
G0 X82.097 Y124.653
G0 X75.336 Y104.665
G0 X75.336 Y103.586
G0 X74.748 Y103
;TIME_ELAPSED:57.275160
;LAYER:1
M106 S85
;TYPE:WALL-INNER
;MESH:ArcRadius v0.stl
G1 F1500 E28.48398
G1 F1350 X74.748 Y77 E29.34874
G1 X73.748 Y77 E29.382
G1 X73.748 Y103 E30.24677
G1 X74.748 Y103 E30.28003
G0 F7500 X75.148 Y103.4
G1 F1350 X75.148 Y76.6 E31.1714
G1 X73.348 Y76.6 E31.23127
G1 X73.348 Y103.4 E32.12264
G1 X75.148 Y103.4 E32.18251
G0 F7500 X75.548 Y103.8
;TYPE:WALL-OUTER
G1 F1350 X75.548 Y76.2 E33.10049
G1 X72.948 Y76.2 E33.18696
G1 X72.948 Y103.8 E34.10494
G1 X75.548 Y103.8 E34.19142
G0 F7500 X75.28 Y103.53
G0 X74.83 Y76.918
G0 X73.666 Y76.918
G0 X73.848 Y77.5
G0 X74.248 Y77.5
;TYPE:SKIN
G1 F794.1 X74.248 Y102.5 E35.60497
G1 F1500 E29.10497
G0 F7500 X73.848 Y102.5
G0 X73.913 Y102.795
G0 X75.336 Y103.586
G0 X76.415 Y103.586
G0 X82.085 Y103.586
G0 X83.17 Y103.586
G0 X83.92 Y122.828
G0 X84.748 Y123
;TYPE:WALL-INNER
G1 F1500 E35.60497
G1 F1350 X84.748 Y97 E36.46974
G1 X83.748 Y97 E36.503
G1 X83.748 Y123 E37.36776
G1 X84.748 Y123 E37.40102
G0 F7500 X85.148 Y123.4
G1 F1350 X85.148 Y96.6 E38.29239
G1 X83.348 Y96.6 E38.35226
G1 X83.348 Y123.4 E39.24363
G1 X85.148 Y123.4 E39.3035
G0 F7500 X85.548 Y123.8
;TYPE:WALL-OUTER
G1 F1350 X85.548 Y96.2 E40.22148
G1 X82.948 Y96.2 E40.30796
G1 X82.948 Y123.8 E41.22594
G1 X85.548 Y123.8 E41.31241
G0 F7500 X85.28 Y123.53
G0 X84.83 Y96.918
G0 X83.666 Y96.918
G0 X83.848 Y97.5
G0 X84.248 Y97.5
;TYPE:SKIN
G1 F794.1 X84.248 Y122.5 E42.72597
G1 F1500 E36.22597
G0 F7500 X83.848 Y122.5
G0 X83.913 Y122.795
G0 X85.336 Y123.586
G0 X86.415 Y123.586
G0 X92.085 Y123.586
G0 X93.17 Y123.586
G0 X93.92 Y142.708
G0 X94.748 Y142.88
;TYPE:WALL-INNER
G1 F1500 E42.72597
G1 F1350 X94.748 Y116.88 E43.59073
G1 X93.748 Y116.88 E43.62399
G1 X93.748 Y142.88 E44.48876
G1 X94.748 Y142.88 E44.52202
G0 F7500 X95.148 Y143.28
G1 F1350 X95.148 Y116.48 E45.41339
G1 X93.348 Y116.48 E45.47326
G1 X93.348 Y143.28 E46.36463
G1 X95.148 Y143.28 E46.4245
G0 F7500 X95.548 Y143.68
;TYPE:WALL-OUTER
G1 F1350 X95.548 Y116.08 E47.34248
G1 X92.948 Y116.08 E47.42895
G1 X92.948 Y143.68 E48.34693
G1 X95.548 Y143.68 E48.43341
G0 F7500 X95.28 Y143.412
G0 X94.83 Y116.798
G0 X93.666 Y116.798
G0 X93.848 Y117.38
G0 X94.248 Y117.38
;TYPE:SKIN
G1 F794.1 X94.248 Y142.38 E49.84696
G1 F1500 E43.34696
G0 F7500 X93.848 Y142.38
G0 X93.913 Y142.675
G0 X95.336 Y143.468
G0 X96.415 Y143.468
G0 X102.085 Y143.468
G0 X103.17 Y143.468
G0 X103.92 Y157.828
G0 X104.748 Y158
;TYPE:WALL-INNER
G1 F1500 E49.84696
G1 F1350 X104.748 Y132 E50.71173
G1 X103.748 Y132 E50.74499
G1 X103.748 Y158 E51.60975
G1 X104.748 Y158 E51.64301
G0 F7500 X105.148 Y158.4
G1 F1350 X105.148 Y131.6 E52.53438
G1 X103.348 Y131.6 E52.59425
G1 X103.348 Y158.4 E53.48562
G1 X105.148 Y158.4 E53.54549
G0 F7500 X105.548 Y158.8
;TYPE:WALL-OUTER
G1 F1350 X105.548 Y131.2 E54.46347
G1 X102.948 Y131.2 E54.54995
G1 X102.948 Y158.8 E55.46793
G1 X105.548 Y158.8 E55.5544
G0 F7500 X105.28 Y158.53
G0 X104.83 Y131.918
G0 X103.666 Y131.918
G0 X103.848 Y132.5
G0 X104.248 Y132.5
;TYPE:SKIN
G1 F794.1 X104.248 Y157.5 E56.96796
G1 F1500 E50.46796
;MESH:NONMESH
G0 F300 X104.248 Y157.5 Z0.56
G0 F7500 X103.848 Y157.5
G0 X103.164 Y131.414
G0 X102.085 Y131.414
G0 X96.403 Y115.229
G0 X92.097 Y115.229
G0 X86.403 Y124.653
G0 X82.097 Y124.653
G0 X75.336 Y104.665
G0 X75.761 Y80.766
;TIME_ELAPSED:106.074611
;LAYER:2
M106 S170
;TYPE:WALL-INNER
;MESH:ArcRadius v0.stl
G1 F1500 E56.96796
G1 F1047.1 X76.361 Y80.67 E56.99112
G1 F1096.9 X77.468 Y80.434 E57.0323
G1 F1102.9 X78.599 Y80.123 E57.07475
G1 F1109.1 X79.679 Y79.759 E57.11577
G1 F1111.1 X80.781 Y79.314 E57.15846
G1 F1113.2 X81.822 Y78.822 E57.19974
G1 X82.847 Y78.261 E57.24164
G1 F1111.1 X83.834 Y77.645 E57.28343
G1 F1109.1 X84.771 Y76.983 E57.32471
G1 F1107 X85.679 Y76.256 E57.36665
G1 F1109.1 X86.534 Y75.49 E57.40796
G1 F1111.1 X87.346 Y74.669 E57.44944
G1 X88.109 Y73.807 E57.49079
G1 F1113.2 X88.834 Y72.883 E57.5329
G1 F1115.2 X89.479 Y71.954 E57.57338
G1 F1113.2 X90.098 Y70.944 E57.61585
G1 F1109.1 X90.635 Y69.948 E57.65657
G1 F1113.2 X91.133 Y68.873 E57.69905
G1 F1115.2 X91.55 Y67.819 E57.73962
G1 F1113.2 X91.918 Y66.701 E57.78182
G1 F1115.2 X92.22 Y65.564 E57.82392
G1 F1117.3 X92.449 Y64.449 E57.86458
G1 F1119.4 X92.616 Y63.302 E57.90591
G1 F1117.3 X92.715 Y62.166 E57.94664
G1 X92.729 Y61.669 E57.9644
G1 F1500 E51.4644
G0 F9000 X91.991 Y65.539
G0 X91.338 Y67.732
G0 X90.434 Y69.835
G0 X89.295 Y71.82
G0 X86.588 Y75.783
G0 X79.77 Y79.974
G0 X75.32 Y81.123
G0 X74.748 Y103
G1 F1500 E57.9644
G1 X74.748 Y81.48 E58.53701
G1 X74.852 Y81.034 E58.54919
G1 X75.008 Y80.806 E58.55654
G1 X75.067 Y80.774 E58.55833
G1 X75.008 Y80.742 E58.56012
G1 X74.852 Y80.514 E58.56747
G1 X74.748 Y80.195 E58.57639
G1 X74.748 Y77 E58.66141
G1 X73.748 Y77 E58.68802
G1 X73.748 Y103 E59.37983
G1 X74.748 Y103 E59.40643
G0 F9000 X75.148 Y103.4
G1 F1500 X75.148 Y81.48 E59.98968
G1 X75.21 Y81.212 E59.997
G1 X75.304 Y81.076 E60.0014
G1 F1298.7 X75.622 Y80.829 E60.01378
G1 F1069.5 X75.761 Y80.766 E60.01947
G1 X75.622 Y80.719 E60.02495
G1 F1298.7 X75.304 Y80.472 E60.03732
G1 F1500 X75.21 Y80.336 E60.04172
G1 X75.148 Y80.144 E60.04709
G1 X75.148 Y76.6 E60.14139
G1 X73.348 Y76.6 E60.18928
G1 X73.348 Y103.4 E60.90238
G1 X75.148 Y103.4 E60.95028
G0 F9000 X75.548 Y103.8
;TYPE:WALL-OUTER
G1 F1500 X75.548 Y81.48 E61.54417
G1 X75.6 Y81.345 E61.54802
G1 X75.71 Y81.283 E61.55138
G1 X76.128 Y81.203 E61.5627
G1 X77.593 Y80.89 E61.60256
G1 X78.723 Y80.577 E61.63376
G1 X79.854 Y80.195 E61.66553
G1 X80.971 Y79.744 E61.69758
G1 X82.045 Y79.234 E61.72921
G1 X83.082 Y78.668 E61.76065
G1 X84.076 Y78.05 E61.79179
G1 X85.064 Y77.351 E61.82399
G1 X85.974 Y76.623 E61.855
G1 X86.882 Y75.807 E61.88749
G1 X87.697 Y74.981 E61.91836
G1 X88.477 Y74.098 E61.94971
G1 X89.206 Y73.169 E61.98113
G1 X89.878 Y72.2 E62.01251
G1 X90.511 Y71.167 E62.04474
G1 X91.063 Y70.143 E62.0757
G1 X91.567 Y69.046 E62.10782
G1 X91.996 Y67.964 E62.13879
G1 X92.37 Y66.822 E62.17076
G1 X92.669 Y65.71 E62.2014
G1 X92.91 Y64.529 E62.23348
G1 X93.081 Y63.356 E62.26502
G1 X93.184 Y62.192 E62.29611
G1 X93.21 Y61.201 E62.32249
G1 X92.272 Y61.201 E62.34745
G1 X92.248 Y62.126 E62.37207
G1 X92.15 Y63.253 E62.40217
G1 X91.984 Y64.389 E62.43272
G1 X91.758 Y65.481 E62.46239
G1 X91.466 Y66.58 E62.49264
G1 X91.114 Y67.646 E62.52251
G1 X90.694 Y68.713 E62.55303
G1 X90.221 Y69.725 E62.58275
G1 X89.679 Y70.733 E62.6132
G1 X89.088 Y71.695 E62.64324
G1 X88.447 Y72.617 E62.67312
G1 X87.758 Y73.496 E62.70284
G1 X86.987 Y74.365 E62.73375
G1 X86.206 Y75.153 E62.76327
G1 X85.357 Y75.913 E62.79359
G1 X84.467 Y76.624 E62.8239
G1 X83.555 Y77.266 E62.85358
G1 X82.589 Y77.868 E62.88386
G1 X81.586 Y78.417 E62.91429
G1 X80.571 Y78.894 E62.94413
G1 X79.529 Y79.314 E62.97402
G1 X78.441 Y79.682 E63.00458
G1 X77.367 Y79.972 E63.03418
G1 X76.244 Y80.211 E63.06473
G1 X75.722 Y80.272 E63.07872
G1 X75.6 Y80.203 E63.08245
G1 X75.551 Y80.103 E63.08541
G1 X75.548 Y76.2 E63.18926
G1 X72.948 Y76.2 E63.25844
G1 X72.948 Y103.8 E63.99283
G1 X75.548 Y103.8 E64.06201
G0 F9000 X75.28 Y103.53
G0 X74.83 Y80.774
G0 X74.83 Y76.918
G0 X73.666 Y76.918
G0 X73.848 Y77.5
G0 X74.248 Y77.5
;TYPE:SKIN
G1 F882.4 X74.248 Y80.092 E64.17925
G0 F9000 X73.848 Y80.092
G0 X73.848 Y81.574
G0 X74.238 Y81.574
G1 F1348.3 X74.092 Y81.201 E64.19111
G1 F1522.8 X74.119 Y80.774 E64.20232
G1 F1507.5 X74.095 Y80.489 E64.2099
G1 F1136.4 X74.248 Y80.092 E64.22484
G1 X74.461 Y80.432 E64.23893
G1 F1507.5 X74.519 Y80.681 E64.2457
G1 F1425.2 X74.58 Y80.774 E64.24881
G1 X74.519 Y80.867 E64.25193
G1 F1522.8 X74.454 Y81.242 E64.2619
G1 F1348.3 X74.238 Y81.574 E64.27363
G0 F9000 X74.248 Y81.6
G1 F882.4 X74.248 Y102.5 E65.21901
G1 F1500 E58.71901
G0 F9000 X73.848 Y102.5
G0 X73.92 Y102.828
G0 X74.576 Y102.828
G0 X75.33 Y100.844
G0 X76.415 Y100.844
G0 X82.085 Y100.844
G0 X83.17 Y100.844
G0 X83.92 Y97.172
G0 X84.576 Y97.172
G0 X84.888 Y100.844
G0 X85.713 Y100.844
;TYPE:WALL-INNER
G1 F1500 E65.21901
G1 F1022.1 X86.303 Y100.784 E65.24217
G1 F1079.1 X86.849 Y100.715 E65.26253
G1 F1115.2 X88.311 Y100.476 E65.31554
G1 F1113.2 X89.74 Y100.173 E65.36792
G1 X91.18 Y99.789 E65.42135
G1 F1111.1 X92.6 Y99.335 E65.4749
G1 F1113.2 X93.999 Y98.811 E65.52847
G1 F1111.1 X95.357 Y98.222 E65.58164
G1 F1109.1 X96.698 Y97.557 E65.6355
G1 X97.981 Y96.842 E65.68836
G1 F1111.1 X99.241 Y96.058 E65.74167
G1 F1115.2 X100.445 Y95.223 E65.79411
G1 X101.62 Y94.318 E65.84718
G1 F1111.1 X102.775 Y93.335 E65.90166
G1 F1109.1 X103.841 Y92.331 E65.95436
G1 F1111.1 X104.87 Y91.264 E66.00761
G1 X105.833 Y90.156 E66.06034
G1 X106.767 Y88.976 E66.1144
G1 X107.624 Y87.765 E66.16769
G1 F1107 X108.421 Y86.52 E66.22099
G1 X109.158 Y85.23 E66.27455
G1 F1109.1 X109.836 Y83.893 E66.3285
G1 X110.433 Y82.555 E66.38123
G1 F1113.2 X110.97 Y81.173 E66.43439
G1 F1115.2 X111.441 Y79.759 E66.48773
G1 F1113.2 X111.838 Y78.335 E66.54073
G1 F1111.1 X112.163 Y76.9 E66.59358
G1 F1115.2 X112.418 Y75.426 E66.64712
G1 F1117.3 X112.602 Y73.954 E66.70011
G1 X112.712 Y72.469 E66.7533
G1 F1121.5 X112.732 Y71.668 E66.78181
G1 F1500 E60.28181
G0 F9000 X111.939 Y76.85
G0 X111.219 Y79.704
G0 X110.219 Y82.473
G0 X108.952 Y85.129
G0 X107.429 Y87.649
G0 X105.664 Y90.004
G0 X103.675 Y92.175
G0 X99.289 Y96.326
G0 X89.812 Y100.395
G0 X85.321 Y101.169
G0 X84.748 Y123
G1 F1500 E66.78181
G1 X84.748 Y101.544 E67.35272
G1 X84.851 Y101.101 E67.36482
G1 X85.027 Y100.844 E67.37311
G1 X84.851 Y100.587 E67.3814
G1 X84.748 Y100.271 E67.39024
G1 X84.748 Y97 E67.47727
G1 X83.748 Y97 E67.50388
G1 X83.748 Y123 E68.19569
G1 X84.748 Y123 E68.2223
G0 F9000 X85.148 Y123.4
G1 F1500 X85.148 Y101.544 E68.80385
G1 X85.209 Y101.278 E68.81111
G1 X85.308 Y101.135 E68.81574
G1 F1415.1 X85.688 Y100.844 E68.82924
G1 X85.308 Y100.553 E68.84274
G1 F1500 X85.209 Y100.41 E68.84736
G1 X85.148 Y100.22 E68.85267
G1 X85.148 Y96.6 E68.949
G1 X83.348 Y96.6 E68.99689
G1 X83.348 Y123.4 E69.70999
G1 X85.148 Y123.4 E69.75788
G0 F9000 X85.548 Y123.8
;TYPE:WALL-OUTER
G1 F1500 X85.548 Y101.544 E70.35007
G1 X85.601 Y101.407 E70.35398
G1 X85.723 Y101.345 E70.35762
G1 X86.379 Y101.265 E70.37521
G1 X88.407 Y100.936 E70.42987
G1 X89.884 Y100.62 E70.47006
G1 X91.341 Y100.231 E70.51019
G1 X92.764 Y99.775 E70.54995
G1 X94.184 Y99.242 E70.59031
G1 X95.524 Y98.664 E70.62914
G1 X96.925 Y97.968 E70.67076
G1 X98.196 Y97.262 E70.70945
G1 X99.506 Y96.444 E70.75054
G1 X100.742 Y95.586 E70.79058
G1 X101.946 Y94.655 E70.83107
G1 X103.097 Y93.678 E70.87124
G1 X104.179 Y92.657 E70.91083
G1 X105.224 Y91.572 E70.95091
G1 X106.194 Y90.456 E70.99025
G1 X107.15 Y89.248 E71.03124
G1 X108.006 Y88.04 E71.07064
G1 X108.831 Y86.752 E71.11134
G1 X109.576 Y85.443 E71.15141
G1 X110.266 Y84.085 E71.19194
G1 X110.867 Y82.735 E71.23126
G1 X111.415 Y81.321 E71.27161
G1 X111.892 Y79.885 E71.31188
G1 X112.296 Y78.439 E71.35183
G1 X112.623 Y76.996 E71.39119
G1 X112.885 Y75.466 E71.4325
G1 X113.069 Y73.986 E71.47218
G1 X113.18 Y72.498 E71.51188
G1 X113.21 Y71.201 E71.5464
G1 X112.276 Y71.201 E71.57126
G1 X112.244 Y72.467 E71.60495
G1 X112.135 Y73.926 E71.64388
G1 X111.954 Y75.359 E71.68231
G1 X111.703 Y76.801 E71.72126
G1 X111.383 Y78.218 E71.75991
G1 X110.986 Y79.644 E71.7993
G1 X110.527 Y81.017 E71.83782
G1 X109.991 Y82.394 E71.87714
G1 X109.403 Y83.711 E71.91551
G1 X108.742 Y85.012 E71.95434
