;FLAVOR:Marlin
;TIME:908
;Filament used: 0.479152m
;Layer height: 0.16
;MINX:88.711
;MINY:101
;MINZ:0.2
;MAXX:131.8
;MAXY:118.492
;MAXZ:3.8
;TARGET_MACHINE.NAME:Creality Ender-3 Pro
;Generated with Cura_SteamEngine 5.8.1
M82 ;absolute extrusion mode
; Ender 3 Custom Start G-code
G92 E0 ; Reset Extruder
G28 ; Home all axes
G1 Z5.0 F3000 ; Move Z Axis up a bit during heating to not damage bed
M104 S175 ; Start heating up the nozzle most of the way
M190 S67.0 ; Start heating the bed, wait until target temperature reached
M109 S215.0 ; Finish heating the nozzle
G1 Z2.0 F3000 ; Move Z Axis up little to prevent scratching of Heat Bed
G29;
G1 X0.1 Y20 Z0.3 F5000.0 ; Move to start position
G1 X0.1 Y200.0 Z0.3 F1500.0 E15 ; Draw the first line
G1 X0.4 Y200.0 Z0.3 F5000.0 ; Move to side a little
G1 X0.4 Y20 Z0.3 F1500.0 E30 ; Draw the second line
G92 E0 ; Reset Extruder
G1 Z2.0 F3000 ; Move Z Axis up little to prevent scratching of Heat Bed
G1 X5 Y20 Z0.3 F5000.0 ; Move over to prevent blob squish
G92 E0
G92 E0
G1 F1500 E-6.5
;LAYER_COUNT:19
;LAYER:0
M107
;MESH:mount.stl
G0 F6000 X126.793 Y101.815 Z0.2
;TYPE:WALL-INNER
G1 F1500 E0
G1 F1218.3 X127.32 Y101.778 E0.01731
G1 F1322.3 X127.847 Y101.785 E0.03322
G0 F6000 X129.136 Y102.395
G0 X129.526 Y102.698
G0 X129.862 Y103.062
G0 X130.132 Y103.476
G0 X130.33 Y103.928
G0 X130.452 Y104.408
G0 X130.493 Y104.9
G0 X130.452 Y105.392
G0 X130.33 Y105.872
G0 X130.132 Y106.324
G0 X129.862 Y106.738
G0 X129.526 Y107.102
G0 X129.136 Y107.405
G0 X128.702 Y107.64
G0 X128.437 Y107.731
G0 X127.217 Y107.937
G0 X127.267 Y107.638
G1 F1200 X126.821 Y107.564 E0.04825
G1 X126.395 Y107.418 E0.06323
G1 X125.997 Y107.207 E0.07821
G1 X125.632 Y106.924 E0.09357
G1 X125.329 Y106.596 E0.10843
G1 X125.074 Y106.207 E0.1239
G1 X124.893 Y105.788 E0.13908
G1 X124.789 Y105.36 E0.15373
G1 X124.748 Y104.9 E0.16909
G1 X124.796 Y104.401 E0.18576
G1 X124.893 Y104.008 E0.19922
G1 X125.076 Y103.584 E0.21458
G1 X125.359 Y103.172 E0.23121
G1 X125.63 Y102.874 E0.24461
G1 X125.996 Y102.59 E0.26001
G1 X126.403 Y102.372 E0.27537
G1 X126.864 Y102.224 E0.29147
G1 X127.265 Y102.156 E0.305
G1 X127.735 Y102.156 E0.32063
G1 X128.131 Y102.224 E0.334
G1 X128.593 Y102.372 E0.35013
G1 X129 Y102.59 E0.36549
G1 X129.324 Y102.841 E0.37912
G1 X129.67 Y103.203 E0.39578
G1 X129.924 Y103.595 E0.41131
G1 X130.083 Y103.962 E0.42462
G1 X130.214 Y104.437 E0.441
G1 X130.248 Y104.9 E0.45644
G1 X130.213 Y105.367 E0.47202
G1 X130.083 Y105.834 E0.48814
G1 X129.897 Y106.246 E0.50318
G1 X129.667 Y106.601 E0.51725
G1 X129.324 Y106.955 E0.53364
G1 X129.001 Y107.206 E0.54725
G1 X128.598 Y107.422 E0.56245
G1 X128.13 Y107.572 E0.5788
G1 X127.735 Y107.64 E0.59213
G1 X127.267 Y107.638 E0.6077
G0 F6000 X127.217 Y107.937
G0 X125.252 Y107.339
G0 X124.195 Y105.424
G0 X124.162 Y110.93
G0 X124.548 Y113.592
G0 X124.67 Y114.072
G0 X124.868 Y114.524
G0 X125.138 Y114.938
G0 X125.474 Y115.302
G0 X125.864 Y115.605
G0 X126.11 Y115.739
G0 X127.212 Y116.136
G0 X127.262 Y115.84
G1 F1200 X126.776 Y115.749 E0.62414
G1 X126.394 Y115.62 E0.63755
G1 X125.995 Y115.406 E0.65261
G1 X125.632 Y115.124 E0.6679
G1 X125.329 Y114.795 E0.68278
G1 X125.077 Y114.409 E0.69811
G1 X124.886 Y113.959 E0.71437
G1 X124.784 Y113.529 E0.72907
G1 X124.748 Y113.104 E0.74325
G1 X124.782 Y112.69 E0.75707
G1 X124.893 Y112.212 E0.77339
G1 X125.091 Y111.764 E0.78968
G1 X125.359 Y111.372 E0.80548
G1 X125.63 Y111.074 E0.81887
G1 X125.995 Y110.791 E0.83423
G1 X126.398 Y110.574 E0.84946
G1 X126.867 Y110.424 E0.86583
G1 X127.267 Y110.358 E0.87932
G1 X127.739 Y110.356 E0.89502
G1 X128.22 Y110.447 E0.9113
G1 X128.602 Y110.576 E0.92471
G1 X129.001 Y110.79 E0.93977
G1 X129.324 Y111.041 E0.95337
G1 X129.67 Y111.403 E0.97003
G1 X129.924 Y111.795 E0.98557
G1 X130.083 Y112.162 E0.99887
G1 X130.214 Y112.637 E1.01526
G1 X130.248 Y113.1 E1.0307
G1 X130.213 Y113.567 E1.04627
G1 X130.083 Y114.034 E1.0624
G1 X129.897 Y114.446 E1.07743
G1 X129.667 Y114.801 E1.0915
G1 X129.324 Y115.155 E1.10789
G1 X128.957 Y115.429 E1.12313
G1 X128.598 Y115.622 E1.13668
G1 X128.132 Y115.772 E1.15297
G1 X127.736 Y115.84 E1.16633
G1 X127.262 Y115.84 E1.1821
G0 F6000 X126.797 Y116.183
G1 F1188.1 X127.154 Y116.213 E1.19413
G1 F1307.9 X127.68 Y116.22 E1.21018
G1 F1206 X128.203 Y116.183 E1.22754
G0 F6000 X119.828 Y116.15
G0 X119.828 Y116.311
G1 F1200 X119.903 Y116.18 E1.23256
G1 X120.4 Y116.048 E1.24966
G1 X123.091 Y116.048 E1.33916
G1 X123.375 Y116.121 E1.34892
G1 X123.429 Y116.2 E1.3521
G1 X126.286 Y116.199 E1.44712
G1 F1176.5 X126.771 Y116.184 E1.46358
G1 F1165 X126.219 Y115.98 E1.48374
G1 F1182.3 X125.778 Y115.743 E1.50065
G1 F1194 X125.361 Y115.42 E1.51828
G1 F1200 X125.01 Y115.039 E1.53551
G1 X124.727 Y114.601 E1.55285
G1 X124.515 Y114.123 E1.57024
G1 X124.388 Y113.613 E1.58772
G1 X124.348 Y113.106 E1.60464
G1 X124.383 Y112.654 E1.61972
G1 X124.408 Y112.506 E1.62471
G1 F1016.9 X124.445 Y112.065 E1.64208
G1 F866.4 X124.61 Y111.646 E1.66282
G1 F937.5 X124.747 Y111.505 E1.67119
G1 F1116.3 X125.063 Y111.103 E1.68947
G1 F1200 X125.357 Y110.779 E1.70403
G1 X125.78 Y110.452 E1.72181
G1 X126.234 Y110.211 E1.7389
G1 X126.721 Y110.043 E1.75604
G1 X127.232 Y109.959 E1.77326
G1 X127.767 Y109.955 E1.79106
G1 X128.278 Y110.044 E1.80831
G1 X128.762 Y110.211 E1.82534
G1 X129.219 Y110.454 E1.84255
G1 X129.633 Y110.775 E1.85998
G1 X129.989 Y111.158 E1.87737
G1 X130.278 Y111.604 E1.89505
G1 F1194 X130.48 Y112.072 E1.91208
G1 F1206 X130.607 Y112.545 E1.92829
G1 F1250 X130.636 Y113.1 E1.94604
G1 F1237.1 X130.605 Y113.629 E1.96313
G1 F1200 X130.485 Y114.113 E1.97972
G1 X130.276 Y114.596 E1.99722
G1 X129.982 Y115.049 E2.01518
G1 X129.633 Y115.422 E2.03217
G1 X129.213 Y115.745 E2.0498
G1 F1173.6 X128.768 Y115.985 E2.06699
G1 F1124.1 X128.203 Y116.183 E2.08825
G1 F1148.3 X128.71 Y116.199 E2.10588
G1 F1200 X131 Y116.2 E2.18204
G1 X131.001 Y113.663 E2.26642
G1 F1237.1 X131.012 Y113.1 E2.28459
G1 F1224.5 X130.996 Y112.444 E2.30598
G1 F1188.1 X131.001 Y105.463 E2.54049
G1 F1237.1 X131.012 Y104.9 E2.55866
G1 F1224.5 X130.996 Y104.244 E2.58005
G1 F1188.1 X131 Y101.8 E2.66215
G1 F1206 X128.201 Y101.798 E2.75478
G1 F1253.3 X127.847 Y101.785 E2.76606
G1 F1269.8 X128.27 Y101.842 E2.77947
G1 F1224.5 X128.756 Y102.006 E2.79619
G1 F1200 X129.218 Y102.253 E2.81362
G1 X129.629 Y102.572 E2.83092
G1 X129.988 Y102.957 E2.84843
G1 X130.277 Y103.404 E2.86613
G1 F1194 X130.48 Y103.872 E2.88319
G1 F1206 X130.607 Y104.345 E2.89939
G1 F1250 X130.636 Y104.9 E2.91714
G1 F1237.1 X130.605 Y105.429 E2.93424
G1 F1200 X130.485 Y105.913 E2.95082
G1 X130.276 Y106.396 E2.96832
G1 X129.982 Y106.85 E2.98631
G1 X129.633 Y107.221 E3.00326
G1 X129.219 Y107.542 E3.02068
G1 X128.762 Y107.785 E3.03789
G1 X128.278 Y107.952 E3.05492
G1 X127.767 Y108.041 E3.07218
G1 X127.232 Y108.037 E3.08997
G1 X126.721 Y107.953 E3.10719
G1 X126.234 Y107.785 E3.12433
G1 X125.78 Y107.544 E3.14142
G1 X125.361 Y107.22 E3.15904
G1 X125.013 Y106.842 E3.17613
G1 X124.722 Y106.4 E3.19373
G1 X124.512 Y105.914 E3.21134
G1 X124.395 Y105.429 E3.22793
G1 F1243.5 X124.361 Y104.9 E3.24495
G1 F1256.5 X124.394 Y104.348 E3.26251
G1 F1224.5 X124.515 Y103.873 E3.27849
G1 F1212.1 X124.724 Y103.392 E3.29576
G1 F1206 X125.013 Y102.958 E3.31301
G1 F1200 X125.357 Y102.579 E3.33004
G1 X125.779 Y102.253 E3.34777
G1 F1188.1 X126.227 Y102.013 E3.36485
G1 F1159.4 X126.766 Y101.814 E3.38463
G1 F1170.7 X126.287 Y101.801 E3.40096
G1 F1200 X91 Y101.8 E4.57461
G1 X91 Y103.8 E4.64113
G1 X91.09 Y103.864 E4.64481
G1 X91.145 Y104.111 E4.65322
G1 X91.148 Y106.8 E4.74266
G1 X91.017 Y107.297 E4.75975
G1 X90.89 Y107.369 E4.76461
G1 X92.999 Y108.631 E4.84635
G1 X95.107 Y107.371 E4.92804
G1 X94.98 Y107.298 E4.93291
G1 X94.848 Y106.8 E4.95004
G1 X94.851 Y104.062 E5.04111
G1 X94.947 Y103.766 E5.05146
G1 X95.135 Y103.498 E5.06235
G1 X95.446 Y103.283 E5.07492
G1 X95.726 Y103.2 E5.08464
G1 X110.148 Y103.2 E5.56431
G1 X110.55 Y103.283 E5.57797
G1 X110.861 Y103.498 E5.59054
G1 X111.05 Y103.766 E5.60145
G1 X111.145 Y104.062 E5.61179
G1 X111.148 Y106.8 E5.70286
G1 X111.017 Y107.297 E5.71995
G1 X110.89 Y107.369 E5.72481
G1 X112.999 Y108.631 E5.80655
G1 X115.107 Y107.371 E5.88823
G1 X114.98 Y107.298 E5.89311
G1 X114.848 Y106.8 E5.91024
G1 X114.851 Y104.062 E6.00131
G1 X114.947 Y103.766 E6.01166
G1 X115.135 Y103.498 E6.02254
G1 X115.446 Y103.283 E6.03512
G1 X115.726 Y103.2 E6.04483
G1 X123 Y103.2 E6.28677
G1 X123.598 Y103.398 E6.30772
G1 X123.794 Y103.59 E6.31684
G1 X123.919 Y103.803 E6.32506
G1 F1194 X124.002 Y104.2 E6.33862
G1 F1230.8 X123.987 Y104.9 E6.36132
G1 F1243.5 X124 Y105.546 E6.38206
G1 F1200 X124.001 Y110.927 E6.56103
G1 F1116.3 X124.029 Y111.288 E6.57398
G1 F937.5 X124.073 Y111.497 E6.58307
G1 F923.1 X123.956 Y111.858 E6.59948
G1 F1095.9 X123.565 Y112.174 E6.61779
G1 F1200 X123.37 Y112.278 E6.62514
G1 X123.032 Y112.348 E6.63662
G1 X120.4 Y112.348 E6.72416
G1 X119.903 Y112.216 E6.74126
G1 X119.828 Y112.086 E6.74626
G1 X118.565 Y114.199 E6.82813
G1 X119.828 Y116.311 E6.90998
G0 F6000 X119.801 Y117.048
G1 F1200 X120.101 Y116.527 E6.92998
G1 X120.4 Y116.448 E6.94026
G1 X123.081 Y116.453 E7.02943
G1 X123.225 Y116.491 E7.03439
G1 X123.298 Y116.6 E7.03875
G1 X131.4 Y116.6 E7.30822
G1 X131.4 Y101.4 E7.81378
G1 X90.6 Y101.4 E9.17079
G1 X90.6 Y103.918 E9.25454
G1 X90.714 Y103.998 E9.25917
G1 X90.746 Y104.146 E9.26421
G1 X90.748 Y106.8 E9.35248
G1 X90.669 Y107.098 E9.36273
G1 X90.154 Y107.396 E9.38252
G1 X92.999 Y109.097 E9.49277
G1 X95.842 Y107.396 E9.60296
G1 X95.327 Y107.099 E9.62274
G1 X95.248 Y106.8 E9.63302
G1 X95.25 Y104.117 E9.72226
G1 X95.307 Y103.939 E9.72848
G1 X95.42 Y103.779 E9.73499
G1 X95.607 Y103.65 E9.74255
G1 X95.774 Y103.6 E9.74835
G1 X110.148 Y103.6 E10.22643
G1 X110.39 Y103.65 E10.23465
G1 X110.576 Y103.779 E10.24217
G1 X110.689 Y103.939 E10.24869
G1 X110.746 Y104.146 E10.25583
G1 X110.748 Y106.8 E10.3441
G1 X110.669 Y107.098 E10.35436
G1 X110.154 Y107.396 E10.37415
G1 X112.999 Y109.097 E10.48439
G1 X115.842 Y107.396 E10.59459
G1 X115.327 Y107.099 E10.61436
G1 X115.248 Y106.8 E10.62465
G1 X115.25 Y104.117 E10.71388
G1 X115.307 Y103.939 E10.7201
G1 X115.42 Y103.779 E10.72661
G1 X115.607 Y103.65 E10.73417
G1 X115.774 Y103.6 E10.73997
G1 X123 Y103.6 E10.98031
G1 X123.359 Y103.719 E10.99288
G1 X123.476 Y103.834 E10.99834
G1 X123.6 Y104.093 E11.00789
G1 X123.595 Y111.431 E11.25195
G1 X123.553 Y111.582 E11.25717
G1 X123.409 Y111.788 E11.26553
G1 X123.222 Y111.906 E11.27288
G1 X123.019 Y111.948 E11.27978
G1 X120.4 Y111.948 E11.36688
G1 X120.102 Y111.869 E11.37714
G1 X119.801 Y111.348 E11.39715
G1 X118.099 Y114.199 E11.50759
G1 X119.801 Y117.048 E11.61797
G0 F6000 X119.574 Y116.223
G0 X119.974 Y117.673
G0 X120.2 Y118.492
;TYPE:WALL-OUTER
G1 F1200 X120.2 Y117.048 E11.666
G1 X120.315 Y116.848 E11.67367
G1 X123.066 Y116.849 E11.76517
G1 X123.168 Y117 E11.77123
G1 X131.8 Y117 E12.05833
G1 X131.8 Y101 E12.59049
G1 X90.2 Y101 E13.97411
G1 X90.2 Y104.036 E14.07509
G1 X90.348 Y104.14 E14.08111
G1 X90.348 Y106.885 E14.17241
G1 X90.148 Y107 E14.18008
G1 X88.711 Y107 E14.22787
G1 X92.999 Y109.563 E14.39403
G1 X97.285 Y107 E14.56013
G1 X95.848 Y107 E14.60792
G1 X95.648 Y106.885 E14.61559
G1 X95.648 Y104.182 E14.7055
G1 X95.705 Y104.059 E14.71
G1 X95.813 Y104.003 E14.71405
G1 X110.206 Y104 E15.19276
G1 X110.291 Y104.059 E15.19621
G1 X110.348 Y104.182 E15.20071
G1 X110.348 Y106.885 E15.29062
G1 X110.148 Y107 E15.29829
G1 X108.711 Y107 E15.34608
G1 X112.999 Y109.563 E15.51224
G1 X117.285 Y107 E15.67834
G1 X115.848 Y107 E15.72613
G1 X115.648 Y106.885 E15.7338
G1 X115.648 Y104.182 E15.82371
G1 X115.705 Y104.059 E15.82821
G1 X115.813 Y104.003 E15.83226
G1 X123 Y104 E16.0713
G1 X123.12 Y104.039 E16.0755
G1 X123.195 Y104.152 E16.08001
G1 X123.199 Y111.376 E16.32028
G1 X123.169 Y111.456 E16.32312
G1 X123.04 Y111.545 E16.32833
G1 X120.315 Y111.548 E16.41897
G1 X120.2 Y111.348 E16.42664
G1 X120.2 Y109.905 E16.47464
G1 X117.633 Y114.199 E16.64103
G1 X120.2 Y118.492 E16.80739
G1 F1500 E10.30739
G0 F6000 X119.974 Y117.673
G0 X119.972 Y116.622
G0 X127.169 Y116.129
G0 X127.286 Y115.438
G1 F1500 E16.80739
G1 F1200 X126.934 Y115.378 E16.81927
G1 X126.541 Y115.245 E16.83307
G1 X126.201 Y115.059 E16.84596
G1 X125.892 Y114.816 E16.85904
G1 X125.636 Y114.534 E16.8717
G1 X125.428 Y114.217 E16.88431
G1 X125.269 Y113.844 E16.8978
G1 X125.18 Y113.474 E16.91046
G1 X125.148 Y113.082 E16.92354
G1 X125.185 Y112.696 E16.93644
G1 X125.273 Y112.337 E16.94873
G1 X125.42 Y111.996 E16.96108
G1 X125.655 Y111.641 E16.97524
G1 X125.917 Y111.357 E16.98809
G1 X126.229 Y111.119 E17.00114
G1 X126.555 Y110.944 E17.01345
G1 X126.934 Y110.818 E17.02673
G1 X127.302 Y110.756 E17.03915
G1 X127.715 Y110.758 E17.05288
G1 X128.062 Y110.818 E17.06459
G1 X128.441 Y110.944 E17.07788
G1 X128.795 Y111.137 E17.09129
G1 X129.079 Y111.357 E17.10324
G1 X129.364 Y111.666 E17.11722
G1 X129.576 Y111.996 E17.13026
G1 X129.726 Y112.35 E17.14305
G1 X129.82 Y112.728 E17.15601
G1 X129.848 Y113.116 E17.16895
G1 X129.814 Y113.507 E17.182
G1 X129.716 Y113.876 E17.1947
G1 X129.561 Y114.229 E17.20752
G1 X129.342 Y114.561 E17.22075
G1 X129.079 Y114.839 E17.23348
G1 X128.767 Y115.077 E17.24653
G1 X128.424 Y115.258 E17.25943
G1 X128.063 Y115.378 E17.27208
G1 X127.715 Y115.438 E17.28383
G1 X127.286 Y115.438 E17.2981
G1 F1500 E10.7981
G0 F6000 X127.169 Y116.129
G0 X126.298 Y115.84
G0 X125.864 Y115.605
G0 X125.474 Y115.302
G0 X125.138 Y114.938
G0 X124.868 Y114.524
G0 X124.67 Y114.072
G0 X124.548 Y113.592
G0 X124.162 Y110.93
G0 X124.195 Y105.424
G0 X125.539 Y107.453
G0 X127.185 Y107.932
G0 X127.302 Y107.24
G1 F1500 E17.2981
G1 F1200 X126.934 Y107.178 E17.31051
G1 X126.555 Y107.052 E17.32379
G1 X126.201 Y106.859 E17.3372
G1 X125.892 Y106.616 E17.35028
G1 X125.636 Y106.334 E17.36294
G1 X125.42 Y106 E17.37617
G1 X125.269 Y105.644 E17.38904
G1 X125.18 Y105.274 E17.40169
G1 X125.148 Y104.882 E17.41477
G1 X125.185 Y104.496 E17.42767
G1 X125.28 Y104.12 E17.44057
G1 X125.42 Y103.796 E17.45231
G1 X125.655 Y103.441 E17.46647
G1 X125.917 Y103.157 E17.47932
G1 X126.229 Y102.919 E17.49237
G1 X126.572 Y102.738 E17.50527
G1 X126.933 Y102.618 E17.51792
G1 X127.286 Y102.558 E17.52983
G1 X127.714 Y102.558 E17.54407
G1 X128.063 Y102.618 E17.55585
G1 X128.424 Y102.738 E17.5685
G1 X128.795 Y102.937 E17.5825
G1 X129.079 Y103.157 E17.59445
G1 X129.364 Y103.466 E17.60843
G1 X129.576 Y103.796 E17.62148
G1 X129.726 Y104.15 E17.63427
G1 X129.82 Y104.528 E17.64722
G1 X129.848 Y104.884 E17.6591
G1 X129.82 Y105.272 E17.67204
G1 X129.716 Y105.676 E17.68591
G1 X129.561 Y106.029 E17.69873
G1 X129.342 Y106.361 E17.71196
G1 X129.079 Y106.639 E17.72469
G1 X128.767 Y106.877 E17.73774
G1 X128.441 Y107.052 E17.75005
G1 X128.062 Y107.178 E17.76333
G1 X127.715 Y107.238 E17.77505
G1 X127.302 Y107.24 E17.78878
G0 F6000 X127.185 Y107.932
G0 X125.252 Y107.339
G0 X124.195 Y105.424
G0 X124.162 Y110.93
G0 X124.221 Y111.298
G0 X124.33 Y111.546
G0 X124.585 Y111.48
G0 X124.426 Y111.275
;TYPE:SKIN
G1 F1200 X124.359 Y110.897 E17.80155
G1 X124.357 Y106.509 E17.9475
G1 X124.717 Y107.051 E17.96914
G1 X125.101 Y107.469 E17.98802
G1 X125.564 Y107.834 E18.00763
G1 X126.098 Y108.118 E18.02774
G1 X126.651 Y108.306 E18.04717
G1 X127.198 Y108.396 E18.06561
G1 X127.815 Y108.398 E18.08613
G1 X128.343 Y108.306 E18.10395
G1 X128.917 Y108.106 E18.12417
G1 X129.428 Y107.834 E18.14342
G1 X129.864 Y107.494 E18.16181
G1 X130.258 Y107.082 E18.18077
G1 X130.64 Y106.491 E18.20418
G1 X130.64 Y111.501 E18.37081
G1 X130.259 Y110.919 E18.39395
G1 X129.891 Y110.523 E18.41193
G1 X129.423 Y110.157 E18.43169
G1 X128.923 Y109.887 E18.45059
G1 X128.343 Y109.686 E18.47101
G1 X127.815 Y109.594 E18.48883
