;FLAVOR:Marlin
;TIME:2914
;Filament used: 1.27386m
;Layer height: 0.16
;MINX:73.9
;MINY:90.093
;MINZ:0.2
;MAXX:146.011
;MAXY:129.172
;MAXZ:8.88
;TARGET_MACHINE.NAME:Creality Ender-3 Pro
;Generated with Cura_SteamEngine 5.8.1
M82 ;absolute extrusion mode
; Ender 3 Custom Start G-code
G92 E0 ; Reset Extruder
G28 ; Home all axes
G1 Z5.0 F3000 ; Move Z Axis up a bit during heating to not damage bed
M104 S175 ; Start heating up the nozzle most of the way
M190 S67.0 ; Start heating the bed, wait until target temperature reached
M109 S207.0 ; Finish heating the nozzle
G1 Z2.0 F3000 ; Move Z Axis up little to prevent scratching of Heat Bed
G29;
G1 X0.1 Y20 Z0.3 F5000.0 ; Move to start position
G1 X0.1 Y200.0 Z0.3 F1500.0 E15 ; Draw the first line
G1 X0.4 Y200.0 Z0.3 F5000.0 ; Move to side a little
G1 X0.4 Y20 Z0.3 F1500.0 E30 ; Draw the second line
G92 E0 ; Reset Extruder
G1 Z2.0 F3000 ; Move Z Axis up little to prevent scratching of Heat Bed
G1 X5 Y20 Z0.3 F5000.0 ; Move over to prevent blob squish
G92 E0
G92 E0
G1 F1500 E-6.5
;LAYER_COUNT:58
;LAYER:0
M107
;MESH:SmallTubes v1.stl
G0 F6000 X75.7 Y128.372 Z0.2
;TYPE:WALL-INNER
G1 F1500 E0
G1 F1200 X75.7 Y106.528 E0.72653
G1 X75.794 Y106.104 E0.74098
G1 X76.03 Y105.785 E0.75418
G1 X76.229 Y105.645 E0.76227
G1 F1111.1 X76.654 Y105.457 E0.77896
G1 F995.9 X77.371 Y105.352 E0.80801
G1 F958.1 X78.437 Y105.175 E0.85302
G1 F956.2 X79.477 Y104.956 E0.89738
G1 F952.4 X80.563 Y104.674 E0.94441
G1 X81.562 Y104.37 E0.98817
G1 F948.6 X82.48 Y104.053 E1.02903
G1 X83.62 Y103.596 E1.0807
G1 F950.5 X84.59 Y103.158 E1.1254
G1 X85.55 Y102.673 E1.17056
G1 F952.4 X86.527 Y102.125 E1.2175
G1 X87.432 Y101.566 E1.26208
G1 X88.346 Y100.943 E1.30844
G1 F950.5 X89.181 Y100.324 E1.35208
G1 X90.054 Y99.612 E1.39939
G1 F952.4 X90.895 Y98.869 E1.44642
G1 X91.632 Y98.15 E1.48957
G1 X92.356 Y97.393 E1.53346
G1 F950.5 X93.087 Y96.554 E1.58019
G1 F952.4 X93.747 Y95.727 E1.62453
G1 X94.404 Y94.829 E1.67116
G1 F950.5 X95.023 Y93.899 E1.71807
G1 X94.587 Y93.646 E1.73924
G1 F952.4 X93.983 Y94.552 E1.78487
G1 X93.354 Y95.413 E1.82956
G1 X92.69 Y96.244 E1.87414
G1 F950.5 X91.962 Y97.076 E1.92056
G1 F952.4 X91.291 Y97.781 E1.96135
G1 X90.528 Y98.521 E2.00589
G1 X89.712 Y99.244 E2.05158
G1 F950.5 X88.871 Y99.924 E2.09699
G1 X88.034 Y100.548 E2.14083
G1 F954.3 X87.178 Y101.133 E2.18419
G1 X86.226 Y101.719 E2.23095
G1 F952.4 X85.338 Y102.215 E2.27358
G1 F950.5 X84.353 Y102.711 E2.31989
G1 F948.6 X83.403 Y103.14 E2.36374
G1 F950.5 X82.431 Y103.53 E2.40772
G1 F952.4 X81.434 Y103.882 E2.45203
G1 F954.3 X80.372 Y104.206 E2.49847
G1 F956.2 X79.334 Y104.473 E2.54321
G1 X78.326 Y104.687 E2.58622
G1 F958.1 X77.29 Y104.86 E2.62998
G1 F995.9 X76.648 Y104.928 E2.65585
G1 F1111.1 X76.229 Y104.743 E2.6723
G1 F1200 X76.03 Y104.603 E2.68039
G1 X75.794 Y104.284 E2.69359
G1 X75.7 Y103.985 E2.70402
G1 X75.7 Y100.372 E2.82419
G1 X74.7 Y100.372 E2.85745
G1 X74.7 Y128.372 E3.78873
G1 X75.7 Y128.372 E3.82199
G0 F6000 X76.1 Y128.772
G1 F1200 X76.1 Y106.528 E4.56183
G1 X76.156 Y106.273 E4.57051
G1 X76.298 Y106.082 E4.57843
G1 X76.602 Y105.935 E4.58966
G1 X78.504 Y105.622 E4.65377
G1 X79.575 Y105.396 E4.69018
G1 X80.694 Y105.106 E4.72862
G1 X81.711 Y104.797 E4.76398
G1 X82.596 Y104.495 E4.79508
G1 X83.806 Y104.008 E4.83846
G1 X84.825 Y103.546 E4.87567
G1 X85.77 Y103.067 E4.91091
G1 X86.764 Y102.51 E4.94881
G1 X87.686 Y101.94 E4.98486
G1 X88.615 Y101.306 E5.02227
G1 X89.476 Y100.668 E5.05791
G1 X90.353 Y99.951 E5.09559
G1 X91.203 Y99.2 E5.13331
G1 X91.956 Y98.463 E5.16836
G1 X92.665 Y97.726 E5.20237
G1 X93.44 Y96.836 E5.24162
G1 X94.135 Y95.963 E5.27874
G1 X94.779 Y95.081 E5.31506
G1 X95.398 Y94.153 E5.35216
G1 X95.649 Y93.738 E5.36829
G1 X94.43 Y93.034 E5.41511
G1 X94.188 Y93.434 E5.43066
G1 X93.617 Y94.286 E5.46478
G1 X93.002 Y95.131 E5.49954
G1 X92.349 Y95.947 E5.5343
G1 X91.655 Y96.742 E5.5694
G1 X90.954 Y97.48 E5.60325
G1 X90.195 Y98.214 E5.63837
G1 X89.401 Y98.916 E5.67362
G1 X88.6 Y99.561 E5.70782
G1 X87.768 Y100.182 E5.74236
G1 X86.899 Y100.776 E5.77737
G1 X86.005 Y101.324 E5.81224
G1 X85.094 Y101.832 E5.84693
G1 X84.167 Y102.299 E5.88146
G1 X83.221 Y102.726 E5.91598
G1 X82.263 Y103.11 E5.95031
G1 X81.284 Y103.455 E5.98483
G1 X80.259 Y103.77 E6.0205
G1 X79.241 Y104.032 E6.05546
G1 X78.236 Y104.245 E6.08963
G1 X77.168 Y104.422 E6.12563
G1 X76.639 Y104.466 E6.14329
G1 X76.298 Y104.306 E6.15582
G1 X76.156 Y104.115 E6.16373
G1 X76.1 Y103.935 E6.17
G1 X76.1 Y99.972 E6.30181
G1 X74.3 Y99.972 E6.36168
G1 X74.3 Y128.772 E7.31957
G1 X76.1 Y128.772 E7.37944
G0 F6000 X76.5 Y129.172
;TYPE:WALL-OUTER
G1 F1200 X76.5 Y106.467 E8.13461
G1 X76.566 Y106.379 E8.13827
G1 X76.667 Y106.33 E8.142
G1 X78.578 Y106.015 E8.20642
G1 X79.689 Y105.78 E8.24419
G1 X80.81 Y105.489 E8.28271
G1 X81.843 Y105.175 E8.31862
G1 X82.69 Y104.878 E8.34848
G1 X82.698 Y104.885 E8.34883
G1 X83.97 Y104.373 E8.39443
G1 X84.91 Y103.949 E8.42873
G1 X85.964 Y103.417 E8.468
G1 X86.946 Y102.867 E8.50544
G1 X87.891 Y102.284 E8.54237
G1 X88.853 Y101.628 E8.58109
G1 X89.709 Y100.994 E8.61652
G1 X90.617 Y100.251 E8.65555
G1 X91.495 Y99.474 E8.69454
G1 X92.244 Y98.741 E8.7294
G1 X92.978 Y97.976 E8.76466
G1 X93.752 Y97.086 E8.80389
G1 X94.458 Y96.199 E8.8416
G1 X95.1 Y95.321 E8.87777
G1 X95.731 Y94.376 E8.91557
G1 X96.203 Y93.596 E8.94589
G1 X94.29 Y92.492 E9.01935
G1 X93.855 Y93.212 E9.04733
G1 X93.294 Y94.05 E9.08087
G1 X92.689 Y94.881 E9.11506
G1 X92.047 Y95.684 E9.14925
G1 X91.365 Y96.466 E9.18376
G1 X90.667 Y97.2 E9.21745
G1 X89.929 Y97.914 E9.25161
G1 X89.15 Y98.604 E9.28622
G1 X88.36 Y99.241 E9.31997
G1 X87.529 Y99.862 E9.35448
G1 X86.689 Y100.435 E9.3883
G1 X85.81 Y100.975 E9.42261
G1 X84.914 Y101.475 E9.45673
G1 X84.003 Y101.935 E9.49068
G1 X83.055 Y102.362 E9.52526
G1 X82.107 Y102.741 E9.55922
G1 X81.143 Y103.08 E9.5932
G1 X80.159 Y103.382 E9.62744
G1 X79.158 Y103.64 E9.66182
G1 X78.15 Y103.854 E9.69609
G1 X77.134 Y104.024 E9.73036
G1 X76.698 Y104.061 E9.74491
G1 X76.605 Y104.037 E9.7481
G1 X76.503 Y103.929 E9.75305
G1 X76.5 Y99.572 E9.89796
G1 X73.9 Y99.572 E9.98444
G1 X73.9 Y129.172 E10.96894
G1 X76.5 Y129.172 E11.05541
G1 F1500 E4.55541
G0 F6000 X76.231 Y128.905
G0 X76.155 Y105.503
G0 X80.588 Y104.82
G0 X81.879 Y103.932
G0 X75.647 Y104.351
G0 X75.782 Y100.29
G0 X74.618 Y100.29
G0 X74.8 Y100.872
G0 X75.2 Y100.872
;TYPE:SKIN
G1 F1500 E11.05541
G1 F702.8 X75.202 Y104.063 E11.23663
G0 F6000 X74.8 Y104.063
G0 X74.8 Y106.454
G0 X75.204 Y106.454
G1 F882.4 X75.061 Y105.951 E11.26029
G1 F1200 X75.06 Y104.469 E11.30958
G1 F884 X75.202 Y104.063 E11.329
G1 X75.457 Y104.408 E11.34837
G1 F1200 X75.487 Y104.467 E11.35057
G1 X75.789 Y104.869 E11.3673
G1 X76.037 Y105.047 E11.37745
G1 X76.32 Y105.193 E11.38804
G1 X76.036 Y105.34 E11.39868
G1 X75.789 Y105.515 E11.40874
G1 X75.487 Y105.917 E11.42547
G1 F882.4 X75.204 Y106.454 E11.45292
G1 F701.8 X75.2 Y127.872 E12.67107
G0 F6000 X74.8 Y127.872
G0 X74.872 Y128.2
G0 X75.528 Y128.2
G0 X75.502 Y113.836
G0 X75.904 Y105.791
G0 X75.535 Y105.517
G1 F1200 X75.262 Y105.243 E12.68393
G0 F6000 X75.262 Y104.678
G1 F1200 X75.827 Y105.243 E12.71051
G1 F1500 E6.21051
G0 F6000 X76.091 Y105.621
G0 X76.281 Y128.372
G0 X77.366 Y128.372
G0 X123.036 Y128.372
G0 X124.121 Y128.372
G0 X124.7 Y128.372
;TYPE:WALL-INNER
G1 F1500 E12.71051
G1 F1200 X125.7 Y128.372 E12.74377
G1 X125.7 Y106.528 E13.4703
G1 X125.794 Y106.104 E13.48475
G1 X126.03 Y105.785 E13.49795
G1 X126.23 Y105.645 E13.50607
G1 F1111.1 X126.653 Y105.457 E13.52269
G1 F995.9 X127.372 Y105.354 E13.55181
G1 F956.2 X128.432 Y105.178 E13.59666
G1 F952.4 X129.464 Y104.96 E13.64086
G1 X130.524 Y104.685 E13.68675
G1 X131.542 Y104.376 E13.73134
G1 X132.458 Y104.061 E13.77193
G1 F948.6 X133.581 Y103.613 E13.8228
G1 F950.5 X134.568 Y103.168 E13.86826
G1 X135.523 Y102.687 E13.91316
G1 F948.6 X136.467 Y102.161 E13.95863
G1 F952.4 X137.412 Y101.577 E14.00519
G1 F956.2 X138.284 Y100.986 E14.04916
G1 X139.192 Y100.315 E14.09629
G1 F954.3 X140.024 Y99.637 E14.14117
G1 F952.4 X140.815 Y98.942 E14.1853
G1 X141.6 Y98.183 E14.23106
G1 X142.35 Y97.397 E14.27659
G1 X141.966 Y97.073 E14.29765
G1 X141.205 Y97.867 E14.34374
G1 X140.486 Y98.56 E14.38559
G1 X139.693 Y99.26 E14.42991
G1 F956.2 X138.925 Y99.887 E14.4713
G1 X137.992 Y100.579 E14.51979
G1 X137.115 Y101.172 E14.56398
G1 F950.5 X136.199 Y101.73 E14.60901
G1 F948.6 X135.273 Y102.248 E14.65366
G1 F950.5 X134.326 Y102.723 E14.69814
G1 F952.4 X133.357 Y103.161 E14.74271
G1 F950.5 X132.311 Y103.577 E14.78998
G1 F952.4 X131.416 Y103.889 E14.8297
G1 F956.2 X130.356 Y104.21 E14.87593
G1 F954.3 X129.32 Y104.477 E14.92067
G1 F952.4 X128.321 Y104.688 E14.96346
G1 F956.2 X127.291 Y104.86 E15.00705
G1 F995.9 X126.646 Y104.928 E15.03305
G1 F1111.1 X126.23 Y104.743 E15.0494
G1 F1200 X126.03 Y104.603 E15.05752
G1 X125.794 Y104.284 E15.07072
G1 X125.7 Y103.985 E15.08114
G1 X125.7 Y100.372 E15.20131
G1 X124.7 Y100.372 E15.23457
G1 X124.7 Y128.372 E16.16586
G0 F6000 X124.3 Y128.772
G1 F1200 X126.1 Y128.772 E16.22572
G1 X126.1 Y106.528 E16.96556
G1 X126.156 Y106.273 E16.97425
G1 X126.298 Y106.082 E16.98216
G1 X126.603 Y105.935 E16.99342
G1 X128.501 Y105.626 E17.05738
G1 X129.576 Y105.396 E17.09395
G1 X130.656 Y105.118 E17.13104
G1 X131.689 Y104.802 E17.16697
G1 X132.568 Y104.498 E17.1979
G1 X132.573 Y104.503 E17.19814
G1 X133.767 Y104.025 E17.24091
G1 X134.758 Y103.578 E17.27707
G1 X135.743 Y103.082 E17.31375
G1 X136.705 Y102.546 E17.35038
G1 X137.645 Y101.964 E17.38715
G1 X138.552 Y101.349 E17.4236
G1 X139.449 Y100.687 E17.46068
G1 X140.298 Y99.997 E17.49707
G1 X141.128 Y99.267 E17.53383
G1 X141.926 Y98.495 E17.57076
G1 X142.667 Y97.719 E17.60645
G1 X142.993 Y97.347 E17.6229
G1 X141.917 Y96.442 E17.66966
G1 X141.622 Y96.779 E17.68456
G1 X140.892 Y97.541 E17.71966
G1 X140.154 Y98.25 E17.75369
G1 X139.375 Y98.938 E17.78826
G1 X138.64 Y99.538 E17.81982
G1 X137.725 Y100.213 E17.85764
G1 X136.852 Y100.805 E17.89272
G1 X135.978 Y101.335 E17.92672
G1 X135.07 Y101.845 E17.96136
G1 X134.14 Y102.311 E17.99595
G1 X133.188 Y102.741 E18.0307
G1 X132.227 Y103.127 E18.06514
G1 X131.243 Y103.471 E18.09981
G1 X130.243 Y103.773 E18.13456
G1 X129.255 Y104.03 E18.16851
G1 X128.232 Y104.245 E18.20328
G1 X127.168 Y104.422 E18.23915
G1 X126.639 Y104.465 E18.25681
G1 X126.298 Y104.306 E18.26932
G1 X126.156 Y104.115 E18.27724
G1 X126.1 Y103.935 E18.28351
G1 X126.1 Y99.972 E18.41532
G1 X124.3 Y99.972 E18.47518
G1 X124.3 Y128.772 E19.43308
G0 F6000 X123.9 Y129.172
;TYPE:WALL-OUTER
G1 F1200 X126.5 Y129.172 E19.51955
G1 X126.5 Y106.467 E20.27472
G1 X126.566 Y106.379 E20.27838
G1 X126.667 Y106.33 E20.28212
G1 X128.609 Y106.012 E20.34757
G1 X129.676 Y105.784 E20.38386
G1 X130.749 Y105.507 E20.42072
G1 X131.82 Y105.18 E20.45796
G1 X132.666 Y104.886 E20.48775
G1 X132.675 Y104.892 E20.48811
G1 X133.931 Y104.39 E20.5331
G1 X134.973 Y103.918 E20.57114
G1 X135.918 Y103.443 E20.60632
G1 X136.894 Y102.899 E20.64349
G1 X137.869 Y102.296 E20.68162
G1 X138.772 Y101.684 E20.7179
G1 X139.701 Y100.998 E20.75631
G1 X140.562 Y100.298 E20.79321
G1 X141.406 Y99.555 E20.83061
G1 X142.194 Y98.794 E20.86705
G1 X142.968 Y97.983 E20.90434
G1 X143.563 Y97.303 E20.93439
G1 X141.874 Y95.884 E21.00776
G1 X141.333 Y96.503 E21.0351
G1 X140.615 Y97.253 E21.06964
G1 X139.889 Y97.95 E21.10311
G1 X139.123 Y98.628 E21.13713
G1 X138.387 Y99.228 E21.16872
G1 X137.501 Y99.882 E21.20534
G1 X136.644 Y100.463 E21.23978
G1 X135.782 Y100.987 E21.27333
G1 X134.89 Y101.487 E21.30734
G1 X133.975 Y101.947 E21.34141
G1 X133.039 Y102.37 E21.37557
G1 X132.095 Y102.749 E21.4094
G1 X131.127 Y103.088 E21.44351
G1 X130.143 Y103.386 E21.47771
G1 X129.145 Y103.644 E21.512
G1 X128.146 Y103.854 E21.54595
G1 X127.134 Y104.024 E21.58008
G1 X126.697 Y104.061 E21.59467
G1 X126.606 Y104.037 E21.5978
G1 X126.503 Y103.929 E21.60276
G1 X126.5 Y99.572 E21.74767
G1 X123.9 Y99.572 E21.83415
G1 X123.9 Y129.172 E22.81865
G0 F6000 X124.171 Y128.905
G0 X124.8 Y100.872
G0 X125.2 Y100.872
;TYPE:SKIN
G1 F702.8 X125.202 Y104.063 E22.99987
G0 F6000 X124.8 Y104.063
G0 X124.8 Y106.454
G0 X125.204 Y106.454
G1 F882.4 X125.061 Y105.951 E23.02353
G1 F1200 X125.06 Y104.469 E23.07282
G1 F884 X125.202 Y104.063 E23.09224
G1 X125.457 Y104.408 E23.11161
G1 F1200 X125.486 Y104.466 E23.11377
G1 X125.786 Y104.87 E23.1305
G1 X126.036 Y105.046 E23.14067
G1 X126.32 Y105.193 E23.15131
G1 X126.063 Y105.324 E23.1609
G1 X125.783 Y105.518 E23.17223
G1 X125.487 Y105.917 E23.18876
G1 F882.4 X125.204 Y106.454 E23.21621
G1 F701.8 X125.2 Y127.872 E24.43436
G0 F6000 X124.8 Y127.872
G0 X124.872 Y128.2
G0 X125.528 Y128.2
G0 X125.811 Y105.917
G0 X125.441 Y105.642
G1 F1200 X125.261 Y105.462 E24.44282
G0 F6000 X125.7 Y105.335
G1 F1200 X125.262 Y104.897 E24.46343
M104 S207
G1 F1500 E17.96343
;MESH:NONMESH
G0 F300 X125.262 Y104.897 Z0.32
G0 F6000 X124.8 Y104.897
G0 X124.121 Y128.372
G0 X123.036 Y128.372
G0 X77.366 Y128.372
G0 X76.281 Y128.372
G0 X75.7 Y128.372
;TIME_ELAPSED:49.262511
;LAYER:1
M106 S85
;TYPE:WALL-INNER
;MESH:SmallTubes v1.stl
G1 F1500 E24.46343
G1 F1350 X75.7 Y106.864 E24.89264
G1 X75.844 Y106.345 E24.90339
G1 X76.175 Y106.012 E24.91276
G1 X76.417 Y105.893 E24.91814
G1 X77.527 Y105.738 E24.94051
G1 X78.505 Y105.567 E24.96032
G1 X79.571 Y105.339 E24.98208
G1 X80.655 Y105.061 E25.00441
G1 X81.664 Y104.755 E25.02545
G1 X82.602 Y104.43 E25.04526
G1 X83.769 Y103.962 E25.07035
G1 X84.774 Y103.51 E25.09234
G1 X85.739 Y103.019 E25.11395
G1 X86.716 Y102.471 E25.1363
G1 X87.645 Y101.9 E25.15807
G1 X88.533 Y101.299 E25.17946
G1 X89.441 Y100.625 E25.20203
G1 X90.323 Y99.906 E25.22474
G1 X91.118 Y99.2 E25.24596
G1 X91.924 Y98.421 E25.26833
G1 X92.65 Y97.664 E25.28926
G1 X93.395 Y96.805 E25.31195
G1 X94.088 Y95.931 E25.33421
G1 X94.736 Y95.05 E25.35603
G1 X95.393 Y94.054 E25.37984
G1 X94.269 Y93.404 E25.40575
G1 X93.647 Y94.34 E25.42818
G1 X93.041 Y95.166 E25.44863
G1 X92.386 Y95.991 E25.46965
G1 X91.717 Y96.755 E25.48991
G1 X90.993 Y97.514 E25.51085
G1 X90.232 Y98.254 E25.53203
G1 X89.429 Y98.963 E25.55341
G1 X88.658 Y99.587 E25.5732
G1 X87.778 Y100.244 E25.59512
G1 X86.923 Y100.823 E25.61572
G1 X86.022 Y101.379 E25.63685
G1 X85.115 Y101.882 E25.65755
G1 X84.182 Y102.351 E25.67839
G1 X83.215 Y102.789 E25.69957
G1 X82.243 Y103.177 E25.72046
G1 X81.268 Y103.517 E25.74106
G1 X80.269 Y103.82 E25.7619
G1 X79.243 Y104.087 E25.78305
G1 X78.22 Y104.303 E25.80392
G1 X77.203 Y104.475 E25.8245
G1 X76.665 Y104.512 E25.83526
G1 X76.346 Y104.448 E25.84176
G1 X76.175 Y104.364 E25.84556
G1 X75.844 Y104.031 E25.85493
G1 X75.7 Y103.645 E25.86315
G1 X75.7 Y100.372 E25.92847
G1 X74.7 Y100.372 E25.94842
G1 X74.7 Y128.372 E26.50719
G1 X75.7 Y128.372 E26.52715
G0 F7500 X76.1 Y128.772
G1 F1350 X76.1 Y106.864 E26.96435
G1 X76.186 Y106.553 E26.97079
G1 X76.385 Y106.353 E26.97642
G1 X76.616 Y106.269 E26.98132
G1 X77.595 Y106.132 E27.00105
G1 X78.611 Y105.954 E27.02163
G1 X79.67 Y105.727 E27.04325
G1 X80.75 Y105.45 E27.0655
G1 X81.804 Y105.13 E27.08748
G1 X82.703 Y104.813 E27.1065
G1 X82.709 Y104.818 E27.10666
G1 X83.932 Y104.327 E27.13296
G1 X84.933 Y103.878 E27.15485
G1 X85.934 Y103.368 E27.17727
G1 X86.925 Y102.812 E27.19995
G1 X87.869 Y102.231 E27.22207
G1 X88.753 Y101.634 E27.24335
G1 X89.693 Y100.936 E27.26672
G1 X90.588 Y100.205 E27.28978
G1 X91.396 Y99.488 E27.31134
G1 X92.212 Y98.699 E27.33399
G1 X92.952 Y97.927 E27.35533
G1 X93.694 Y97.072 E27.37792
G1 X94.43 Y96.141 E27.40161
G1 X95.056 Y95.292 E27.42266
G1 X95.685 Y94.342 E27.44539
G1 X95.947 Y93.913 E27.45542
G1 X94.129 Y92.862 E27.49733
G1 X93.904 Y93.233 E27.50599
G1 X93.324 Y94.103 E27.52686
G1 X92.727 Y94.917 E27.547
G1 X92.085 Y95.728 E27.56764
