;FLAVOR:Marlin
;TIME:3758
;Filament used: 1.68971m
;Layer height: 0.16
;MINX:72.604
;MINY:85.097
;MINZ:0.2
;MAXX:146.494
;MAXY:134.403
;MAXZ:8.88
;TARGET_MACHINE.NAME:Creality Ender-3 Pro
;Generated with Cura_SteamEngine 5.8.1
M82 ;absolute extrusion mode
; Ender 3 Custom Start G-code
G92 E0 ; Reset Extruder
G28 ; Home all axes
G1 Z5.0 F3000 ; Move Z Axis up a bit during heating to not damage bed
M104 S175 ; Start heating up the nozzle most of the way
M190 S67.0 ; Start heating the bed, wait until target temperature reached
M109 S207.0 ; Finish heating the nozzle
G1 Z2.0 F3000 ; Move Z Axis up little to prevent scratching of Heat Bed
G29;
G1 X0.1 Y20 Z0.3 F5000.0 ; Move to start position
G1 X0.1 Y200.0 Z0.3 F1500.0 E15 ; Draw the first line
G1 X0.4 Y200.0 Z0.3 F5000.0 ; Move to side a little
G1 X0.4 Y20 Z0.3 F1500.0 E30 ; Draw the second line
G92 E0 ; Reset Extruder
G1 Z2.0 F3000 ; Move Z Axis up little to prevent scratching of Heat Bed
G1 X5 Y20 Z0.3 F5000.0 ; Move over to prevent blob squish
G92 E0
G92 E0
G1 F1500 E-6.5
;LAYER_COUNT:59
;LAYER:0
M107
;MESH:Newtube v2.stl
G0 F6000 X75.256 Y132.748 Z0.2
;TYPE:WALL-INNER
G1 F1500 E0
G1 F1200 X75.256 Y111.9 E0.69341
G1 X75.349 Y111.477 E0.70781
G1 X75.585 Y111.158 E0.72101
G1 X75.791 Y111.014 E0.72937
G1 F1111.1 X76.191 Y110.834 E0.74513
G1 F989.7 X77.008 Y110.728 E0.77835
G1 F948.6 X78.19 Y110.521 E0.82884
G1 X79.362 Y110.257 E0.87938
G1 X80.514 Y109.942 E0.92963
G1 X81.663 Y109.565 E0.98051
G1 F950.5 X82.726 Y109.165 E1.0282
G1 X83.863 Y108.671 E1.08026
G1 F948.6 X84.955 Y108.134 E1.13146
G1 X85.99 Y107.563 E1.18119
G1 X87.043 Y106.913 E1.23326
G1 X87.988 Y106.266 E1.28144
G1 F952.4 X88.946 Y105.54 E1.33182
G1 X89.869 Y104.774 E1.38208
G1 F950.5 X90.68 Y104.032 E1.42824
G1 F952.4 X91.601 Y103.11 E1.48286
G1 F954.3 X92.394 Y102.23 E1.5324
G1 X93.171 Y101.28 E1.58373
G1 F952.4 X93.896 Y100.306 E1.63462
G1 F950.5 X94.547 Y99.34 E1.68353
G1 X95.157 Y98.328 E1.73315
G1 F948.6 X95.729 Y97.274 E1.7836
G1 F950.5 X96.255 Y96.183 E1.83446
G1 F952.4 X96.724 Y95.081 E1.88465
G1 F956.2 X97.139 Y93.959 E1.93459
G1 F954.3 X97.507 Y92.803 E1.98533
G1 F952.4 X97.81 Y91.664 E2.03472
G1 X98.059 Y90.507 E2.08432
G1 X98.264 Y89.297 E2.13575
G1 X98.4 Y88.135 E2.18478
G1 X98.488 Y86.8 E2.24085
G1 F954.3 X97.989 Y86.799 E2.26172
G1 X97.897 Y88.11 E2.31668
G1 F952.4 X97.76 Y89.25 E2.3648
G1 X97.562 Y90.426 E2.41478
G1 X97.319 Y91.555 E2.46318
G1 X97.018 Y92.687 E2.51227
G1 F954.3 X96.654 Y93.828 E2.56236
G1 X96.245 Y94.924 E2.61129
G1 F952.4 X95.794 Y95.983 E2.65952
G1 X95.273 Y97.06 E2.70966
G1 X94.705 Y98.1 E2.75932
G1 F950.5 X94.106 Y99.093 E2.80802
G1 F948.6 X93.465 Y100.043 E2.85624
G1 F952.4 X92.762 Y100.988 E2.90559
G1 F956.2 X92.012 Y101.905 E2.95504
G1 F954.3 X91.218 Y102.783 E3.00455
G1 X90.38 Y103.624 E3.05421
G1 F952.4 X89.525 Y104.405 E3.10274
G1 X88.63 Y105.149 E3.15151
G1 X87.673 Y105.87 E3.20173
G1 F948.6 X86.739 Y106.508 E3.24932
G1 X85.731 Y107.13 E3.29915
G1 X84.715 Y107.688 E3.34792
G1 X83.633 Y108.221 E3.39867
G1 F950.5 X82.549 Y108.693 E3.44832
G1 F952.4 X81.466 Y109.101 E3.49682
G1 F948.6 X80.363 Y109.459 E3.54561
G1 X79.22 Y109.772 E3.59547
G1 X78.097 Y110.025 E3.6439
G1 X76.888 Y110.233 E3.69552
G1 F991.7 X76.196 Y110.304 E3.72351
G1 F1111.1 X75.791 Y110.122 E3.73946
G1 F1200 X75.585 Y109.978 E3.74782
G1 X75.349 Y109.659 E3.76102
G1 X75.256 Y109.361 E3.7714
G1 X75.256 Y106.748 E3.85831
G1 X74.256 Y106.748 E3.89157
G1 X74.256 Y132.748 E4.75634
G1 X75.256 Y132.748 E4.7896
G0 F6000 X75.656 Y133.148
G1 F1200 X75.656 Y111.9 E5.49631
G1 X75.712 Y111.646 E5.50496
G1 X75.853 Y111.455 E5.51285
G1 X76.169 Y111.306 E5.52447
G1 X77.218 Y111.154 E5.55973
G1 X78.269 Y110.967 E5.59523
G1 X79.481 Y110.694 E5.63656
G1 X80.655 Y110.372 E5.67705
G1 X81.822 Y109.989 E5.7179
G1 X82.946 Y109.565 E5.75785
G1 X84.061 Y109.077 E5.79833
G1 X85.174 Y108.531 E5.83957
G1 X86.227 Y107.949 E5.87958
G1 X87.298 Y107.287 E5.92146
G1 X88.265 Y106.623 E5.96048
G1 X89.234 Y105.888 E6.00093
G1 X90.174 Y105.108 E6.04155
G1 X90.999 Y104.352 E6.07877
G1 X91.936 Y103.413 E6.12289
G1 X92.742 Y102.516 E6.163
G1 X93.533 Y101.551 E6.2045
G1 X94.255 Y100.583 E6.24467
G1 X94.934 Y99.574 E6.28512
G1 X95.554 Y98.544 E6.3251
G1 X96.13 Y97.486 E6.36517
G1 X96.665 Y96.375 E6.40618
G1 X97.147 Y95.238 E6.44726
G1 X97.564 Y94.112 E6.48719
G1 X97.944 Y92.92 E6.52881
G1 X98.251 Y91.76 E6.56872
G1 X98.502 Y90.598 E6.60826
G1 X98.709 Y89.382 E6.64928
G1 X98.851 Y88.168 E6.68993
G1 X98.936 Y86.946 E6.73068
G1 X98.949 Y86.349 E6.75054
G1 X97.542 Y86.348 E6.79733
G1 X97.528 Y86.921 E6.8164
G1 X97.449 Y88.056 E6.85424
G1 X97.312 Y89.191 E6.89226
G1 X97.12 Y90.331 E6.93071
G1 X96.878 Y91.454 E6.96892
G1 X96.576 Y92.586 E7.00789
G1 X96.231 Y93.67 E7.04573
G1 X95.835 Y94.734 E7.08349
G1 X95.373 Y95.818 E7.12268
G1 X94.876 Y96.844 E7.1606
G1 X94.318 Y97.866 E7.19933
G1 X93.738 Y98.829 E7.23672
G1 X93.086 Y99.794 E7.27545
G1 X92.389 Y100.732 E7.31432
G1 X91.669 Y101.61 E7.35208
G1 X90.898 Y102.464 E7.39035
G1 X90.074 Y103.291 E7.42918
G1 X89.236 Y104.058 E7.46696
G1 X88.338 Y104.803 E7.50577
G1 X87.418 Y105.497 E7.5441
G1 X86.48 Y106.135 E7.58183
G1 X85.503 Y106.739 E7.62004
G1 X84.49 Y107.294 E7.65845
G1 X83.461 Y107.803 E7.69664
G1 X82.389 Y108.27 E7.73553
G1 X81.326 Y108.671 E7.77332
G1 X80.215 Y109.031 E7.81216
G1 X79.12 Y109.33 E7.84991
G1 X77.991 Y109.584 E7.8884
G1 X76.843 Y109.782 E7.92715
G1 X76.238 Y109.837 E7.94735
G1 X75.977 Y109.768 E7.95633
G1 X75.853 Y109.681 E7.96137
G1 X75.712 Y109.49 E7.96927
G1 X75.656 Y109.311 E7.97551
G1 X75.656 Y106.348 E8.07405
G1 X73.856 Y106.348 E8.13392
G1 X73.856 Y133.148 E9.02529
G1 X75.656 Y133.148 E9.08516
G0 F6000 X76.056 Y133.548
;TYPE:WALL-OUTER
G1 F1200 X76.056 Y111.84 E9.80717
G1 X76.121 Y111.751 E9.81084
G1 X76.227 Y111.702 E9.81472
G1 X77.288 Y111.548 E9.85038
G1 X78.339 Y111.361 E9.88589
G1 X79.586 Y111.08 E9.9284
G1 X80.779 Y110.752 E9.96955
G1 X81.963 Y110.363 E10.01101
G1 X83.08 Y109.942 E10.05071
G1 X84.237 Y109.436 E10.09271
G1 X85.343 Y108.894 E10.13368
G1 X86.415 Y108.303 E10.17439
G1 X87.478 Y107.648 E10.21592
G1 X88.486 Y106.957 E10.25657
G1 X89.471 Y106.211 E10.29766
G1 X90.424 Y105.421 E10.33883
G1 X91.281 Y104.635 E10.37751
G1 X92.214 Y103.702 E10.4214
G1 X93.052 Y102.77 E10.46308
G1 X93.853 Y101.791 E10.50515
G1 X94.587 Y100.807 E10.54598
G1 X95.263 Y99.804 E10.58621
G1 X95.905 Y98.736 E10.62766
G1 X96.486 Y97.668 E10.6681
G1 X97.029 Y96.541 E10.70971
G1 X97.513 Y95.402 E10.75087
G1 X97.942 Y94.242 E10.792
G1 X98.33 Y93.023 E10.83455
G1 X98.637 Y91.869 E10.87427
G1 X98.895 Y90.674 E10.91493
G1 X99.105 Y89.439 E10.9566
G1 X99.25 Y88.196 E10.99822
G1 X99.336 Y86.978 E11.03883
G1 X99.359 Y85.949 E11.07306
G1 X97.152 Y85.948 E11.14647
G1 X97.128 Y86.894 E11.17794
G1 X97.051 Y88.008 E11.21508
G1 X96.914 Y89.146 E11.25321
G1 X96.728 Y90.247 E11.29034
G1 X96.486 Y91.372 E11.32862
G1 X96.195 Y92.465 E11.36624
G1 X95.856 Y93.53 E11.40341
G1 X95.461 Y94.591 E11.44107
G1 X95.013 Y95.644 E11.47913
G1 X94.524 Y96.652 E11.51639
G1 X93.976 Y97.66 E11.55455
G1 X93.401 Y98.613 E11.59157
G1 X92.765 Y99.556 E11.6294
G1 X92.079 Y100.479 E11.66765
G1 X91.373 Y101.342 E11.70474
G1 X90.614 Y102.182 E11.74239
G1 X89.804 Y102.996 E11.78058
G1 X88.98 Y103.75 E11.81773
G1 X88.097 Y104.484 E11.85592
G1 X87.193 Y105.166 E11.89359
G1 X86.27 Y105.795 E11.93074
G1 X85.297 Y106.396 E11.96877
G1 X84.313 Y106.936 E12.00611
G1 X83.292 Y107.44 E12.04398
G1 X82.247 Y107.896 E12.0819
G1 X81.202 Y108.291 E12.11906
G1 X80.109 Y108.645 E12.15727
G1 X79.032 Y108.94 E12.19441
G1 X77.923 Y109.19 E12.23222
G1 X76.804 Y109.384 E12.26999
G1 X76.25 Y109.437 E12.2885
G1 X76.163 Y109.414 E12.2915
G1 X76.059 Y109.305 E12.29651
G1 X76.056 Y105.948 E12.40816
G1 X73.456 Y105.948 E12.49464
G1 X73.456 Y133.548 E13.41262
G1 X76.056 Y133.548 E13.49909
G1 F1500 E6.99909
G0 F6000 X75.787 Y133.28
G0 X75.719 Y110.871
G0 X77.372 Y110.411
G0 X75.439 Y109.274
G0 X75.338 Y106.666
G0 X74.174 Y106.666
G0 X74.356 Y107.248
G0 X74.756 Y107.248
;TYPE:SKIN
G1 F1500 E13.49909
G1 F702.8 X74.758 Y109.439 E13.62353
G0 F6000 X74.356 Y109.439
G0 X74.356 Y111.826
G0 X74.76 Y111.826
G1 F882.4 X74.617 Y111.323 E13.64718
G1 F1200 X74.616 Y109.845 E13.69634
G1 F884 X74.758 Y109.439 E13.71576
G1 X75.013 Y109.784 E13.73513
G1 F1200 X75.042 Y109.842 E13.73728
G1 X75.342 Y110.245 E13.75399
G1 X75.606 Y110.432 E13.76476
G1 X75.861 Y110.568 E13.77437
G1 X75.629 Y110.691 E13.7831
G1 X75.342 Y110.891 E13.79474
G1 X75.043 Y111.289 E13.81129
G1 F882.4 X74.76 Y111.826 E13.83875
G1 F701.8 X74.756 Y132.248 E15.00025
G0 F6000 X74.356 Y132.248
G0 X74.428 Y132.576
G0 X75.084 Y132.576
G0 X75.288 Y111.397
G0 X74.918 Y111.122
G1 F1200 X74.817 Y111.021 E15.005
G0 F6000 X75.158 Y110.797
G1 F1200 X74.818 Y110.456 E15.02101
G1 F1500 E8.52101
G0 F6000 X74.356 Y110.456
G0 X74.428 Y106.92
G0 X75.084 Y106.92
G0 X75.719 Y110.265
G0 X77.012 Y110.471
G0 X75.46 Y111.632
G0 X75.837 Y133.248
G0 X76.922 Y133.248
G0 X117.592 Y133.248
G0 X118.677 Y133.248
G0 X119.256 Y133.248
;TYPE:WALL-INNER
G1 F1500 E15.02101
G1 F1200 X120.256 Y133.248 E15.05427
G1 X120.256 Y111.9 E15.76431
G1 X120.349 Y111.477 E15.77872
G1 X120.585 Y111.158 E15.79192
G1 X120.791 Y111.014 E15.80027
G1 F1111.1 X121.192 Y110.833 E15.81608
G1 F989.7 X122.021 Y110.726 E15.84979
G1 F948.6 X123.249 Y110.51 E15.90225
G1 F946.7 X124.431 Y110.241 E15.95335
G1 F948.6 X125.599 Y109.915 E16.00437
G1 X126.791 Y109.521 E16.05719
G1 X127.926 Y109.081 E16.10841
G1 X129.009 Y108.604 E16.1582
G1 F946.7 X130.124 Y108.045 E16.21078
G1 F948.6 X131.162 Y107.46 E16.26091
G1 X132.121 Y106.858 E16.30855
G1 F946.7 X133.265 Y106.065 E16.36724
G1 F948.6 X134.197 Y105.338 E16.41697
G1 F950.5 X135.103 Y104.566 E16.46695
G1 F948.6 X135.981 Y103.744 E16.51755
G1 F946.7 X136.846 Y102.847 E16.57009
G1 F948.6 X137.643 Y101.94 E16.62089
G1 F950.5 X138.413 Y100.966 E16.67302
G1 F948.6 X139.119 Y99.986 E16.72384
G1 X139.77 Y98.98 E16.77426
G1 F952.4 X140.389 Y97.918 E16.82577
G1 F950.5 X140.944 Y96.847 E16.87642
G1 X141.472 Y95.695 E16.92964
G1 F948.6 X141.921 Y94.579 E16.98025
G1 X142.367 Y93.296 E17.0374
G1 F950.5 X141.87 Y93.164 E17.05899
G1 F948.6 X141.439 Y94.427 E17.11514
G1 F952.4 X140.984 Y95.558 E17.16623
G1 X140.479 Y96.648 E17.21657
G1 F950.5 X139.926 Y97.714 E17.267
G1 F952.4 X139.329 Y98.737 E17.31664
G1 F950.5 X138.687 Y99.721 E17.36597
G1 X137.994 Y100.687 E17.4159
G1 X137.252 Y101.621 E17.46598
G1 F948.6 X136.459 Y102.522 E17.51648
G1 X135.65 Y103.36 E17.56549
G1 X134.76 Y104.196 E17.61687
G1 F950.5 X133.831 Y104.986 E17.66807
G1 F948.6 X132.924 Y105.687 E17.7163
G1 X131.89 Y106.408 E17.76934
G1 F950.5 X130.888 Y107.035 E17.81897
G1 F946.7 X129.868 Y107.607 E17.86828
G1 F944.9 X128.771 Y108.155 E17.92007
G1 F948.6 X127.694 Y108.631 E17.96961
G1 F946.7 X126.594 Y109.054 E18.0193
G1 F948.6 X125.429 Y109.439 E18.07092
G1 X124.302 Y109.751 E18.12012
G1 F946.7 X123.141 Y110.015 E18.17032
G1 F948.6 X121.949 Y110.226 E18.22125
G1 F989.7 X121.193 Y110.303 E18.25189
G1 F1111.1 X120.791 Y110.122 E18.26773
G1 F1200 X120.585 Y109.978 E18.27609
G1 X120.349 Y109.659 E18.28929
G1 X120.256 Y109.361 E18.29967
G1 X120.256 Y105.248 E18.43647
G1 X119.256 Y105.248 E18.46973
G1 X119.256 Y133.248 E19.40101
G0 F6000 X118.856 Y133.648
G1 F1200 X120.656 Y133.648 E19.46088
G1 X120.656 Y111.9 E20.18422
G1 X120.712 Y111.646 E20.19287
G1 X120.853 Y111.455 E20.20077
G1 X121.169 Y111.306 E20.21239
G1 X122.242 Y111.15 E20.24845
G1 X123.349 Y110.952 E20.28586
G1 X124.552 Y110.678 E20.32689
G1 X125.739 Y110.345 E20.3679
G1 X126.954 Y109.945 E20.41044
G1 X128.072 Y109.511 E20.45033
G1 X129.211 Y109.009 E20.49173
G1 X130.346 Y108.44 E20.53396
G1 X131.403 Y107.843 E20.57434
G1 X132.378 Y107.231 E20.61262
G1 X133.528 Y106.436 E20.65912
G1 X134.463 Y105.705 E20.6986
G1 X135.4 Y104.908 E20.73951
G1 X136.295 Y104.072 E20.78024
G1 X137.166 Y103.169 E20.82197
G1 X137.998 Y102.221 E20.86392
G1 X138.779 Y101.232 E20.90584
G1 X139.499 Y100.232 E20.94682
G1 X140.16 Y99.208 E20.98736
G1 X140.79 Y98.127 E21.02898
G1 X141.37 Y97.006 E21.07095
G1 X141.878 Y95.896 E21.11156
G1 X142.349 Y94.727 E21.15347
G1 X142.748 Y93.575 E21.19402
G1 X142.923 Y92.977 E21.21475
G1 X141.56 Y92.613 E21.26167
G1 X141.392 Y93.181 E21.28137
G1 X141.013 Y94.273 E21.31982
G1 X140.574 Y95.368 E21.35905
G1 X140.083 Y96.43 E21.39797
G1 X139.545 Y97.469 E21.43688
G1 X138.957 Y98.479 E21.47575
G1 X138.311 Y99.468 E21.51504
G1 X137.631 Y100.418 E21.5539
G1 X136.895 Y101.341 E21.59317
G1 X136.123 Y102.218 E21.63203
G1 X135.303 Y103.066 E21.67126
G1 X134.437 Y103.878 E21.71074
G1 X133.555 Y104.628 E21.74925
G1 X132.625 Y105.344 E21.78829
G1 X131.65 Y106.025 E21.82784
G1 X130.666 Y106.64 E21.86644
G1 X129.629 Y107.221 E21.90597
G1 X128.587 Y107.741 E21.94471
G1 X127.511 Y108.217 E21.98384
G1 X126.422 Y108.634 E22.02263
G1 X125.32 Y109 E22.06125
G1 X124.182 Y109.313 E22.1005
G1 X123.048 Y109.572 E22.13919
G1 X121.854 Y109.782 E22.17951
G1 X121.199 Y109.84 E22.20138
G1 X120.977 Y109.768 E22.20915
G1 X120.853 Y109.681 E22.21418
G1 X120.712 Y109.49 E22.22208
G1 X120.656 Y109.311 E22.22832
G1 X120.656 Y104.848 E22.37676
G1 X118.856 Y104.848 E22.43663
G1 X118.856 Y133.648 E23.39452
G0 F6000 X118.456 Y134.048
;TYPE:WALL-OUTER
G1 F1200 X121.056 Y134.048 E23.48099
G1 X121.056 Y111.84 E24.21964
G1 X121.121 Y111.751 E24.2233
G1 X121.227 Y111.702 E24.22719
G1 X122.312 Y111.544 E24.26365
G1 X123.385 Y111.353 E24.2999
G1 X124.634 Y111.07 E24.3425
G1 X125.817 Y110.74 E24.38335
G1 X127.052 Y110.335 E24.42658
G1 X128.211 Y109.887 E24.4679
G1 X129.389 Y109.367 E24.51073
G1 X130.51 Y108.807 E24.55241
G1 X131.593 Y108.196 E24.59377
G1 X132.605 Y107.56 E24.63352
G1 X133.765 Y106.758 E24.68043
G1 X134.722 Y106.01 E24.72083
G1 X135.666 Y105.206 E24.76207
G1 X136.575 Y104.357 E24.80344
G1 X137.46 Y103.44 E24.84582
G1 X138.312 Y102.469 E24.88879
G1 X139.103 Y101.466 E24.93128
G1 X139.835 Y100.45 E24.97292
G1 X140.506 Y99.41 E25.01409
G1 X141.132 Y98.335 E25.05546
G1 X141.708 Y97.228 E25.09697
G1 X142.24 Y96.068 E25.13942
G1 X142.712 Y94.901 E25.18128
G1 X143.132 Y93.688 E25.22398
G1 X143.422 Y92.697 E25.25832
G1 X141.286 Y92.125 E25.33187
G1 X141.014 Y93.05 E25.36394
G1 X140.637 Y94.137 E25.4022
G1 X140.21 Y95.2 E25.44031
G1 X139.722 Y96.256 E25.479
G1 X139.189 Y97.285 E25.51754
G1 X138.616 Y98.27 E25.55544
G1 X137.975 Y99.249 E25.59436
G1 X137.305 Y100.185 E25.63265
G1 X136.595 Y101.077 E25.67057
G1 X135.82 Y101.955 E25.70952
G1 X135.029 Y102.774 E25.74739
G1 X134.178 Y103.573 E25.78621
G1 X133.311 Y104.311 E25.82408
G1 X132.395 Y105.016 E25.86253
G1 X131.438 Y105.686 E25.90138
G1 X130.47 Y106.291 E25.93935
G1 X129.45 Y106.863 E25.97824
G1 X128.425 Y107.375 E26.01635
G1 X127.368 Y107.843 E26.0548
G1 X126.296 Y108.254 E26.09299
G1 X125.202 Y108.617 E26.13132
G1 X124.097 Y108.923 E26.16946
G1 X122.959 Y109.181 E26.20827
G1 X121.816 Y109.384 E26.24688
G1 X121.227 Y109.434 E26.26654
G1 X121.121 Y109.385 E26.27043
G1 X121.059 Y109.271 E26.27474
G1 X121.056 Y104.448 E26.43516
G1 X118.456 Y104.448 E26.52163
G1 X118.456 Y134.048 E27.50613
G0 F6000 X118.727 Y133.78
G0 X119.356 Y105.748
G0 X119.756 Y105.748
;TYPE:SKIN
G1 F702.8 X119.758 Y109.439 E27.71575
G0 F6000 X119.356 Y109.439
G0 X119.356 Y111.826
G0 X119.76 Y111.826
G1 F882.4 X119.617 Y111.323 E27.7394
G1 F1200 X119.616 Y109.845 E27.78856
G1 F884 X119.758 Y109.439 E27.80798
G1 X120.013 Y109.784 E27.82735
G1 F1200 X120.042 Y109.842 E27.82951
G1 X120.341 Y110.245 E27.8462
G1 X120.603 Y110.428 E27.85683
G1 X120.862 Y110.567 E27.86661
G1 X120.623 Y110.694 E27.87561
