;FLAVOR:Marlin
;TIME:7388
;Filament used: 6.42686m
;Layer height: 0.28
;MINX:30.824
;MINY:69.613
;MINZ:0.28
;MAXX:190.039
;MAXY:149.532
;MAXZ:8.12
;TARGET_MACHINE.NAME:Creality Ender-3 Pro
;Generated with Cura_SteamEngine 5.8.1
M82 ;absolute extrusion mode
; Ender 3 Custom Start G-code
G92 E0 ; Reset Extruder
G28 ; Home all axes
G1 Z5.0 F3000 ; Move Z Axis up a bit during heating to not damage bed
M104 S175 ; Start heating up the nozzle most of the way
M190 S67.0 ; Start heating the bed, wait until target temperature reached
M109 S207.0 ; Finish heating the nozzle
G1 Z2.0 F3000 ; Move Z Axis up little to prevent scratching of Heat Bed
G29;
G1 X0.1 Y20 Z0.3 F5000.0 ; Move to start position
G1 X0.1 Y200.0 Z0.3 F1500.0 E15 ; Draw the first line
G1 X0.4 Y200.0 Z0.3 F5000.0 ; Move to side a little
G1 X0.4 Y20 Z0.3 F1500.0 E30 ; Draw the second line
G92 E0 ; Reset Extruder
G1 Z2.0 F3000 ; Move Z Axis up little to prevent scratching of Heat Bed
G1 X5 Y20 Z0.3 F5000.0 ; Move over to prevent blob squish
G92 E0
G92 E0
G1 F1500 E-6.5
;LAYER_COUNT:29
;LAYER:0
M107
;MESH:mobo v4.stl
G0 F6000 X110 Y108.732 Z0.28
;TYPE:WALL-INNER
G1 F1500 E0
G1 F1200 X108.703 Y108.732 E0.06039
G1 X108.464 Y108.612 E0.07285
G1 X108.294 Y108.415 E0.08496
G1 X108.224 Y108.21 E0.09505
G1 X108.224 Y73.932 E1.69118
G1 X108.273 Y73.693 E1.70254
G1 X108.399 Y73.507 E1.713
G1 X108.585 Y73.381 E1.72346
G1 X108.75 Y73.332 E1.73147
G1 X154.224 Y73.332 E3.84893
G1 X154.463 Y73.381 E3.86029
G1 X154.649 Y73.507 E3.87076
G1 X154.775 Y73.693 E3.88122
G1 X154.824 Y73.932 E3.89258
G1 X154.824 Y108.213 E5.48884
G1 X154.754 Y108.415 E5.4988
G1 X154.584 Y108.612 E5.51092
G1 X154.348 Y108.732 E5.52324
G1 X110 Y108.732 E7.58827
G1 F1500 E1.08827
G0 F6000 X109.999 Y148.932
G0 X110 Y149.132
G1 F1500 E7.58827
G1 F1200 X156.906 Y149.131 E9.77241
G1 X188.772 Y102.231 E12.41267
G1 X188.772 Y70.864 E13.87325
G1 X159.824 Y70.864 E15.22119
G1 X159.824 Y83.829 E15.82489
G1 X159.791 Y83.996 E15.83282
G1 X159.693 Y84.172 E15.8422
G1 X159.568 Y84.289 E15.85017
G1 X159.334 Y84.396 E15.86215
G1 X157.103 Y84.396 E15.96604
G1 X156.864 Y84.276 E15.97849
G1 X156.694 Y84.079 E15.99061
G1 X156.624 Y83.874 E16.00069
G1 X156.624 Y71.532 E16.57539
G1 X106.424 Y71.532 E18.91291
G1 X106.424 Y83.877 E19.48775
G1 X106.354 Y84.079 E19.4977
G1 X106.184 Y84.276 E19.50982
G1 X105.948 Y84.396 E19.52214
G1 X62.563 Y84.393 E21.54233
G1 X62.313 Y84.31 E21.5546
G1 X62.16 Y84.178 E21.56401
G1 X62.024 Y83.908 E21.57808
G1 X62.024 Y81.396 E21.69505
G1 X31.224 Y81.396 E23.12923
G1 X31.224 Y104.633 E24.21124
G1 X79.459 Y149.132 E27.26707
G1 X110 Y149.132 E28.68918
G1 F1500 E22.18918
G0 F6000 X109.999 Y149.032
G0 X79.537 Y148.932
G0 X77.012 Y143.952
G0 X79.265 Y145.328
G1 F1500 E28.68918
G1 F1200 X79.071 Y145.375 E28.69848
G1 X78.839 Y145.346 E28.70936
G1 X78.675 Y145.267 E28.71784
G1 X35.616 Y105.545 E31.44569
G1 X35.466 Y105.327 E31.45801
G1 X35.412 Y105.021 E31.47248
G1 X35.564 Y104.633 E31.49188
G1 X35.773 Y104.395 E31.50663
G1 X36.034 Y104.296 E31.51963
G1 X62.024 Y104.296 E32.72983
G1 X62.027 Y98.017 E33.02221
G1 X62.12 Y97.757 E33.03507
G1 X62.353 Y97.548 E33.04964
G1 X62.571 Y97.486 E33.0602
G1 X105.948 Y97.484 E35.08001
G1 X106.184 Y97.604 E35.09234
G1 X106.354 Y97.801 E35.10446
G1 X106.424 Y98.084 E35.11803
G1 X106.423 Y120.169 E36.1464
G1 X106.347 Y120.428 E36.15897
G1 X106.194 Y120.605 E36.16986
G1 X106.068 Y120.681 E36.17672
G1 X105.856 Y120.732 E36.18687
G1 X79.824 Y120.732 E37.39903
G1 X79.824 Y144.767 E38.5182
G1 X79.718 Y145.035 E38.53162
G1 X79.61 Y145.152 E38.53903
G1 X79.265 Y145.328 E38.55707
G1 F1500 E32.05707
G0 F6000 X79.324 Y145.464
G0 X80.005 Y144.788
G0 X158.64 Y141.823
G0 X156.906 Y143.218
G1 F1500 E38.55707
G1 F1200 X156.678 Y142.957 E38.5732
G1 X156.628 Y142.784 E38.58159
G1 X156.624 Y98.12 E40.66133
G1 X156.694 Y97.837 E40.67491
G1 X156.864 Y97.64 E40.68702
G1 X157.103 Y97.52 E40.69948
G1 X159.305 Y97.525 E40.80201
G1 X159.483 Y97.578 E40.81066
G1 X159.655 Y97.701 E40.82051
G1 X159.824 Y97.985 E40.83589
G1 X159.824 Y101.816 E41.01428
G1 X184.757 Y101.816 E42.17527
G1 X184.933 Y101.877 E42.18394
G1 X185.139 Y102.019 E42.19559
G1 X185.315 Y102.363 E42.21358
G1 X185.358 Y102.536 E42.22188
G1 X185.297 Y102.871 E42.23774
G1 X157.953 Y143.118 E44.50342
G1 X157.739 Y143.31 E44.51681
G1 X157.491 Y143.379 E44.52879
G1 X157.278 Y143.354 E44.53878
G1 X156.906 Y143.218 E44.55722
G0 F6000 X157.1 Y142.883
;TYPE:WALL-OUTER
G1 F1200 X157.025 Y142.734 E44.56499
G1 X157.024 Y98.043 E46.64599
G1 X157.183 Y97.92 E46.65535
G1 X159.251 Y97.921 E46.75164
G1 X159.381 Y97.994 E46.75859
G1 X159.422 Y98.087 E46.76332
G1 X159.424 Y102.216 E46.95558
G1 X184.71 Y102.22 E48.13301
G1 X184.805 Y102.269 E48.13798
G1 X184.964 Y102.549 E48.15298
G1 X184.943 Y102.675 E48.15892
G1 X157.622 Y142.893 E50.42288
G1 X157.468 Y142.98 E50.43112
G1 X157.1 Y142.883 E50.44884
G1 F1500 E43.94884
G0 F6000 X156.726 Y142.883
G0 X156.786 Y140.46
G0 X156.449 Y148.932
G0 X110 Y149.532
G1 F1500 E50.44884
G1 F1200 X157.118 Y149.531 E52.64285
G1 X189.172 Y102.354 E55.2987
G1 X189.172 Y70.464 E56.78363
G1 X159.424 Y70.464 E58.16882
G1 X159.42 Y83.841 E58.79171
G1 X159.381 Y83.922 E58.7959
G1 X159.251 Y83.995 E58.80284
G1 X157.183 Y83.996 E58.89913
G1 X157.104 Y83.956 E58.90326
G1 X157.027 Y83.831 E58.91009
G1 X157.024 Y71.132 E59.50141
G1 X106.024 Y71.132 E61.87619
G1 X106.022 Y83.831 E62.4675
G1 X105.944 Y83.956 E62.47436
G1 X105.868 Y83.996 E62.47836
G1 X62.584 Y83.993 E64.49385
G1 X62.469 Y83.924 E64.50009
G1 X62.429 Y83.845 E64.50422
G1 X62.424 Y80.996 E64.63688
G1 X30.824 Y80.996 E66.10831
G1 X30.824 Y104.808 E67.21709
G1 X79.303 Y149.532 E70.28837
G1 X110 Y149.532 E71.71775
G1 F1500 E65.21775
G0 F6000 X109.999 Y149.032
G0 X79.537 Y148.932
G0 X77.012 Y143.952
G0 X79.062 Y144.981
G1 F1500 E71.71775
G1 F1200 X78.919 Y144.945 E71.72462
G1 X35.843 Y105.21 E74.45346
G1 X35.824 Y105.099 E74.4587
G1 X35.924 Y104.808 E74.47303
G1 X36.07 Y104.698 E74.48154
G1 X62.424 Y104.696 E75.7087
G1 X62.425 Y98.038 E76.01872
G1 X62.463 Y97.964 E76.02259
G1 X62.584 Y97.887 E76.02927
G1 X105.868 Y97.884 E78.04476
G1 X106.024 Y98.007 E78.05401
G1 X106.022 Y120.167 E79.08587
G1 X105.962 Y120.278 E79.09174
G1 X105.877 Y120.326 E79.09629
G1 X79.424 Y120.332 E80.32805
G1 X79.422 Y144.727 E81.46399
G1 X79.353 Y144.846 E81.47039
G1 X79.062 Y144.981 E81.48533
G1 F1500 E74.98533
G0 F6000 X78.808 Y145.255
G0 X79.141 Y145.472
G0 X79.659 Y145.244
G0 X79.996 Y120.904
G0 X106.254 Y120.562
G0 X106.604 Y108.632
G0 X108.043 Y108.233
G0 X110 Y108.332
G1 F1500 E81.48533
G1 F1200 X108.783 Y108.332 E81.542
G1 X108.704 Y108.292 E81.54612
G1 X108.627 Y108.167 E81.55296
G1 X108.624 Y73.876 E83.14969
G1 X108.682 Y73.79 E83.15452
G1 X108.789 Y73.735 E83.16012
G1 X154.288 Y73.732 E85.27874
G1 X154.424 Y73.868 E85.2877
G1 X154.422 Y108.167 E86.88481
G1 X154.344 Y108.292 E86.89167
G1 X154.268 Y108.332 E86.89567
G1 X110 Y108.332 E88.95697
G1 F1500 E82.45697
G0 F6000 X110 Y108.634
G0 X154.223 Y108.913
G0 X156.426 Y108.913
G0 X156.717 Y143.522
;TYPE:SKIN
G1 F1500 E88.95697
G1 F1200 X157.148 Y143.691 E88.97853
G1 X157.515 Y143.74 E88.99577
G1 X157.912 Y143.628 E89.01497
G1 X158.254 Y143.313 E89.03662
G1 X185.619 Y103.031 E91.3042
G1 X185.686 Y102.837 E91.31376
G1 X185.719 Y102.505 E91.32929
G1 X185.645 Y102.223 E91.34287
G1 X185.519 Y101.973 E91.35591
G1 X185.349 Y101.74 E91.36934
G1 X185.119 Y101.567 E91.38274
G1 X184.81 Y101.456 E91.39803
G1 X160.184 Y101.456 E92.54472
G1 X160.178 Y98.073 E92.70224
G1 X160.065 Y97.645 E92.72285
G1 X159.86 Y97.399 E92.73777
G1 X159.567 Y97.221 E92.75373
G1 X159.342 Y97.165 E92.76453
G1 X157.202 Y97.161 E92.86417
G1 X156.948 Y97.193 E92.87609
G1 X156.641 Y97.352 E92.89219
G1 X156.368 Y97.666 E92.91157
G1 X156.269 Y98.077 E92.93125
G1 X156.269 Y142.831 E95.01519
G1 X156.35 Y143.105 E95.02849
G1 X156.527 Y143.366 E95.04318
G1 X156.717 Y143.522 E95.05462
G1 F1500 E88.55462
G0 F6000 X156.776 Y143.3
G0 X156.798 Y97.692
G0 X159.652 Y97.692
G0 X159.652 Y101.988
G0 X185.143 Y101.982
G0 X185.387 Y102.444
G0 X158.64 Y141.823
G0 X80.005 Y144.788
G0 X79.379 Y145.667
G1 F1500 E95.05462
G1 F1200 X79.841 Y145.431 E95.07878
G1 X80.03 Y145.204 E95.09253
G1 X80.181 Y144.82 E95.11175
G1 X80.184 Y121.092 E96.21662
G1 X105.884 Y121.087 E97.41332
G1 X106.2 Y121.013 E97.42843
G1 X106.458 Y120.85 E97.44264
G1 X106.647 Y120.627 E97.45626
G1 X106.779 Y120.251 E97.47481
G1 X106.779 Y98.038 E98.50914
G1 X106.674 Y97.628 E98.52885
G1 X106.405 Y97.314 E98.5481
G1 X106.127 Y97.173 E98.56262
G1 X105.842 Y97.125 E98.57607
G1 X62.542 Y97.124 E100.5923
G1 X62.197 Y97.219 E100.60897
G1 X61.972 Y97.372 E100.62164
G1 X61.799 Y97.596 E100.63482
G1 X61.673 Y97.951 E100.65236
G1 X61.664 Y103.936 E100.93104
G1 X35.983 Y103.938 E102.12686
G1 X35.566 Y104.089 E102.14751
G1 X35.244 Y104.456 E102.17024
G1 X35.126 Y104.749 E102.18495
G1 X35.06 Y105.083 E102.2008
G1 X35.125 Y105.461 E102.21866
G1 X35.348 Y105.779 E102.23675
G1 X78.467 Y145.565 E104.96867
G1 X78.726 Y145.691 E104.98208
G1 X79.092 Y145.735 E104.99925
G1 X79.379 Y145.667 E105.01298
G1 F1500 E98.51298
G0 F6000 X79.309 Y145.419
G0 X80.005 Y144.788
G0 X80.005 Y148.932
G0 X110 Y148.77
G1 F1500 E105.01298
G1 F1200 X79.599 Y148.772 E106.42858
G1 X31.584 Y104.476 E109.47047
G1 X31.584 Y81.756 E110.5284
G1 X61.664 Y81.756 E111.92905
G1 X61.664 Y83.971 E112.03219
G1 X61.879 Y84.407 E112.05483
G1 X62.192 Y84.652 E112.07334
G1 X62.515 Y84.751 E112.08907
G1 X105.816 Y84.756 E114.10535
G1 X106.097 Y84.718 E114.11855
G1 X106.405 Y84.566 E114.13454
G1 X106.675 Y84.252 E114.15383
G1 X106.782 Y83.931 E114.16958
G1 X106.784 Y71.892 E114.73017
G1 X156.264 Y71.892 E117.03416
G1 X156.266 Y83.927 E117.59456
G1 X156.374 Y84.253 E117.61055
G1 X156.642 Y84.56 E117.62953
G1 X156.946 Y84.717 E117.64546
G1 X157.228 Y84.756 E117.65872
G1 X159.41 Y84.754 E117.76032
G1 X159.778 Y84.575 E117.77938
G1 X159.983 Y84.384 E117.79242
G1 X160.13 Y84.114 E117.80674
G1 X160.178 Y83.911 E117.81645
G1 X160.184 Y71.224 E118.40721
G1 X188.412 Y71.224 E119.72163
G1 X188.412 Y102.118 E121.16018
G1 X156.714 Y148.768 E123.78641
G1 X110 Y148.77 E125.96161
G1 F1500 E119.46161
G0 F6000 X110 Y149.032
G0 X110.049 Y108.912
G0 X110.049 Y109.091
G1 F1500 E125.96161
G1 F1200 X154.216 Y109.092 E128.01821
G1 X154.497 Y109.054 E128.03141
G1 X154.804 Y108.903 E128.04735
G1 X155.075 Y108.588 E128.06669
G1 X155.182 Y108.267 E128.08245
G1 X155.18 Y73.89 E129.68319
G1 X155.108 Y73.546 E129.69955
G1 X154.902 Y73.254 E129.71619
G1 X154.6 Y73.043 E129.73335
G1 X154.26 Y72.976 E129.74948
G1 X108.693 Y72.974 E131.87127
G1 X108.413 Y73.065 E131.88498
G1 X108.142 Y73.25 E131.90026
G1 X107.934 Y73.554 E131.91741
G1 X107.868 Y73.892 E131.93345
G1 X107.866 Y108.263 E133.53391
G1 X107.974 Y108.589 E133.5499
G1 X108.242 Y108.896 E133.56887
G1 X108.516 Y109.038 E133.58324
G1 X108.799 Y109.09 E133.59664
G1 X110.049 Y109.091 E133.65485
G1 F1500 E127.15485
G0 F6000 X110.049 Y108.832
G0 X108.398 Y108.562
G0 X108.044 Y104.191
G0 X72.638 Y142.568
G0 X31.784 Y104.191
G1 F1500 E133.65485
G1 F1200 X34.322 Y106.729 E133.82198
G0 F6000 X34.011 Y107.066
G0 X35.502 Y105.685
G0 X35.186 Y105.896
G1 F1200 X31.784 Y102.494 E134.04601
G0 F6000 X31.784 Y101.929
G1 F1200 X34.87 Y105.015 E134.24923
G0 F6000 X34.986 Y104.565
G1 F1200 X31.784 Y101.363 E134.46008
G0 F6000 X31.784 Y100.797
G1 F1200 X35.196 Y104.209 E134.68477
G0 F6000 X35.464 Y103.912
G1 F1200 X31.784 Y100.232 E134.9271
G0 F6000 X31.784 Y99.666
G1 F1200 X35.882 Y103.764 E135.19696
G0 F6000 X36.423 Y103.74
G1 F1200 X31.784 Y99.1 E135.50248
G0 F6000 X31.784 Y98.535
G1 F1200 X36.989 Y103.74 E135.84524
G0 F6000 X37.554 Y103.74
G1 F1200 X31.784 Y97.969 E136.22524
G0 F6000 X31.784 Y97.403
G1 F1200 X38.12 Y103.74 E136.64251
G0 F6000 X38.686 Y103.74
G1 F1200 X31.784 Y96.838 E137.09702
G0 F6000 X31.784 Y96.272
G1 F1200 X39.251 Y103.74 E137.58876
G0 F6000 X39.817 Y103.74
G1 F1200 X31.784 Y95.706 E138.11778
G0 F6000 X31.784 Y95.141
G1 F1200 X40.382 Y103.739 E138.68398
G0 F6000 X40.948 Y103.739
G1 F1200 X31.784 Y94.575 E139.28744
G0 F6000 X31.784 Y94.009
G1 F1200 X41.514 Y103.739 E139.92818
G0 F6000 X42.079 Y103.739
G1 F1200 X31.784 Y93.443 E140.60615
G0 F6000 X31.784 Y92.878
G1 F1200 X42.645 Y103.739 E141.32137
G0 F6000 X43.211 Y103.739
G1 F1200 X31.784 Y92.312 E142.07386
G0 F6000 X31.784 Y91.746
G1 F1200 X43.776 Y103.739 E142.86358
G0 F6000 X44.342 Y103.739
G1 F1200 X31.784 Y91.181 E143.69055
G0 F6000 X31.784 Y90.615
G1 F1200 X44.907 Y103.738 E144.55472
G0 F6000 X45.473 Y103.738
G1 F1200 X31.784 Y90.049 E145.45617
G0 F6000 X31.784 Y89.484
G1 F1200 X46.038 Y103.738 E146.39482
G0 F6000 X46.604 Y103.738
G1 F1200 X31.784 Y88.918 E147.37074
G0 F6000 X31.784 Y88.352
G1 F1200 X47.17 Y103.738 E148.38393
G0 F6000 X47.735 Y103.738
G1 F1200 X31.784 Y87.787 E149.43433
G0 F6000 X31.784 Y87.221
G1 F1200 X48.301 Y103.738 E150.52201
G0 F6000 X48.866 Y103.738
G1 F1200 X31.784 Y86.655 E151.64692
G0 F6000 X31.784 Y86.09
G1 F1200 X49.432 Y103.738 E152.80907
G0 F6000 X49.997 Y103.738
G1 F1200 X31.784 Y85.524 E154.00846
G0 F6000 X31.784 Y84.958
G1 F1200 X50.563 Y103.738 E155.24512
G0 F6000 X51.129 Y103.738
G1 F1200 X31.784 Y84.392 E156.51905
G0 F6000 X31.784 Y83.827
G1 F1200 X51.694 Y103.738 E157.83019
G0 F6000 X52.26 Y103.738
G1 F1200 X31.784 Y83.261 E159.17861
G0 F6000 X31.784 Y82.695
G1 F1200 X52.826 Y103.738 E160.56429
G0 F6000 X53.391 Y103.737
G1 F1200 X31.784 Y82.13 E161.98715
G0 F6000 X32.175 Y81.956
G1 F1200 X53.956 Y103.737 E163.42147
G0 F6000 X54.522 Y103.737
G1 F1200 X32.741 Y81.956 E164.85578
G0 F6000 X33.307 Y81.956
G1 F1200 X55.088 Y103.737 E166.2901
G0 F6000 X55.654 Y103.737
G1 F1200 X33.873 Y81.956 E167.72441
G0 F6000 X34.438 Y81.956
G1 F1200 X56.219 Y103.737 E169.15873
G0 F6000 X56.785 Y103.737
G1 F1200 X35.004 Y81.956 E170.59305
G0 F6000 X35.57 Y81.956
G1 F1200 X57.35 Y103.736 E172.0273
G0 F6000 X57.916 Y103.736
G1 F1200 X36.135 Y81.956 E173.46158
G0 F6000 X36.701 Y81.956
G1 F1200 X58.481 Y103.736 E174.89583
G0 F6000 X59.047 Y103.736
G1 F1200 X37.267 Y81.956 E176.33008
G0 F6000 X37.832 Y81.956
G1 F1200 X59.613 Y103.736 E177.76436
G0 F6000 X60.178 Y103.736
G1 F1200 X38.398 Y81.956 E179.19861
G0 F6000 X38.964 Y81.956
G1 F1200 X60.744 Y103.736 E180.63286
G0 F6000 X61.31 Y103.736
G1 F1200 X39.529 Y81.956 E182.06715
G0 F6000 X40.095 Y81.956
G1 F1200 X61.465 Y103.325 E183.47436
G0 F6000 X61.465 Y102.76
G1 F1200 X40.661 Y81.956 E184.84434
G0 F6000 X41.226 Y81.956
G1 F1200 X61.466 Y102.195 E186.17715
G0 F6000 X61.467 Y101.63
G1 F1200 X41.792 Y81.956 E187.47275
G0 F6000 X42.358 Y81.956
G1 F1200 X61.467 Y101.065 E188.73111
G0 F6000 X61.468 Y100.5
G1 F1200 X42.924 Y81.956 E189.95226
G0 F6000 X43.489 Y81.956
G1 F1200 X61.469 Y99.935 E191.13624
G0 F6000 X61.469 Y99.37
G1 F1200 X44.055 Y81.956 E192.28299
G0 F6000 X44.621 Y81.956
G1 F1200 X61.47 Y98.805 E193.39252
G0 F6000 X61.471 Y98.24
G1 F1200 X45.186 Y81.956 E194.46488
G0 F6000 X45.752 Y81.956
G1 F1200 X61.537 Y97.741 E195.50435
G0 F6000 X61.725 Y97.363
G1 F1200 X46.318 Y81.956 E196.51893
G0 F6000 X46.883 Y81.956
G1 F1200 X62.026 Y97.098 E197.51609
G0 F6000 X62.44 Y96.947
G1 F1200 X47.449 Y81.956 E198.50327
G0 F6000 X48.015 Y81.956
G1 F1200 X62.983 Y96.925 E199.48897
G0 F6000 X63.549 Y96.925
G1 F1200 X48.58 Y81.956 E200.47471
G0 F6000 X49.146 Y81.956
G1 F1200 X64.115 Y96.925 E201.46044
G0 F6000 X64.68 Y96.925
G1 F1200 X49.712 Y81.956 E202.44614
G0 F6000 X50.277 Y81.956
G1 F1200 X65.246 Y96.925 E203.43188
G0 F6000 X65.812 Y96.925
G1 F1200 X50.843 Y81.956 E204.41761
G0 F6000 X51.409 Y81.956
