;FLAVOR:Marlin
;TIME:6912
;Filament used: 6.11679m
;Layer height: 0.28
;MINX:29.96
;MINY:69.49
;MINZ:0.28
;MAXX:190.04
;MAXY:150.399
;MAXZ:8.12
;TARGET_MACHINE.NAME:Creality Ender-3 Pro
;Generated with Cura_SteamEngine 5.8.1
M82 ;absolute extrusion mode
; Ender 3 Custom Start G-code
G92 E0 ; Reset Extruder
G28 ; Home all axes
G1 Z5.0 F3000 ; Move Z Axis up a bit during heating to not damage bed
M104 S175 ; Start heating up the nozzle most of the way
M190 S67.0 ; Start heating the bed, wait until target temperature reached
M109 S207.0 ; Finish heating the nozzle
G1 Z2.0 F3000 ; Move Z Axis up little to prevent scratching of Heat Bed
G29;
G1 X0.1 Y20 Z0.3 F5000.0 ; Move to start position
G1 X0.1 Y200.0 Z0.3 F1500.0 E15 ; Draw the first line
G1 X0.4 Y200.0 Z0.3 F5000.0 ; Move to side a little
G1 X0.4 Y20 Z0.3 F1500.0 E30 ; Draw the second line
G92 E0 ; Reset Extruder
G1 Z2.0 F3000 ; Move Z Axis up little to prevent scratching of Heat Bed
G1 X5 Y20 Z0.3 F5000.0 ; Move over to prevent blob squish
G92 E0
G92 E0
G1 F1500 E-6.5
;LAYER_COUNT:29
;LAYER:0
M107
;MESH:mobo v3.stl
G0 F6000 X110 Y108.732 Z0.28
;TYPE:WALL-INNER
G1 F1500 E0
G1 F1200 X108.703 Y108.732 E0.06039
G1 X108.464 Y108.612 E0.07285
G1 X108.294 Y108.415 E0.08496
G1 X108.224 Y108.21 E0.09505
G1 X108.224 Y73.932 E1.69118
G1 X108.273 Y73.693 E1.70254
G1 X108.399 Y73.507 E1.713
G1 X108.585 Y73.381 E1.72346
G1 X108.75 Y73.332 E1.73147
G1 X154.224 Y73.332 E3.84893
G1 X154.463 Y73.381 E3.86029
G1 X154.649 Y73.507 E3.87076
G1 X154.775 Y73.693 E3.88122
G1 X154.824 Y73.932 E3.89258
G1 X154.824 Y108.213 E5.48884
G1 X154.754 Y108.415 E5.4988
G1 X154.584 Y108.612 E5.51092
G1 X154.348 Y108.732 E5.52324
G1 X110 Y108.732 E7.58827
G1 F1500 E1.08827
G0 F6000 X110 Y148.932
G0 X110 Y149.132
G1 F1500 E7.58827
G1 F1200 X156.624 Y149.132 E9.75928
G1 X156.624 Y98.12 E12.13461
G1 X156.694 Y97.837 E12.14819
G1 X156.864 Y97.64 E12.1603
G1 X157.103 Y97.52 E12.17276
G1 X159.312 Y97.526 E12.27562
G1 X159.494 Y97.583 E12.2845
G1 X159.673 Y97.72 E12.29499
G1 X159.824 Y98.045 E12.31168
G1 X159.824 Y101.816 E12.48728
G1 X188.772 Y101.816 E13.83522
G1 X188.772 Y70.864 E15.27647
G1 X159.824 Y70.864 E16.62441
G1 X159.823 Y83.406 E17.20842
G1 X159.786 Y83.576 E17.21652
G1 X159.572 Y83.854 E17.23286
G1 X159.34 Y83.964 E17.24481
G1 X157.103 Y83.964 E17.34898
G1 X156.864 Y83.844 E17.36143
G1 X156.694 Y83.647 E17.37354
G1 X156.624 Y83.442 E17.38363
G1 X156.624 Y71.532 E17.93821
G1 X106.424 Y71.532 E20.27573
G1 X106.424 Y83.877 E20.85057
G1 X106.354 Y84.079 E20.86052
G1 X106.184 Y84.276 E20.87264
G1 X105.948 Y84.396 E20.88497
G1 X62.563 Y84.393 E22.90515
G1 X62.313 Y84.31 E22.91742
G1 X62.16 Y84.178 E22.92683
G1 X62.024 Y83.908 E22.94091
G1 X62.024 Y81.396 E23.05788
G1 X31.224 Y81.396 E24.49205
G1 X31.224 Y104.296 E25.55837
G1 X62.024 Y104.296 E26.99255
G1 X62.027 Y98.017 E27.28493
G1 X62.12 Y97.757 E27.29778
G1 X62.353 Y97.548 E27.31236
G1 X62.571 Y97.486 E27.32291
G1 X105.948 Y97.484 E29.34273
G1 X106.184 Y97.604 E29.35506
G1 X106.354 Y97.801 E29.36717
G1 X106.424 Y98.084 E29.38075
G1 X106.423 Y120.169 E30.40912
G1 X106.347 Y120.428 E30.42169
G1 X106.194 Y120.605 E30.43258
G1 X106.068 Y120.681 E30.43943
G1 X105.856 Y120.732 E30.44959
G1 X79.824 Y120.732 E31.66174
G1 X79.824 Y149.132 E32.98417
G1 X110 Y149.132 E34.38929
G0 F6000 X110 Y149.532
;TYPE:WALL-OUTER
G1 F1200 X157.024 Y149.532 E36.57892
G1 X157.024 Y98.043 E38.97647
G1 X157.183 Y97.92 E38.98583
G1 X159.254 Y97.922 E39.08226
G1 X159.374 Y97.986 E39.08859
G1 X159.422 Y98.086 E39.09376
G1 X159.424 Y102.216 E39.28607
G1 X189.172 Y102.216 E40.67126
G1 X189.172 Y70.464 E42.14977
G1 X159.424 Y70.464 E43.53496
G1 X159.423 Y83.391 E44.13689
G1 X159.374 Y83.498 E44.14237
G1 X159.261 Y83.564 E44.14847
G1 X157.183 Y83.564 E44.24523
G1 X157.104 Y83.524 E44.24935
G1 X157.027 Y83.399 E44.25619
G1 X157.024 Y71.132 E44.82739
G1 X106.024 Y71.132 E47.20216
G1 X106.022 Y83.831 E47.79348
G1 X105.944 Y83.956 E47.80034
G1 X105.868 Y83.996 E47.80434
G1 X62.584 Y83.993 E49.81983
G1 X62.469 Y83.924 E49.82607
G1 X62.429 Y83.845 E49.83019
G1 X62.424 Y80.996 E49.96286
G1 X30.824 Y80.996 E51.43428
G1 X30.824 Y104.696 E52.53786
G1 X62.424 Y104.696 E54.00928
G1 X62.425 Y98.038 E54.31931
G1 X62.463 Y97.964 E54.32318
G1 X62.584 Y97.887 E54.32986
G1 X105.868 Y97.884 E56.34534
G1 X106.024 Y98.007 E56.35459
G1 X106.022 Y120.167 E57.38646
G1 X105.962 Y120.278 E57.39233
G1 X105.872 Y120.332 E57.39722
G1 X79.424 Y120.332 E58.62875
G1 X79.424 Y149.532 E59.98842
G1 X110 Y149.532 E61.41217
G1 F1500 E54.91217
G0 F6000 X110 Y149.032
G0 X110 Y108.912
G0 X110 Y108.332
G1 F1500 E61.41217
G1 F1200 X108.783 Y108.332 E61.46884
G1 X108.704 Y108.292 E61.47296
G1 X108.627 Y108.167 E61.4798
G1 X108.624 Y73.876 E63.07653
G1 X108.682 Y73.79 E63.08136
G1 X108.789 Y73.735 E63.08696
G1 X154.288 Y73.732 E65.20559
G1 X154.424 Y73.868 E65.21454
G1 X154.422 Y108.167 E66.81165
G1 X154.344 Y108.292 E66.81851
G1 X154.268 Y108.332 E66.82251
G1 X110 Y108.332 E68.88381
G1 F1500 E62.38381
G0 F6000 X110 Y108.634
G0 X110 Y108.912
G0 X110 Y148.932
G0 X110 Y148.772
;TYPE:SKIN
G1 F1500 E68.88381
G1 F1200 X80.184 Y148.772 E70.27217
G1 X80.184 Y121.092 E71.56107
G1 X105.884 Y121.087 E72.75777
G1 X106.2 Y121.013 E72.77288
G1 X106.458 Y120.85 E72.78709
G1 X106.647 Y120.627 E72.8007
G1 X106.779 Y120.251 E72.81926
G1 X106.779 Y98.038 E73.85359
G1 X106.674 Y97.628 E73.87329
G1 X106.405 Y97.314 E73.89255
G1 X106.127 Y97.173 E73.90706
G1 X105.842 Y97.125 E73.92052
G1 X62.542 Y97.124 E75.93675
G1 X62.197 Y97.219 E75.95341
G1 X61.972 Y97.372 E75.96608
G1 X61.799 Y97.596 E75.97926
G1 X61.673 Y97.951 E75.9968
G1 X61.664 Y103.936 E76.27549
G1 X31.584 Y103.936 E77.67614
G1 X31.584 Y81.756 E78.70893
G1 X61.664 Y81.756 E80.10958
G1 X61.664 Y83.971 E80.21272
G1 X61.879 Y84.407 E80.23536
G1 X62.192 Y84.652 E80.25387
G1 X62.515 Y84.751 E80.2696
G1 X105.816 Y84.756 E82.28587
G1 X106.097 Y84.718 E82.29908
G1 X106.405 Y84.566 E82.31507
G1 X106.675 Y84.252 E82.33435
G1 X106.782 Y83.931 E82.35011
G1 X106.784 Y71.892 E82.9107
G1 X156.264 Y71.892 E85.21469
G1 X156.266 Y83.495 E85.75498
G1 X156.374 Y83.821 E85.77097
G1 X156.642 Y84.128 E85.78994
G1 X156.916 Y84.27 E85.80431
G1 X157.199 Y84.322 E85.81771
G1 X159.338 Y84.321 E85.91731
G1 X159.703 Y84.193 E85.93532
G1 X159.948 Y83.995 E85.94999
G1 X160.093 Y83.767 E85.96257
G1 X160.177 Y83.45 E85.97784
G1 X160.184 Y71.224 E86.54714
G1 X188.412 Y71.224 E87.86155
G1 X188.412 Y101.456 E89.26928
G1 X160.184 Y101.456 E90.58369
G1 X160.182 Y97.99 E90.74508
G1 X160.086 Y97.701 E90.75926
G1 X159.833 Y97.372 E90.77859
G1 X159.598 Y97.232 E90.79133
G1 X159.331 Y97.161 E90.80419
G1 X157.202 Y97.161 E90.90333
G1 X156.948 Y97.193 E90.91525
G1 X156.641 Y97.352 E90.93135
G1 X156.368 Y97.666 E90.95072
G1 X156.269 Y98.077 E90.97041
G1 X156.264 Y148.772 E93.33098
G1 X110 Y148.772 E95.48522
G1 F1500 E88.98522
G0 F6000 X110 Y149.032
G0 X110.049 Y108.912
G0 X110.049 Y109.091
G1 F1500 E95.48522
G1 F1200 X154.216 Y109.092 E97.54182
G1 X154.497 Y109.054 E97.55503
G1 X154.805 Y108.902 E97.57102
G1 X155.075 Y108.588 E97.5903
G1 X155.182 Y108.267 E97.60606
G1 X155.18 Y73.89 E99.2068
G1 X155.108 Y73.546 E99.22316
G1 X154.902 Y73.254 E99.2398
G1 X154.6 Y73.043 E99.25696
G1 X154.26 Y72.976 E99.27309
G1 X108.693 Y72.974 E101.39488
G1 X108.413 Y73.065 E101.40859
G1 X108.142 Y73.25 E101.42387
G1 X107.934 Y73.554 E101.44102
G1 X107.868 Y73.892 E101.45706
G1 X107.866 Y108.263 E103.05752
G1 X107.974 Y108.589 E103.07351
G1 X108.242 Y108.896 E103.09248
G1 X108.516 Y109.038 E103.10685
G1 X108.799 Y109.09 E103.12025
G1 X110.049 Y109.091 E103.17846
G1 F1500 E96.67846
G0 F6000 X110.049 Y108.832
G0 X108.397 Y108.562
G0 X108.044 Y103.626
G0 X106.245 Y103.626
G0 X31.784 Y103.626
G1 F1500 E103.17846
G1 F1200 X31.894 Y103.736 E103.1857
G0 F6000 X32.46 Y103.736
G1 F1200 X31.784 Y103.06 E103.23022
G0 F6000 X31.784 Y102.494
G1 F1200 X33.025 Y103.736 E103.31197
G0 F6000 X33.591 Y103.736
G1 F1200 X31.784 Y101.929 E103.43097
G0 F6000 X31.784 Y101.363
G1 F1200 X34.157 Y103.736 E103.58723
G0 F6000 X34.722 Y103.736
G1 F1200 X31.784 Y100.797 E103.78074
G0 F6000 X31.784 Y100.232
G1 F1200 X35.288 Y103.736 E104.01148
G0 F6000 X35.854 Y103.736
G1 F1200 X31.784 Y99.666 E104.2795
G0 F6000 X31.784 Y99.1
G1 F1200 X36.42 Y103.736 E104.58479
G0 F6000 X36.985 Y103.736
G1 F1200 X31.784 Y98.535 E104.92728
G0 F6000 X31.784 Y97.969
G1 F1200 X37.551 Y103.736 E105.30705
G0 F6000 X38.117 Y103.736
G1 F1200 X31.784 Y97.403 E105.72409
G0 F6000 X31.784 Y96.838
G1 F1200 X38.682 Y103.736 E106.17833
G0 F6000 X39.248 Y103.736
G1 F1200 X31.784 Y96.272 E106.66985
G0 F6000 X31.784 Y95.706
G1 F1200 X39.814 Y103.736 E107.19864
G0 F6000 X40.379 Y103.736
G1 F1200 X31.784 Y95.141 E107.76463
G0 F6000 X31.784 Y94.575
G1 F1200 X40.945 Y103.736 E108.3679
G0 F6000 X41.511 Y103.736
G1 F1200 X31.784 Y94.009 E109.00844
G0 F6000 X31.784 Y93.443
G1 F1200 X42.076 Y103.736 E109.68622
G0 F6000 X42.642 Y103.736
G1 F1200 X31.784 Y92.878 E110.40124
G0 F6000 X31.784 Y92.312
G1 F1200 X43.208 Y103.736 E111.15353
G0 F6000 X43.773 Y103.736
G1 F1200 X31.784 Y91.746 E111.94306
G0 F6000 X31.784 Y91.181
G1 F1200 X44.339 Y103.736 E112.76983
G0 F6000 X44.905 Y103.736
G1 F1200 X31.784 Y90.615 E113.63387
G0 F6000 X31.784 Y90.049
G1 F1200 X45.471 Y103.736 E114.53518
G0 F6000 X46.036 Y103.736
G1 F1200 X31.784 Y89.484 E115.4737
G0 F6000 X31.784 Y88.918
G1 F1200 X46.602 Y103.736 E116.44949
G0 F6000 X47.168 Y103.736
G1 F1200 X31.784 Y88.352 E117.46255
G0 F6000 X31.784 Y87.787
G1 F1200 X47.733 Y103.736 E118.51282
G0 F6000 X48.299 Y103.736
G1 F1200 X31.784 Y87.221 E119.60036
G0 F6000 X31.784 Y86.655
G1 F1200 X48.865 Y103.736 E120.72517
G0 F6000 X49.43 Y103.736
G1 F1200 X31.784 Y86.09 E121.88719
G0 F6000 X31.784 Y85.524
G1 F1200 X49.996 Y103.736 E123.08648
G0 F6000 X50.562 Y103.736
G1 F1200 X31.784 Y84.958 E124.32305
G0 F6000 X31.784 Y84.392
G1 F1200 X51.127 Y103.736 E125.59685
G0 F6000 X51.693 Y103.736
G1 F1200 X31.784 Y83.827 E126.90789
G0 F6000 X31.784 Y83.261
G1 F1200 X52.259 Y103.736 E128.2562
G0 F6000 X52.824 Y103.736
G1 F1200 X31.784 Y82.695 E129.64176
G0 F6000 X31.784 Y82.13
G1 F1200 X53.39 Y103.736 E131.06455
G0 F6000 X53.956 Y103.736
G1 F1200 X32.175 Y81.956 E132.49883
G0 F6000 X32.741 Y81.956
G1 F1200 X54.521 Y103.736 E133.93308
G0 F6000 X55.087 Y103.736
G1 F1200 X33.307 Y81.956 E135.36733
G0 F6000 X33.873 Y81.956
G1 F1200 X55.653 Y103.736 E136.80158
G0 F6000 X56.219 Y103.736
G1 F1200 X34.438 Y81.956 E138.23587
G0 F6000 X35.004 Y81.956
G1 F1200 X56.784 Y103.736 E139.67012
G0 F6000 X57.35 Y103.736
G1 F1200 X35.57 Y81.956 E141.10437
G0 F6000 X36.135 Y81.956
G1 F1200 X57.916 Y103.736 E142.53865
G0 F6000 X58.481 Y103.736
G1 F1200 X36.701 Y81.956 E143.9729
G0 F6000 X37.267 Y81.956
G1 F1200 X59.047 Y103.736 E145.40715
G0 F6000 X59.613 Y103.736
G1 F1200 X37.832 Y81.956 E146.84143
G0 F6000 X38.398 Y81.956
G1 F1200 X60.178 Y103.736 E148.27568
G0 F6000 X60.744 Y103.736
G1 F1200 X38.964 Y81.956 E149.70993
G0 F6000 X39.529 Y81.956
G1 F1200 X61.31 Y103.736 E151.14422
G0 F6000 X61.465 Y103.325
G1 F1200 X40.095 Y81.956 E152.55143
G0 F6000 X40.661 Y81.956
G1 F1200 X61.465 Y102.76 E153.92141
G0 F6000 X61.466 Y102.195
G1 F1200 X41.226 Y81.956 E155.25422
G0 F6000 X41.792 Y81.956
G1 F1200 X61.467 Y101.63 E156.54982
G0 F6000 X61.467 Y101.065
G1 F1200 X42.358 Y81.956 E157.80818
G0 F6000 X42.924 Y81.956
G1 F1200 X61.468 Y100.5 E159.02933
G0 F6000 X61.469 Y99.935
G1 F1200 X43.489 Y81.956 E160.21331
G0 F6000 X44.055 Y81.956
G1 F1200 X61.469 Y99.37 E161.36006
G0 F6000 X61.47 Y98.805
G1 F1200 X44.621 Y81.956 E162.46959
G0 F6000 X45.186 Y81.956
G1 F1200 X61.471 Y98.24 E163.54195
G0 F6000 X61.537 Y97.741
G1 F1200 X45.752 Y81.956 E164.58142
G0 F6000 X46.318 Y81.956
G1 F1200 X61.725 Y97.363 E165.596
G0 F6000 X62.026 Y97.098
G1 F1200 X46.883 Y81.956 E166.59316
G0 F6000 X47.449 Y81.956
G1 F1200 X62.44 Y96.947 E167.58034
G0 F6000 X62.983 Y96.925
G1 F1200 X48.015 Y81.956 E168.56604
G0 F6000 X48.58 Y81.956
G1 F1200 X63.549 Y96.925 E169.55178
G0 F6000 X64.115 Y96.925
G1 F1200 X49.146 Y81.956 E170.53751
G0 F6000 X49.712 Y81.956
G1 F1200 X64.68 Y96.925 E171.52321
G0 F6000 X65.246 Y96.925
G1 F1200 X50.277 Y81.956 E172.50895
G0 F6000 X50.843 Y81.956
G1 F1200 X65.812 Y96.925 E173.49468
G0 F6000 X66.378 Y96.925
G1 F1200 X51.409 Y81.956 E174.48042
G0 F6000 X51.974 Y81.956
G1 F1200 X66.943 Y96.925 E175.46615
G0 F6000 X67.509 Y96.925
G1 F1200 X52.54 Y81.956 E176.45188
G0 F6000 X53.106 Y81.956
G1 F1200 X68.075 Y96.925 E177.43762
G0 F6000 X68.64 Y96.925
G1 F1200 X53.672 Y81.956 E178.42332
G0 F6000 X54.237 Y81.956
G1 F1200 X69.206 Y96.925 E179.40905
G0 F6000 X69.772 Y96.925
G1 F1200 X54.803 Y81.956 E180.39479
G0 F6000 X55.369 Y81.956
G1 F1200 X70.337 Y96.925 E181.38049
G0 F6000 X70.903 Y96.925
G1 F1200 X55.934 Y81.956 E182.36622
G0 F6000 X56.5 Y81.956
G1 F1200 X71.469 Y96.925 E183.35196
G0 F6000 X72.034 Y96.925
G1 F1200 X57.066 Y81.956 E184.33766
G0 F6000 X57.631 Y81.956
G1 F1200 X72.6 Y96.925 E185.32339
G0 F6000 X73.166 Y96.925
G1 F1200 X58.197 Y81.956 E186.30913
G0 F6000 X58.763 Y81.956
G1 F1200 X73.731 Y96.925 E187.29483
G0 F6000 X74.297 Y96.925
G1 F1200 X62.253 Y84.88 E188.08798
G0 F6000 X62.888 Y84.95
G1 F1200 X74.863 Y96.925 E188.87655
G0 F6000 X75.428 Y96.925
G1 F1200 X63.454 Y84.95 E189.66509
G0 F6000 X64.019 Y84.95
G1 F1200 X75.994 Y96.925 E190.45367
G0 F6000 X76.56 Y96.925
G1 F1200 X64.585 Y84.95 E191.24224
G0 F6000 X65.151 Y84.95
G1 F1200 X77.126 Y96.925 E192.03082
G0 F6000 X77.692 Y96.925
G1 F1200 X65.716 Y84.95 E192.81942
G0 F6000 X66.282 Y84.95
G1 F1200 X78.258 Y96.925 E193.60803
G0 F6000 X78.823 Y96.925
G1 F1200 X66.848 Y84.95 E194.39661
G0 F6000 X67.414 Y84.95
G1 F1200 X79.389 Y96.925 E195.18518
G0 F6000 X79.955 Y96.925
G1 F1200 X67.98 Y84.95 E195.97375
G0 F6000 X68.546 Y84.95
G1 F1200 X80.52 Y96.925 E196.7623
G0 F6000 X81.086 Y96.925
G1 F1200 X69.111 Y84.95 E197.55087
G0 F6000 X69.677 Y84.95
G1 F1200 X81.652 Y96.925 E198.33944
G0 F6000 X82.217 Y96.925
G1 F1200 X70.243 Y84.95 E199.12799
G0 F6000 X70.808 Y84.95
G1 F1200 X82.783 Y96.925 E199.91656
G0 F6000 X83.349 Y96.925
G1 F1200 X71.375 Y84.951 E200.70507
G0 F6000 X71.94 Y84.951
G1 F1200 X83.914 Y96.925 E201.49358
G0 F6000 X84.48 Y96.925
G1 F1200 X72.506 Y84.951 E202.28208
G0 F6000 X73.072 Y84.951
G1 F1200 X85.046 Y96.925 E203.07059
G0 F6000 X85.612 Y96.925
G1 F1200 X73.637 Y84.951 E203.85913
G0 F6000 X74.203 Y84.951
G1 F1200 X86.177 Y96.925 E204.64764
G0 F6000 X86.743 Y96.925
G1 F1200 X74.769 Y84.951 E205.43615
G0 F6000 X75.334 Y84.951
G1 F1200 X87.309 Y96.925 E206.22469
G0 F6000 X87.874 Y96.925
G1 F1200 X75.901 Y84.952 E207.01313
G0 F6000 X76.467 Y84.952
G1 F1200 X88.44 Y96.925 E207.80158
G0 F6000 X89.006 Y96.925
G1 F1200 X77.032 Y84.952 E208.59005
G0 F6000 X77.598 Y84.952
G1 F1200 X89.571 Y96.925 E209.37849
G0 F6000 X90.137 Y96.925
G1 F1200 X78.164 Y84.952 E210.16694
G0 F6000 X78.729 Y84.952
G1 F1200 X90.703 Y96.925 E210.95541
G0 F6000 X91.268 Y96.925
G1 F1200 X79.295 Y84.952 E211.74386
G0 F6000 X79.861 Y84.953
G1 F1200 X91.835 Y96.926 E212.53233
G0 F6000 X92.4 Y96.926
G1 F1200 X80.427 Y84.953 E213.32077
G0 F6000 X80.993 Y84.953
G1 F1200 X92.966 Y96.926 E214.10922
G0 F6000 X93.532 Y96.926
G1 F1200 X81.558 Y84.953 E214.89769
G0 F6000 X82.124 Y84.953
G1 F1200 X94.098 Y96.926 E215.68617
G0 F6000 X94.663 Y96.926
G1 F1200 X82.69 Y84.953 E216.47461
G0 F6000 X83.255 Y84.953
G1 F1200 X95.229 Y96.926 E217.26308
G0 F6000 X95.795 Y96.926
G1 F1200 X83.821 Y84.953 E218.05156
G0 F6000 X84.388 Y84.953
G1 F1200 X96.36 Y96.926 E218.83997
G0 F6000 X96.926 Y96.926
