;FLAVOR:Marlin
;TIME:2299
;Filament used: 1.29419m
;Layer height: 0.16
;MINX:80.208
;MINY:89.201
;MINZ:0.2
;MAXX:139.788
;MAXY:130.796
;MAXZ:5.8
;TARGET_MACHINE.NAME:Creality Ender-3 Pro
;Generated with Cura_SteamEngine 5.8.1
M82 ;absolute extrusion mode
; Ender 3 Custom Start G-code
G92 E0 ; Reset Extruder
G28 ; Home all axes
G1 Z5.0 F3000 ; Move Z Axis up a bit during heating to not damage bed
M104 S175 ; Start heating up the nozzle most of the way
M190 S67.0 ; Start heating the bed, wait until target temperature reached
M109 S215.0 ; Finish heating the nozzle
G1 Z2.0 F3000 ; Move Z Axis up little to prevent scratching of Heat Bed
G29;
G1 X0.1 Y20 Z0.3 F5000.0 ; Move to start position
G1 X0.1 Y200.0 Z0.3 F1500.0 E15 ; Draw the first line
G1 X0.4 Y200.0 Z0.3 F5000.0 ; Move to side a little
G1 X0.4 Y20 Z0.3 F1500.0 E30 ; Draw the second line
G92 E0 ; Reset Extruder
G1 Z2.0 F3000 ; Move Z Axis up little to prevent scratching of Heat Bed
G1 X5 Y20 Z0.3 F5000.0 ; Move over to prevent blob squish
G92 E0
G92 E0
G1 F1500 E-6.5
;LAYER_COUNT:29
;LAYER:0
M107
;MESH:levfluidmassless v0.stl
G0 F6000 X96.613 Y95.158 Z0.2
;TYPE:WALL-INNER
G1 F1500 E0
G1 F1156.6 X96.753 Y95.024 E0.00669
G1 F1176.5 X97.395 Y94.478 E0.03528
G1 F1170.7 X97.841 Y94.127 E0.05463
G1 F1173.6 X98.408 Y93.709 E0.07858
G1 F1179.4 X98.879 Y93.384 E0.09795
G1 X99.469 Y93.003 E0.12172
G1 F1176.5 X100.526 Y92.388 E0.16321
G1 F1185.2 X101.7 Y91.807 E0.20732
G1 F1188.1 X102.925 Y91.295 E0.25192
G1 F1185.2 X104.214 Y90.857 E0.29776
G1 F1194 X105.476 Y90.519 E0.34144
G1 F1200 X106.766 Y90.264 E0.38517
G1 F1197 X108.046 Y90.096 E0.42822
G1 X109.386 Y90.008 E0.47299
G1 X110.645 Y90.01 E0.51497
G1 F1182.3 X111.601 Y90.067 E0.5473
G1 F1188.1 X111.999 Y90.102 E0.56072
G1 X112.855 Y90.208 E0.5897
G1 F1191.1 X113.303 Y90.276 E0.60488
G1 F1182.3 X114.026 Y90.412 E0.62972
G1 F1188.1 X114.57 Y90.532 E0.64843
G1 X115.437 Y90.754 E0.6785
G1 F1185.2 X115.84 Y90.874 E0.69266
G1 F1194 X116.72 Y91.168 E0.72367
G1 X117.12 Y91.314 E0.7379
G1 F1185.2 X117.725 Y91.557 E0.75986
G1 X118.294 Y91.805 E0.78076
G1 X118.876 Y92.083 E0.80248
G1 F1182.3 X119.47 Y92.391 E0.82507
G1 F1194 X120.026 Y92.697 E0.84629
G1 F1197 X120.6 Y93.048 E0.86872
G1 X121.162 Y93.407 E0.89096
G1 F1176.5 X122.103 Y94.079 E0.93018
G1 F1188.1 X122.757 Y94.604 E0.95836
G1 F1194 X123.281 Y95.049 E0.98134
G1 F1167.9 X123.404 Y95.172 E0.98728
G0 F6000 X125.551 Y97.162
G0 X135.07 Y96.918
G0 X135.07 Y98.082
G0 X126.932 Y98.363
G0 X127.025 Y99.497
G1 F1162.2 X127.144 Y99.695 E0.99521
G1 F1182.3 X127.774 Y100.828 E1.03898
G1 F1179.4 X128.348 Y102.038 E1.0843
G1 F1182.3 X128.803 Y103.186 E1.12599
G1 F1179.4 X129.068 Y103.968 E1.15393
G1 F1191.1 X129.217 Y104.468 E1.17142
G1 F1188.1 X129.406 Y105.166 E1.19571
G1 F1173.6 X129.543 Y105.762 E1.21651
G1 F1170.7 X129.659 Y106.339 E1.23657
G1 F1176.5 X129.785 Y107.087 E1.2623
G1 F1185.2 X129.863 Y107.67 E1.28211
G1 F1167.9 X129.905 Y108.075 E1.29603
G1 F1165 X129.962 Y108.787 E1.3205
G1 F1170.7 X129.988 Y109.375 E1.34056
G1 X129.998 Y109.988 E1.36146
G1 F1173.6 X129.988 Y110.621 E1.38299
G1 F1179.4 X129.963 Y111.209 E1.40291
G1 X129.907 Y111.902 E1.42644
G1 F1176.5 X129.86 Y112.351 E1.44175
G1 F1179.4 X129.78 Y112.934 E1.46167
G1 F1176.5 X129.664 Y113.646 E1.48614
G1 F1185.2 X129.538 Y114.269 E1.50755
G1 F1188.1 X129.395 Y114.878 E1.52856
G1 F1185.2 X129.212 Y115.551 E1.55205
G1 F1182.3 X129.07 Y116.021 E1.56862
G1 X128.807 Y116.798 E1.59632
G1 F1176.5 X128.661 Y117.182 E1.61025
G1 F1173.6 X128.321 Y118.016 E1.64088
G1 F1179.4 X128.195 Y118.299 E1.65137
G1 F1176.5 X127.756 Y119.204 E1.68549
G1 F1191.1 X127.433 Y119.794 E1.70803
G1 F1148.3 X126.967 Y120.601 E1.74042
G0 F6000 X127.1 Y121.839
G0 X135.07 Y121.918
G0 X135.07 Y123.082
G0 X125.756 Y123.2
G0 X123.279 Y124.947
G1 F1200 X122.74 Y125.407 E1.76399
G1 F1188.1 X122.113 Y125.91 E1.79099
G1 X121.684 Y126.225 E1.80887
G1 F1185.2 X121.16 Y126.592 E1.83041
G1 F1188.1 X120.57 Y126.971 E1.85397
G1 X120 Y127.316 E1.87635
G1 X119.428 Y127.63 E1.89827
G1 F1185.2 X118.878 Y127.913 E1.9191
G1 F1188.1 X118.263 Y128.205 E1.94197
G1 X117.724 Y128.44 E1.96172
G1 F1182.3 X117.06 Y128.706 E1.98587
G1 F1179.4 X116.72 Y128.83 E1.99812
G1 X115.793 Y129.136 E2.03116
G1 F1188.1 X115.542 Y129.21 E2.03995
G1 X114.531 Y129.475 E2.07506
G1 F1176.5 X114.043 Y129.582 E2.09201
G1 F1167.9 X113.239 Y129.732 E2.11996
G1 F1194 X111.985 Y129.896 E2.16223
G1 F1185.2 X111.601 Y129.929 E2.17521
G1 F1188.1 X110.675 Y129.986 E2.20637
G1 F1200 X109.339 Y129.988 E2.25081
G1 X108.043 Y129.902 E2.29401
G1 F1194 X106.732 Y129.729 E2.33821
G1 F1185.2 X105.447 Y129.472 E2.38234
G1 F1188.1 X104.186 Y129.132 E2.42622
G1 F1182.3 X102.926 Y128.702 E2.47116
G1 F1167.9 X102.124 Y128.373 E2.50079
G1 F1176.5 X101.684 Y128.181 E2.51707
G1 F1194 X100.518 Y127.603 E2.56057
G1 F1191.1 X99.902 Y127.254 E2.5843
G1 F1188.1 X99.388 Y126.943 E2.60448
G1 F1179.4 X98.834 Y126.583 E2.62684
G1 F1182.3 X98.292 Y126.206 E2.64913
G1 F1179.4 X97.829 Y125.862 E2.66865
G1 F1173.6 X97.255 Y125.404 E2.69362
G1 F1182.3 X96.736 Y124.957 E2.71674
G1 F1500 E-3.78326
G0 F6000 X94.543 Y123.564
G0 X94.262 Y123.579
G0 X92.809 Y122.8
G0 X92.464 Y122.111
G0 X92.809 Y121.597
G0 X92.53 Y121.436
G1 F1500 E2.71674
G1 F1200 X92.202 Y121.6 E2.72894
G1 X84.008 Y121.6 E3.00148
G1 X83.662 Y121.491 E3.01354
G1 X83.465 Y121.257 E3.02371
G1 X83.408 Y121.079 E3.02993
G1 X83.408 Y99 E3.76428
G1 X83.465 Y98.743 E3.77304
G1 X83.662 Y98.509 E3.78321
G1 X83.926 Y98.4 E3.79271
G1 X92.116 Y98.4 E4.06511
G1 X92.53 Y98.564 E4.07992
G1 X92.619 Y98.672 E4.08458
G1 X92.715 Y98.955 E4.09452
G1 X92.635 Y99.304 E4.10642
G1 X92.168 Y100.101 E4.13715
G1 X92.009 Y100.392 E4.14818
G1 X91.574 Y101.252 E4.18023
G1 X91.452 Y101.514 E4.18984
G1 X91.06 Y102.435 E4.22314
G1 X90.58 Y103.745 E4.26954
G1 X90.211 Y105.058 E4.3149
G1 X89.974 Y106.135 E4.35158
G1 X89.756 Y107.519 E4.39818
G1 X89.644 Y108.764 E4.43976
G1 X89.604 Y110.02 E4.48155
G1 X89.644 Y111.251 E4.52252
G1 X89.758 Y112.491 E4.56393
G1 X89.946 Y113.726 E4.60548
G1 X90.213 Y114.949 E4.64712
G1 X90.581 Y116.258 E4.69234
G1 X91.067 Y117.58 E4.73919
G1 X91.451 Y118.481 E4.77177
G1 X91.58 Y118.762 E4.78205
G1 X92.007 Y119.606 E4.81351
G1 X92.668 Y120.764 E4.85786
G1 X92.715 Y121.044 E4.8673
G1 X92.62 Y121.327 E4.87723
G1 X92.53 Y121.436 E4.88193
G0 F6000 X93.047 Y120.602
G1 F1151.1 X92.522 Y119.704 E4.918
G1 F1185.2 X92.253 Y119.208 E4.937
G1 X91.972 Y118.642 E4.95828
G1 F1188.1 X91.654 Y117.942 E4.98411
G1 F1182.3 X91.441 Y117.421 E5.00311
G1 F1179.4 X91.202 Y116.794 E5.02582
G1 X90.975 Y116.153 E5.04883
G1 F1182.3 X90.795 Y115.551 E5.07004
G1 F1185.2 X90.604 Y114.841 E5.0948
G1 F1182.3 X90.469 Y114.255 E5.1151
G1 F1179.4 X90.346 Y113.653 E5.1359
G1 F1182.3 X90.226 Y112.919 E5.16101
G1 F1191.1 X90.157 Y112.431 E5.17752
G1 F1173.6 X90.047 Y111.215 E5.21904
G1 X90.008 Y110.008 E5.26011
G1 F1176.5 X90.047 Y108.777 E5.3019
G1 F1179.4 X90.156 Y107.568 E5.34298
G1 F1188.1 X90.368 Y106.209 E5.38918
G1 F1182.3 X90.604 Y105.156 E5.42561
G1 F1191.1 X90.782 Y104.494 E5.44858
G1 F1188.1 X90.967 Y103.87 E5.47045
G1 F1179.4 X91.192 Y103.229 E5.49344
G1 F1176.5 X91.441 Y102.575 E5.51718
G1 F1182.3 X91.654 Y102.055 E5.53615
G1 F1188.1 X91.94 Y101.423 E5.55945
G1 F1173.6 X92.369 Y100.574 E5.5918
G1 F1179.4 X92.983 Y99.507 E5.63346
G1 F1500 E-0.86654
G0 F6000 X91.171 Y105.221
G0 X90.784 Y107.139
G0 X90.597 Y109.035
G0 X90.597 Y110.965
G0 X90.784 Y112.861
G0 X91.171 Y114.779
G0 X91.721 Y116.584
G0 X92.483 Y118.397
G0 X93.368 Y120.048
G0 X94.276 Y121.435
G0 X108.928 Y121.432
G0 X108.905 Y122.8
G0 X110 Y123
G1 F1500 E5.63346
G1 F1200 X122.52 Y123 E6.04988
G1 X123.006 Y123.125 E6.06657
G1 X123.337 Y123.423 E6.08139
G1 X123.511 Y123.748 E6.09365
G1 X123.594 Y124.095 E6.10551
G1 F1197 X123.279 Y124.947 E6.1358
G1 X124.034 Y124.25 E6.17006
G1 F1200 X124.932 Y123.309 E6.21333
G1 X125.511 Y123 E6.23515
G1 X134.988 Y123 E6.55036
G1 X134.988 Y122 E6.58362
G1 X127.904 Y122 E6.81923
G1 X127.518 Y121.923 E6.83233
G1 X127.212 Y121.723 E6.84448
G1 X127.065 Y121.545 E6.85216
G1 X126.907 Y121.081 E6.86847
G1 F1148.3 X126.967 Y120.601 E6.88528
G1 X126.673 Y121.022 E6.90313
G1 F1200 X126.234 Y121.702 E6.93005
G1 X125.603 Y121.995 E6.95319
G1 X111.504 Y122 E7.42212
G1 X111.033 Y121.883 E7.43826
G1 X110.704 Y121.6 E7.4527
G1 X110.567 Y121.351 E7.46215
G1 X110.507 Y121.087 E7.47115
G1 X110.504 Y99 E8.20577
G1 X110.567 Y98.648 E8.21766
G1 X110.704 Y98.4 E8.22709
G1 X111.033 Y98.117 E8.24152
G1 X111.375 Y98 E8.25354
G1 X125.641 Y98 E8.72803
G1 F1185.2 X126.232 Y98.299 E8.75034
G1 F1156.6 X127.025 Y99.497 E8.79991
G1 F1170.7 X126.907 Y98.919 E8.82002
G1 F1200 X127.066 Y98.453 E8.8364
G1 X127.212 Y98.277 E8.84401
G1 X127.518 Y98.077 E8.85617
G1 X127.783 Y98 E8.86534
G1 X134.988 Y98 E9.10498
G1 X134.988 Y97 E9.13824
G1 X125.549 Y96.995 E9.45219
G1 X124.931 Y96.69 E9.47511
G1 X124.023 Y95.735 E9.51894
G1 F1173.6 X123.404 Y95.172 E9.54739
G1 X123.595 Y95.894 E9.57279
G1 F1200 X123.458 Y96.348 E9.58856
G1 X123.337 Y96.577 E9.59718
G1 X123.006 Y96.875 E9.61199
G1 X122.65 Y97 E9.62454
G1 X97.488 Y97 E10.46143
G1 X97.001 Y96.874 E10.47816
G1 X96.62 Y96.531 E10.49521
G1 X96.41 Y95.972 E10.51508
G1 F1188.1 X96.5 Y95.356 E10.53599
G1 F1153.8 X96.613 Y95.158 E10.54387
G1 X96.437 Y95.31 E10.55192
G1 F1188.1 X95.951 Y95.768 E10.57435
G1 F1200 X95.515 Y96.213 E10.59507
G1 X95.089 Y96.676 E10.616
G1 X94.459 Y96.995 E10.63949
G1 X81.008 Y97 E11.08687
G1 X81.008 Y123 E11.95163
G1 X94.5 Y123 E12.40038
G1 X95.089 Y123.324 E12.42274
G1 X95.528 Y123.802 E12.44432
G1 X95.955 Y124.232 E12.46448
G1 X96.433 Y124.686 E12.4864
G1 F1191.1 X96.736 Y124.957 E12.50003
G1 X96.501 Y124.636 E12.51336
G1 F1200 X96.411 Y124.02 E12.53406
G1 X96.621 Y123.468 E12.55371
G1 X97.002 Y123.126 E12.57073
G1 X97.357 Y123 E12.58326
G1 X110 Y123 E13.00377
G0 F6000 X96.876 Y123.568
G0 X96.665 Y124.127
G0 X98.166 Y125.407
G0 X99.713 Y126.485
G0 X100.811 Y127.122
G0 X101.951 Y127.688
G0 X103.125 Y128.177
G0 X103.814 Y128.413
G0 X110.002 Y130.095
G0 X110 Y130.393
G1 F1200 X110.333 Y130.396 E13.01485
G1 X110.641 Y130.387 E13.0251
G1 X111.639 Y130.332 E13.05834
G1 X111.981 Y130.299 E13.06977
G1 X113.182 Y130.151 E13.11002
G1 X114.075 Y129.993 E13.14018
G1 X114.404 Y129.919 E13.15139
G1 X115.664 Y129.596 E13.19466
G1 X116.866 Y129.21 E13.23665
G1 X117.882 Y128.815 E13.2729
G1 X119.068 Y128.272 E13.31629
G1 X120.214 Y127.66 E13.3595
G1 X121.396 Y126.922 E13.40584
G1 X122.368 Y126.224 E13.44565
G1 X123.375 Y125.402 E13.48888
G1 X124.329 Y124.521 E13.53207
G1 X125.221 Y123.585 E13.57507
G1 X125.569 Y123.4 E13.58818
G1 X135.388 Y123.4 E13.91476
G1 X135.388 Y121.6 E13.97463
G1 X127.904 Y121.6 E14.22355
G1 X127.672 Y121.554 E14.23142
G1 X127.4 Y121.327 E14.2432
G1 X127.306 Y121.049 E14.25296
G1 X127.351 Y120.764 E14.26256
G1 X128.137 Y119.343 E14.31657
G1 X128.566 Y118.461 E14.34919
G1 X129.042 Y117.322 E14.39025
G1 X129.458 Y116.136 E14.43205
G1 X129.799 Y114.928 E14.4738
G1 X129.903 Y114.483 E14.489
G1 X130.063 Y113.712 E14.51519
G1 X130.143 Y113.231 E14.53141
G1 X130.253 Y112.473 E14.55688
G1 X130.31 Y111.926 E14.57518
G1 X130.34 Y111.435 E14.59154
G1 X130.365 Y111.243 E14.59798
G1 X130.392 Y110.628 E14.61845
G1 X130.403 Y109.981 E14.63997
G1 X130.392 Y109.359 E14.66066
G1 X130.365 Y108.752 E14.68087
G1 X130.34 Y108.561 E14.68728
G1 X130.309 Y108.032 E14.7049
G1 X130.251 Y107.514 E14.72224
G1 X130.142 Y106.762 E14.74751
G1 X130.057 Y106.257 E14.76455
G1 X129.901 Y105.509 E14.78996
G1 X129.796 Y105.057 E14.80539
G1 X129.451 Y103.837 E14.84756
G1 X129.165 Y103.007 E14.87676
G1 X129.035 Y102.658 E14.88915
G1 X128.689 Y101.811 E14.91958
G1 X128.554 Y101.51 E14.93055
G1 X128.115 Y100.609 E14.96389
G1 X127.381 Y99.296 E15.01392
G1 X127.306 Y98.951 E15.02566
G1 X127.401 Y98.672 E15.03546
G1 X127.672 Y98.446 E15.0472
G1 X127.831 Y98.4 E15.05271
G1 X135.388 Y98.4 E15.30405
G1 X135.388 Y96.6 E15.36392
G1 X125.592 Y96.597 E15.68974
G1 X125.221 Y96.414 E15.7035
G1 X124.31 Y95.456 E15.74747
G1 X123.388 Y94.602 E15.78927
G1 X122.348 Y93.758 E15.83381
G1 X121.376 Y93.065 E15.87352
G1 X120.191 Y92.326 E15.91997
G1 X119.057 Y91.718 E15.96276
G1 X117.883 Y91.181 E16.0057
G1 X116.845 Y90.783 E16.04268
G1 X115.548 Y90.362 E16.08803
G1 X114.06 Y90.006 E16.13892
G1 X112.902 Y89.806 E16.178
G1 X111.631 Y89.663 E16.22054
G1 X110.59 Y89.607 E16.25522
G1 X110.32 Y89.601 E16.2642
G1 X109.355 Y89.609 E16.2963
G1 X109.026 Y89.623 E16.30725
G1 X108.086 Y89.691 E16.3386
G1 X107.735 Y89.725 E16.35033
G1 X106.453 Y89.908 E16.3934
G1 X105.589 Y90.08 E16.4227
G1 X104.345 Y90.399 E16.46541
G1 X103.947 Y90.518 E16.47923
G1 X103.149 Y90.785 E16.50722
G1 X102.786 Y90.917 E16.52006
G1 X101.971 Y91.25 E16.54935
G1 X101.512 Y91.453 E16.56604
G1 X100.812 Y91.785 E16.59181
G1 X100.33 Y92.036 E16.60988
G1 X99.701 Y92.391 E16.6339
G1 X99.248 Y92.666 E16.65153
G1 X98.606 Y93.081 E16.67696
G1 X98.169 Y93.384 E16.69464
G1 X97.586 Y93.815 E16.71876
G1 X97.135 Y94.169 E16.73783
G1 X96.61 Y94.614 E16.76072
G1 X96.163 Y95.013 E16.78064
G1 X95.666 Y95.488 E16.80351
G1 X95.22 Y95.942 E16.82468
G1 X94.795 Y96.406 E16.84561
G1 X94.416 Y96.597 E16.85972
G1 X80.608 Y96.6 E17.31898
G1 X80.608 Y123.4 E18.21035
G1 X94.441 Y123.4 E18.67044
G1 X94.795 Y123.594 E18.68386
G1 X95.244 Y124.083 E18.70594
G1 X95.679 Y124.521 E18.72648
G1 X96.164 Y124.983 E18.74875
G1 X96.608 Y125.383 E18.76863
G1 X97.145 Y125.834 E18.79195
G1 X97.576 Y126.179 E18.81032
G1 X98.177 Y126.617 E18.83505
G1 X98.618 Y126.924 E18.85292
G1 X99.257 Y127.337 E18.87823
G1 X99.728 Y127.617 E18.89645
G1 X100.384 Y127.986 E18.92149
G1 X100.814 Y128.209 E18.9376
G1 X101.578 Y128.574 E18.96576
G1 X101.971 Y128.75 E18.98008
G1 X102.807 Y129.085 E19.01004
G1 X103.161 Y129.215 E19.02258
G1 X103.959 Y129.481 E19.05056
G1 X104.357 Y129.599 E19.06436
G1 X105.204 Y129.826 E19.09353
G1 X105.601 Y129.918 E19.10708
G1 X106.47 Y130.09 E19.13655
G1 X106.834 Y130.15 E19.14882
G1 X107.746 Y130.272 E19.17942
G1 X109.037 Y130.376 E19.2225
G1 X109.326 Y130.387 E19.23212
G1 X110 Y130.393 E19.25454
G0 F6000 X110 Y129.588
G1 F1200 X109.333 Y129.587 E19.27672
G1 X108.1 Y129.508 E19.31781
G1 X106.778 Y129.329 E19.36219
G1 X105.515 Y129.076 E19.40503
G1 X104.277 Y128.74 E19.44769
G1 X103.076 Y128.328 E19.48992
G1 X101.861 Y127.822 E19.5337
G1 X100.715 Y127.255 E19.57623
G1 X100.109 Y126.91 E19.59942
G1 X99.607 Y126.607 E19.61892
G1 X99.099 Y126.275 E19.63911
G1 X98.533 Y125.887 E19.66193
G1 X98.063 Y125.531 E19.68154
G1 X97.508 Y125.091 E19.7051
G1 X97.006 Y124.658 E19.72715
G1 X96.864 Y124.467 E19.73506
G1 X96.809 Y124.096 E19.74754
G1 X96.967 Y123.681 E19.76231
G1 X97.196 Y123.475 E19.77255
G1 X97.41 Y123.4 E19.78009
G1 X122.52 Y123.4 E20.61525
G1 X122.812 Y123.475 E20.62528
G1 X123.05 Y123.689 E20.63593
G1 X123.197 Y124.142 E20.65177
G1 X123.007 Y124.653 E20.6699
G1 X122.482 Y125.101 E20.69286
G1 X121.917 Y125.552 E20.7169
G1 X121.459 Y125.896 E20.73595
G1 X120.397 Y126.613 E20.77857
G1 X119.817 Y126.955 E20.80096
G1 X119.251 Y127.274 E20.82257
G1 X118.111 Y127.839 E20.86489
G1 X116.931 Y128.329 E20.90739
G1 X115.716 Y128.743 E20.95008
G1 X114.485 Y129.077 E20.9925
G1 X113.218 Y129.33 E21.03548
G1 X111.939 Y129.5 E21.07839
G1 X110.654 Y129.588 E21.12123
G1 X110 Y129.588 E21.14298
G1 F1500 E14.64298
G0 F6000 X110 Y129.889
G0 X105.566 Y128.924
G0 X104.339 Y128.593
G0 X103.125 Y128.177
G0 X101.951 Y127.688
G0 X100.811 Y127.122
G0 X99.187 Y126.14
G0 X97.625 Y124.979
G0 X96.665 Y124.127
G0 X96.876 Y123.568
G0 X108.975 Y122.8
G0 X108.753 Y122.147
G0 X108.975 Y121.9
G0 X108.975 Y121.883
