;FLAVOR:Marlin
;TIME:2322
;Filament used: 1.18143m
;Layer height: 0.16
;MINX:89.2
;MINY:102.7
;MINZ:0.2
;MAXX:130.8
;MAXY:141.396
;MAXZ:4.96
;TARGET_MACHINE.NAME:Creality Ender-3 Pro
;Generated with Cura_SteamEngine 5.8.1
M82 ;absolute extrusion mode
; Ender 3 Custom Start G-code
G92 E0 ; Reset Extruder
G28 ; Home all axes
G1 Z5.0 F3000 ; Move Z Axis up a bit during heating to not damage bed
M104 S175 ; Start heating up the nozzle most of the way
M190 S67.0 ; Start heating the bed, wait until target temperature reached
M109 S215.0 ; Finish heating the nozzle
G1 Z2.0 F3000 ; Move Z Axis up little to prevent scratching of Heat Bed
G29;
G1 X0.1 Y20 Z0.3 F5000.0 ; Move to start position
G1 X0.1 Y200.0 Z0.3 F1500.0 E15 ; Draw the first line
G1 X0.4 Y200.0 Z0.3 F5000.0 ; Move to side a little
G1 X0.4 Y20 Z0.3 F1500.0 E30 ; Draw the second line
G92 E0 ; Reset Extruder
G1 Z2.0 F3000 ; Move Z Axis up little to prevent scratching of Heat Bed
G1 X5 Y20 Z0.3 F5000.0 ; Move over to prevent blob squish
G92 E0
G92 E0
G1 F1500 E-6.5
;LAYER_COUNT:27
;LAYER:0
M107
;MESH:aligner v1.stl
G0 F6000 X96.476 Y112.296 Z0.2
;TYPE:WALL-INNER
G1 F1500 E0
G1 F1200 X96.09 Y112.282 E0.01285
G1 X95.68 Y112.188 E0.02684
G1 X95.308 Y112.026 E0.04033
G1 X94.952 Y111.787 E0.05459
G1 X94.68 Y111.529 E0.06706
G1 X94.424 Y111.184 E0.08135
G1 X94.243 Y110.807 E0.09526
G1 X94.136 Y110.408 E0.109
G1 X94.1 Y110 E0.12262
G1 X94.134 Y109.583 E0.13654
G1 X94.243 Y109.194 E0.14998
G1 X94.421 Y108.821 E0.16372
G1 X94.662 Y108.481 E0.17758
G1 X94.955 Y108.211 E0.19084
G1 X95.304 Y107.972 E0.2049
G1 X95.685 Y107.806 E0.21873
G1 X96.064 Y107.725 E0.23162
G1 X96.476 Y107.7 E0.24535
G1 X96.902 Y107.751 E0.25962
G1 X97.269 Y107.87 E0.27245
G1 X97.662 Y108.07 E0.28711
G1 X97.985 Y108.324 E0.30078
G1 X98.265 Y108.647 E0.315
G1 X98.48 Y109.006 E0.32892
G1 F1188.1 X98.63 Y109.436 E0.34421
G1 F1126.8 X98.704 Y109.733 E0.35506
G1 F1090.9 X98.706 Y110.225 E0.37306
G1 F1145.6 X98.6 Y110.659 E0.38862
G1 F1200 X98.476 Y110.999 E0.40066
G1 X98.264 Y111.349 E0.41427
G1 X97.991 Y111.665 E0.42816
G1 X97.663 Y111.926 E0.4421
G1 X97.269 Y112.126 E0.4568
G1 X96.876 Y112.248 E0.47048
G1 X96.476 Y112.296 E0.48388
G0 F6000 X96.463 Y112.598
G0 X98.376 Y112.077
G0 X98.798 Y111.62
G0 X100.05 Y113.384
G0 X100.881 Y114.26
G0 X101.882 Y114.94
G0 X103.005 Y115.387
G0 X104.197 Y115.582
G0 X105.403 Y115.517
G0 X106.568 Y115.194
G0 X107.638 Y114.628
G0 X108.559 Y113.845
G0 X109.291 Y112.882
G0 X109.701 Y111.994
G0 X109.98 Y110.989
G0 X109.922 Y110.234
G1 F830.4 X109.925 Y109.721 E0.50854
G0 F6000 X109.98 Y109.011
G0 X110.243 Y108.506
G0 X110.542 Y108.163
G0 X110.899 Y107.877
G0 X111.302 Y107.662
G0 X111.735 Y107.521
G0 X112.186 Y107.461
G0 X112.64 Y107.48
G0 X113.085 Y107.581
G0 X113.505 Y107.761
G0 X113.886 Y108.013
G0 X114.215 Y108.328
G0 X114.482 Y108.695
G0 X114.681 Y109.106
G0 X114.802 Y109.546
G0 X114.843 Y110
G0 X114.802 Y110.454
G0 X114.681 Y110.894
G0 X114.482 Y111.305
G0 X114.215 Y111.672
G0 X113.886 Y111.987
G0 X113.505 Y112.239
G0 X113.085 Y112.419
G0 X112.64 Y112.52
G0 X112.186 Y112.539
G0 X111.735 Y112.479
G0 X111.489 Y112.399
G0 X110 Y111.643
G1 F1200 X109.927 Y111.896 E0.5173
G1 X109.708 Y112.43 E0.53649
G1 X109.44 Y112.939 E0.55563
G1 X109.108 Y113.434 E0.57545
G1 X108.712 Y113.911 E0.59607
G1 X108.174 Y114.421 E0.62073
G1 X107.774 Y114.725 E0.63744
G1 X107.234 Y115.055 E0.65848
G1 X106.685 Y115.318 E0.67873
G1 X106.078 Y115.526 E0.70007
G1 X105.441 Y115.67 E0.72179
G1 X104.865 Y115.735 E0.74107
G1 X104.131 Y115.735 E0.76549
G1 X103.619 Y115.68 E0.78261
G1 X103.019 Y115.554 E0.803
G1 X102.364 Y115.343 E0.82589
G1 X101.762 Y115.055 E0.84809
G1 X101.314 Y114.787 E0.86545
G1 X100.822 Y114.421 E0.88585
G1 X100.284 Y113.911 E0.9105
G1 X99.888 Y113.434 E0.93112
G1 X99.584 Y112.986 E0.94913
G1 X99.257 Y112.36 E0.97262
G1 X99.069 Y111.896 E0.98927
G1 X98.855 Y111.143 E1.01531
G1 X98.594 Y111.58 E1.03224
G1 X98.262 Y111.962 E1.04907
G1 X97.893 Y112.254 E1.06472
G1 X97.467 Y112.482 E1.08079
G1 X96.999 Y112.635 E1.09717
G1 X96.529 Y112.698 E1.11294
G1 X96.04 Y112.681 E1.12922
G1 X95.555 Y112.57 E1.14576
G1 X95.111 Y112.375 E1.16189
G1 X94.694 Y112.093 E1.17864
G1 X94.352 Y111.769 E1.1943
G1 X94.074 Y111.381 E1.21018
G1 X93.865 Y110.944 E1.22629
G1 X93.742 Y110.477 E1.24235
G1 X93.7 Y110 E1.25828
G1 X93.739 Y109.514 E1.2745
G1 X93.868 Y109.049 E1.29055
G1 X94.076 Y108.616 E1.30652
G1 X94.363 Y108.221 E1.32276
G1 X94.698 Y107.904 E1.3381
G1 X95.102 Y107.624 E1.35445
G1 X95.563 Y107.423 E1.37118
G1 X96.045 Y107.32 E1.38757
G1 X96.532 Y107.297 E1.40379
G1 X96.996 Y107.36 E1.41936
G1 X97.467 Y107.514 E1.43584
G1 X97.893 Y107.742 E1.45191
G1 X98.269 Y108.04 E1.46787
G1 X98.598 Y108.422 E1.48464
G1 X98.854 Y108.861 E1.50154
G1 X99.043 Y108.165 E1.52553
G1 X99.257 Y107.636 E1.54451
G1 X99.584 Y107.01 E1.568
G1 X99.956 Y106.473 E1.58973
G1 X100.356 Y106.013 E1.61
G1 X100.822 Y105.575 E1.63127
G1 X101.314 Y105.209 E1.65167
G1 X101.851 Y104.894 E1.67238
G1 X102.421 Y104.634 E1.69321
G1 X102.918 Y104.47 E1.71062
G1 X103.555 Y104.326 E1.73234
G1 X104.131 Y104.261 E1.75162
G1 X104.865 Y104.261 E1.77603
G1 X105.377 Y104.317 E1.79316
G1 X106.078 Y104.47 E1.81703
G1 X106.575 Y104.634 E1.83444
G1 X107.145 Y104.894 E1.85527
G1 X107.682 Y105.209 E1.87598
G1 X108.174 Y105.575 E1.89638
G1 X108.64 Y106.013 E1.91765
G1 X109.108 Y106.562 E1.94164
G1 X109.454 Y107.082 E1.96241
G1 X109.708 Y107.566 E1.98059
G1 X109.928 Y108.1 E1.9998
G1 X110.04 Y108.491 E2.01333
G1 X110.431 Y108.04 E2.03318
G1 X110.81 Y107.739 E2.04928
G1 X111.229 Y107.518 E2.06504
G1 X111.692 Y107.362 E2.08129
G1 X112.164 Y107.297 E2.09713
G1 X112.661 Y107.321 E2.11368
G1 X113.135 Y107.423 E2.12981
G1 X113.588 Y107.622 E2.14627
G1 X113.977 Y107.883 E2.16185
G1 X114.337 Y108.218 E2.1782
G1 X114.617 Y108.613 E2.19431
G1 X114.832 Y109.047 E2.21042
G1 X114.956 Y109.509 E2.22633
G1 X115.005 Y109.994 E2.24254
G1 X114.956 Y110.487 E2.25902
G1 X114.833 Y110.952 E2.27501
G1 X114.617 Y111.39 E2.29126
G1 X114.339 Y111.776 E2.30708
G1 X113.98 Y112.116 E2.32352
G1 X113.584 Y112.376 E2.33928
G1 X113.14 Y112.57 E2.3554
G1 X112.646 Y112.681 E2.37224
G1 X112.16 Y112.698 E2.38841
G1 X111.696 Y112.635 E2.40399
G1 X111.229 Y112.478 E2.42037
G1 X110.81 Y112.257 E2.43613
G1 X110.431 Y111.956 E2.45223
G1 X110.04 Y111.505 E2.47208
G1 X110 Y111.643 E2.47686
G0 F6000 X109.98 Y110.989
G0 X110 Y110.418
G1 F905.7 X109.922 Y110.234 E2.48566
G1 F985.6 X109.812 Y110.61 E2.50153
G1 F1200 X109.725 Y111.137 E2.51929
G1 X109.556 Y111.746 E2.54031
G1 X109.35 Y112.252 E2.55849
G1 X109.065 Y112.786 E2.57862
G1 X108.777 Y113.21 E2.59567
G1 X108.361 Y113.7 E2.61704
G1 X107.932 Y114.102 E2.6366
G1 X107.476 Y114.444 E2.65556
G1 X106.976 Y114.74 E2.67488
G1 X106.449 Y114.982 E2.69417
G1 X105.892 Y115.163 E2.71365
G1 X105.372 Y115.276 E2.73135
G1 X104.822 Y115.337 E2.74975
G1 X104.174 Y115.337 E2.77131
G1 X103.662 Y115.282 E2.78843
G1 X103.104 Y115.163 E2.80741
G1 X102.481 Y114.956 E2.82924
G1 X102.021 Y114.74 E2.84615
G1 X101.519 Y114.443 E2.86555
G1 X101.064 Y114.102 E2.88446
G1 X100.635 Y113.7 E2.90401
G1 X100.219 Y113.21 E2.92539
G1 X99.921 Y112.771 E2.94304
G1 X99.627 Y112.21 E2.9641
G1 X99.44 Y111.746 E2.98074
G1 X99.278 Y111.168 E3.00071
G1 F1188.1 X99.173 Y110.546 E3.0219
G1 F1134.8 X99.141 Y110.239 E3.03276
G1 F1108.5 X99.134 Y109.966 E3.04259
G1 F1103.4 X99.141 Y109.705 E3.05203
G1 F1126.8 X99.175 Y109.416 E3.06234
G1 F1188.1 X99.28 Y108.818 E3.08274
G1 F1200 X99.44 Y108.25 E3.10236
G1 X99.627 Y107.786 E3.119
G1 X99.931 Y107.21 E3.14066
G1 X100.219 Y106.786 E3.15771
G1 X100.632 Y106.302 E3.17887
G1 X101.064 Y105.894 E3.19864
G1 X101.519 Y105.553 E3.21755
G1 X102.021 Y105.256 E3.23695
G1 X102.547 Y105.014 E3.25621
G1 X103.104 Y104.833 E3.27569
G1 X103.624 Y104.72 E3.29338
G1 X104.174 Y104.659 E3.31179
G1 X104.822 Y104.659 E3.33334
G1 X105.396 Y104.725 E3.35256
G1 X105.892 Y104.833 E3.36944
G1 X106.449 Y105.014 E3.38892
G1 X106.975 Y105.256 E3.40818
G1 X107.477 Y105.553 E3.42758
G1 X107.984 Y105.938 E3.44875
G1 X108.364 Y106.302 E3.46626
G1 X108.777 Y106.786 E3.48742
G1 X109.1 Y107.268 E3.50672
G1 X109.35 Y107.744 E3.5246
G1 X109.557 Y108.25 E3.54278
G1 X109.729 Y108.878 E3.56444
G1 X109.8 Y109.308 E3.57893
G1 F977.6 X109.925 Y109.721 E3.59655
G1 X110.098 Y109.337 E3.61375
G1 F1200 X110.243 Y108.967 E3.62696
G1 X110.438 Y108.643 E3.63954
G1 X110.709 Y108.33 E3.65331
G1 X111.03 Y108.075 E3.66695
G1 X111.389 Y107.885 E3.68046
G1 X111.82 Y107.748 E3.6955
G1 X112.197 Y107.697 E3.70815
G1 X112.56 Y107.716 E3.72024
G1 X113.006 Y107.804 E3.73536
G1 X113.395 Y107.973 E3.74947
G1 X113.765 Y108.232 E3.76449
G1 X114.039 Y108.486 E3.77692
G1 X114.295 Y108.862 E3.79205
G1 X114.458 Y109.192 E3.80429
G1 X114.567 Y109.61 E3.81865
G1 X114.601 Y109.999 E3.83164
G1 X114.567 Y110.387 E3.8446
G1 X114.457 Y110.81 E3.85913
G1 X114.273 Y111.182 E3.87294
G1 X114.035 Y111.512 E3.88647
G1 X113.729 Y111.802 E3.90049
G1 X113.385 Y112.027 E3.91416
G1 X113.015 Y112.188 E3.92758
G1 X112.632 Y112.275 E3.94065
G1 X112.22 Y112.296 E3.95437
G1 X111.792 Y112.245 E3.9687
G1 X111.389 Y112.111 E3.98283
G1 X111.03 Y111.921 E3.99634
G1 X110.709 Y111.666 E4.00997
G1 X110.438 Y111.353 E4.02374
G1 X110.243 Y111.029 E4.03632
G1 X110.077 Y110.599 E4.05165
G1 F1081.1 X110 Y110.418 E4.05891
G1 F1500 E-2.44109
G0 F6000 X109.98 Y110.989
G0 X109.257 Y113.536
G0 X109.255 Y116.317
G0 X110 Y116.498
G1 F1500 E4.05891
G1 F1200 X125 Y116.499 E4.55782
G1 X125.006 Y111.98 E4.70812
G1 X125.044 Y111.796 E4.71437
G1 X125.188 Y111.507 E4.72511
G1 X125.429 Y111.27 E4.73635
G1 X125.672 Y111.147 E4.74541
G1 X125.912 Y111.095 E4.75358
G1 X130 Y111.092 E4.88954
G1 X130 Y108.904 E4.96232
G1 X125.912 Y108.901 E5.09828
G1 X125.672 Y108.849 E5.10645
G1 X125.429 Y108.726 E5.11551
G1 X125.188 Y108.489 E5.12675
G1 X125.075 Y108.285 E5.13451
G1 X125 Y107.904 E5.14742
G1 X125 Y103.5 E5.2939
G1 X93.035 Y103.501 E6.35706
G1 X92.664 Y103.52 E6.36942
G1 X92.334 Y103.577 E6.38056
G1 X91.989 Y103.675 E6.39248
G1 X91.699 Y103.795 E6.40292
G1 X91.415 Y103.951 E6.4137
G1 X91.129 Y104.157 E6.42542
G1 X90.88 Y104.38 E6.43654
G1 X90.657 Y104.628 E6.44763
G1 X90.452 Y104.915 E6.45936
G1 X90.295 Y105.199 E6.47016
G1 X90.175 Y105.489 E6.4806
G1 X90.077 Y105.835 E6.49256
G1 X90.02 Y106.166 E6.50373
G1 X90 Y106.516 E6.51539
G1 X90 Y113.461 E6.74638
G1 X90.02 Y113.832 E6.75874
G1 X90.077 Y114.165 E6.76997
G1 X90.174 Y114.506 E6.78177
G1 X90.295 Y114.797 E6.79225
G1 X90.452 Y115.081 E6.80304
G1 X90.659 Y115.37 E6.81486
G1 X90.883 Y115.621 E6.82605
G1 X91.126 Y115.841 E6.83696
G1 X91.412 Y116.043 E6.8486
G1 X91.699 Y116.201 E6.8595
G1 X91.993 Y116.323 E6.87009
G1 X92.334 Y116.423 E6.88191
G1 X92.661 Y116.476 E6.89292
G1 X93.016 Y116.496 E6.90475
G1 X110 Y116.498 E7.46964
G0 F6000 X110 Y116.898
G1 F1200 X125.4 Y116.899 E7.98185
G1 X125.403 Y112.025 E8.14396
G1 X125.513 Y111.741 E8.15408
G1 X125.657 Y111.599 E8.16081
G1 X125.947 Y111.494 E8.17107
G1 X130.4 Y111.492 E8.31918
G1 X130.4 Y108.504 E8.41856
G1 X125.947 Y108.502 E8.56667
G1 X125.803 Y108.471 E8.57156
G1 X125.567 Y108.32 E8.58088
G1 X125.459 Y108.164 E8.58719
G1 X125.403 Y107.972 E8.59385
G1 X125.4 Y103.1 E8.75589
G1 X93.024 Y103.101 E9.83272
G1 X92.62 Y103.122 E9.84617
G1 X92.246 Y103.187 E9.8588
G1 X91.858 Y103.296 E9.87221
G1 X91.525 Y103.434 E9.88419
G1 X91.201 Y103.613 E9.89651
G1 X90.877 Y103.845 E9.90976
G1 X90.597 Y104.097 E9.92229
G1 X90.345 Y104.377 E9.93482
G1 X90.113 Y104.701 E9.94807
G1 X89.934 Y105.025 E9.96038
G1 X89.796 Y105.358 E9.97237
G1 X89.686 Y105.746 E9.98579
G1 X89.622 Y106.12 E9.99841
G1 X89.6 Y106.505 E10.01123
G1 X89.6 Y113.472 E10.24296
G1 X89.622 Y113.877 E10.25645
G1 X89.686 Y114.254 E10.26916
G1 X89.796 Y114.638 E10.28245
G1 X89.934 Y114.971 E10.29444
G1 X90.113 Y115.295 E10.30675
G1 X90.346 Y115.62 E10.32005
G1 X90.599 Y115.904 E10.3327
G1 X90.876 Y116.154 E10.34511
G1 X91.199 Y116.382 E10.35826
G1 X91.525 Y116.562 E10.37065
G1 X91.86 Y116.701 E10.38271
G1 X92.245 Y116.813 E10.39605
G1 X92.618 Y116.874 E10.40862
G1 X93.005 Y116.896 E10.42151
G1 X110 Y116.898 E10.98677
G0 F6000 X110 Y117.298
;TYPE:WALL-OUTER
G1 F1200 X125.8 Y117.299 E11.51228
G1 X125.802 Y112.06 E11.68653
G1 X125.885 Y111.927 E11.69174
G1 X125.982 Y111.892 E11.69517
G1 X130.8 Y111.892 E11.85542
G1 X130.8 Y108.104 E11.98141
G1 X125.982 Y108.104 E12.14165
G1 X125.885 Y108.069 E12.14508
G1 X125.801 Y107.927 E12.15057
G1 X125.8 Y102.7 E12.32442
G1 X93.014 Y102.701 E13.41489
G1 X92.575 Y102.724 E13.42951
G1 X92.157 Y102.796 E13.44362
G1 X91.726 Y102.918 E13.45852
G1 X91.351 Y103.073 E13.47201
G1 X90.987 Y103.274 E13.48584
G1 X90.626 Y103.533 E13.50062
G1 X90.314 Y103.814 E13.51458
G1 X90.033 Y104.126 E13.52855
G1 X89.774 Y104.487 E13.54333
G1 X89.573 Y104.851 E13.55716
G1 X89.418 Y105.226 E13.57065
G1 X89.296 Y105.657 E13.58555
G1 X89.224 Y106.075 E13.59966
G1 X89.2 Y106.494 E13.61362
G1 X89.2 Y113.482 E13.84604
G1 X89.224 Y113.921 E13.86066
G1 X89.296 Y114.343 E13.8749
G1 X89.418 Y114.77 E13.88967
G1 X89.573 Y115.145 E13.90317
G1 X89.774 Y115.509 E13.917
G1 X90.033 Y115.87 E13.93178
G1 X90.315 Y116.186 E13.94586
G1 X90.626 Y116.467 E13.9598
G1 X90.987 Y116.722 E13.9745
G1 X91.351 Y116.923 E13.98833
G1 X91.727 Y117.079 E14.00187
G1 X92.157 Y117.204 E14.01677
G1 X92.574 Y117.272 E14.03082
G1 X92.994 Y117.296 E14.04481
G1 X110 Y117.298 E14.61043
G1 F1500 E8.11043
G0 F6000 X110.001 Y116.6
G0 X104.851 Y116.317
G0 X104.848 Y115.934
G0 X104.853 Y115.638
G0 X104.778 Y114.939
G1 F1500 E14.61043
G1 F1200 X104.218 Y114.939 E14.62906
G1 X103.706 Y114.884 E14.64619
G1 X103.189 Y114.772 E14.66378
G1 X102.651 Y114.594 E14.68263
G1 X102.191 Y114.378 E14.69953
G1 X101.707 Y114.088 E14.7183
G1 X101.306 Y113.784 E14.73503
G1 X100.895 Y113.394 E14.75388
G1 X100.55 Y112.985 E14.77168
G1 X100.25 Y112.542 E14.78947
G1 X99.998 Y112.06 E14.80756
G1 X99.81 Y111.596 E14.82421
G1 X99.662 Y111.053 E14.84293
G1 X99.577 Y110.536 E14.86036
G1 X99.548 Y109.989 E14.87858
G1 X99.578 Y109.451 E14.8965
G1 X99.666 Y108.923 E14.9143
G1 X99.81 Y108.4 E14.93234
G1 X99.998 Y107.936 E14.94899
G1 X100.25 Y107.454 E14.96709
G1 X100.564 Y106.993 E14.98564
G1 X100.909 Y106.591 E15.00326
G1 X101.306 Y106.212 E15.02151
G1 X101.725 Y105.896 E15.03897
G1 X102.191 Y105.618 E15.05701
G1 X102.673 Y105.394 E15.07469
G1 X103.189 Y105.224 E15.09276
G1 X103.693 Y105.114 E15.10992
G1 X104.218 Y105.057 E15.12748
G1 X104.778 Y105.057 E15.14611
G1 X105.311 Y105.116 E15.16395
G1 X105.807 Y105.224 E15.18083
G1 X106.345 Y105.403 E15.19969
G1 X106.805 Y105.618 E15.21658
G1 X107.289 Y105.908 E15.23534
G1 X107.69 Y106.212 E15.25208
G1 X108.087 Y106.591 E15.27033
G1 X108.446 Y107.011 E15.28871
G1 X108.746 Y107.454 E15.30651
G1 X108.992 Y107.922 E15.32409
G1 X109.186 Y108.4 E15.34125
G1 X109.334 Y108.943 E15.35997
G1 X109.42 Y109.464 E15.37753
G1 X109.448 Y110.011 E15.39575
G1 X109.418 Y110.545 E15.41354
G1 X109.333 Y111.059 E15.43086
G1 X109.186 Y111.596 E15.44938
G1 X108.992 Y112.074 E15.46654
G1 X108.743 Y112.547 E15.48432
G1 X108.433 Y113.002 E15.50263
G1 X108.086 Y113.41 E15.52045
G1 X107.69 Y113.784 E15.53856
G1 X107.29 Y114.088 E15.55527
G1 X106.806 Y114.378 E15.57404
G1 X106.345 Y114.594 E15.59097
G1 X105.807 Y114.772 E15.60982
G1 X105.303 Y114.882 E15.62698
G1 X104.778 Y114.939 E15.64454
G1 F1500 E9.14454
G0 F6000 X104.853 Y115.638
G0 X105.995 Y115.387
G0 X107.118 Y114.94
G0 X109.241 Y113.524
G0 X110.124 Y111.875
G0 X112.099 Y112.588
G0 X112.193 Y111.895
G1 F1500 E15.64454
G1 F1200 X111.862 Y111.847 E15.65567
