;FLAVOR:Marlin
;TIME:2906
;Filament used: 1.19403m
;Layer height: 0.16
;MINX:85.7
;MINY:104.2
;MINZ:0.2
;MAXX:134.3
;MAXY:115.8
;MAXZ:20.12
;TARGET_MACHINE.NAME:Creality Ender-3 Pro
;Generated with Cura_SteamEngine 5.8.1
M82 ;absolute extrusion mode
; Ender 3 Custom Start G-code
G92 E0 ; Reset Extruder
G28 ; Home all axes
G1 Z5.0 F3000 ; Move Z Axis up a bit during heating to not damage bed
M104 S175 ; Start heating up the nozzle most of the way
M190 S67.0 ; Start heating the bed, wait until target temperature reached
M109 S215.0 ; Finish heating the nozzle
G1 Z2.0 F3000 ; Move Z Axis up little to prevent scratching of Heat Bed
G29;
G1 X0.1 Y20 Z0.3 F5000.0 ; Move to start position
G1 X0.1 Y200.0 Z0.3 F1500.0 E15 ; Draw the first line
G1 X0.4 Y200.0 Z0.3 F5000.0 ; Move to side a little
G1 X0.4 Y20 Z0.3 F1500.0 E30 ; Draw the second line
G92 E0 ; Reset Extruder
G1 Z2.0 F3000 ; Move Z Axis up little to prevent scratching of Heat Bed
G1 X5 Y20 Z0.3 F5000.0 ; Move over to prevent blob squish
G92 E0
G92 E0
G1 F1500 E-6.5
;LAYER_COUNT:137
;LAYER:0
M107
;MESH:tube1 v0.stl
G0 F6000 X86.566 Y109.571 Z0.2
;TYPE:WALL-INNER
G1 F1500 E0
G1 F1045.8 X86.548 Y110 E0.01639
G1 F1032.3 X86.571 Y110.508 E0.03605
G0 F6000 X87.154 Y111.413
G0 X87.471 Y111.799
G0 X87.855 Y112.114
G0 X88.297 Y112.35
G0 X88.684 Y112.467
G0 X89.74 Y112.557
G0 X89.711 Y112.261
G1 F1200 X89.268 Y112.3 E0.05084
G1 X88.824 Y112.261 E0.06567
G1 X88.406 Y112.131 E0.08022
G1 X87.99 Y111.916 E0.0958
G1 X87.642 Y111.628 E0.11082
G1 X87.35 Y111.276 E0.12604
G1 X87.139 Y110.88 E0.14096
G1 X87.007 Y110.44 E0.15624
G1 X86.968 Y110 E0.17093
G1 X87.007 Y109.559 E0.18565
G1 X87.137 Y109.119 E0.20091
G1 X87.351 Y108.72 E0.21597
G1 X87.642 Y108.368 E0.23116
G1 X87.988 Y108.083 E0.24607
G1 X88.383 Y107.871 E0.26098
G1 X88.822 Y107.736 E0.27626
G1 X89.27 Y107.692 E0.29123
G1 X89.715 Y107.741 E0.30612
G1 X90.147 Y107.871 E0.32113
G1 X90.549 Y108.084 E0.33626
G1 X90.9 Y108.37 E0.35132
G1 X91.177 Y108.714 E0.36601
G1 X91.395 Y109.12 E0.38133
G1 X91.528 Y109.554 E0.39643
G1 X91.571 Y109.995 E0.41117
G1 X91.528 Y110.449 E0.42634
G1 X91.392 Y110.886 E0.44156
G1 X91.175 Y111.284 E0.45664
G1 X90.901 Y111.625 E0.47119
G1 X90.55 Y111.915 E0.48633
G1 X90.148 Y112.124 E0.5014
G1 X89.711 Y112.261 E0.51663
G1 F1500 E-5.98337
G0 F6000 X89.74 Y112.557
G0 X91.67 Y111.624
G0 X94.272 Y111.756
G0 X95.677 Y112.793
G0 X96.174 Y113.062
G0 X97.787 Y113.493
G1 F1500 E0.51663
G1 F1200 X97.224 Y113.487 E0.53536
G1 X96.662 Y113.4 E0.55427
G1 X96.11 Y113.212 E0.57367
G1 X95.582 Y112.925 E0.59366
G1 X95.134 Y112.572 E0.61263
G1 X94.734 Y112.139 E0.63223
G1 X94.431 Y111.67 E0.6508
G1 X94.193 Y111.127 E0.67052
G1 X94.053 Y110.562 E0.68988
G1 X94.003 Y109.978 E0.70938
G1 X94.054 Y109.427 E0.72778
G1 X94.195 Y108.867 E0.74699
G1 X94.428 Y108.34 E0.76615
G1 X94.737 Y107.855 E0.78528
G1 X95.127 Y107.431 E0.80444
G1 X95.578 Y107.073 E0.82359
G1 X96.112 Y106.783 E0.8438
G1 X96.662 Y106.596 E0.86313
G1 X97.229 Y106.508 E0.88221
G1 X97.791 Y106.508 E0.9009
G1 X98.361 Y106.597 E0.92009
G1 X98.913 Y106.79 E0.93954
G1 X99.432 Y107.069 E0.95914
G1 X99.89 Y107.426 E0.97845
G1 X100.27 Y107.847 E0.99732
G1 X100.59 Y108.318 E1.01625
G1 X100.816 Y108.854 E1.0356
G1 X100.967 Y109.418 E1.05502
G1 X101.012 Y110 E1.07444
G1 X100.962 Y110.581 E1.09383
G1 X100.824 Y111.147 E1.11321
G1 X100.59 Y111.676 E1.13245
G1 X100.274 Y112.152 E1.15145
G1 X99.882 Y112.576 E1.17066
G1 X99.431 Y112.931 E1.18975
G1 X98.91 Y113.212 E1.20943
G1 X98.362 Y113.399 E1.22869
G1 X97.787 Y113.493 E1.24807
G0 F6000 X97.75 Y113.093
G1 F1200 X97.219 Y113.081 E1.26574
G1 X96.763 Y113.011 E1.28108
G1 X96.272 Y112.845 E1.29832
G1 X95.805 Y112.592 E1.31599
G1 X95.404 Y112.277 E1.33295
G1 X95.026 Y111.854 E1.35181
G1 X94.783 Y111.481 E1.36662
G1 X94.571 Y110.992 E1.38435
G1 X94.446 Y110.457 E1.40262
G1 X94.405 Y109.987 E1.41831
G1 X94.446 Y109.538 E1.43331
G1 X94.573 Y109.003 E1.4516
G1 X94.78 Y108.53 E1.46877
G1 X95.059 Y108.095 E1.48596
G1 X95.37 Y107.757 E1.50123
G1 X95.801 Y107.406 E1.51972
G1 X96.272 Y107.151 E1.53754
G1 X96.757 Y106.987 E1.55456
G1 X97.219 Y106.915 E1.57012
G1 X97.752 Y106.907 E1.58785
G1 X98.27 Y106.988 E1.60528
G1 X98.707 Y107.141 E1.62068
G1 X99.205 Y107.4 E1.63935
G1 X99.615 Y107.719 E1.65663
G1 X99.925 Y108.06 E1.67196
G1 X100.237 Y108.508 E1.69012
G1 X100.448 Y109.025 E1.70869
G1 X100.57 Y109.479 E1.72433
G1 X100.612 Y110 E1.74171
G1 X100.568 Y110.512 E1.7588
G1 X100.445 Y111.017 E1.77609
G1 X100.214 Y111.519 E1.79447
G1 X99.929 Y111.936 E1.81127
G1 X99.572 Y112.312 E1.82851
G1 X99.211 Y112.596 E1.84379
G1 X98.744 Y112.847 E1.86142
G1 X98.224 Y113.016 E1.87961
G1 X97.75 Y113.093 E1.89558
G1 F1500 E-4.60442
G0 F6000 X97.749 Y113.391
G0 X98.401 Y113.575
G0 X98.401 Y114.8
G0 X102.528 Y115
G1 F1500 E1.89558
G1 F1200 X102.528 Y105.003 E2.22808
G1 X86.529 Y105.001 E2.76021
G1 X86.529 Y109.034 E2.89435
G1 F1142.9 X86.564 Y109.547 E2.91231
G1 F1118.9 X86.781 Y108.938 E2.93537
G1 F1159.4 X87.018 Y108.494 E2.95269
G1 F1188.1 X87.358 Y108.084 E2.97059
G1 F1200 X87.773 Y107.741 E2.98849
G1 X88.265 Y107.491 E3.00685
G1 X88.722 Y107.348 E3.02278
G1 X89.264 Y107.29 E3.04091
G1 X89.791 Y107.346 E3.05853
G1 X90.301 Y107.499 E3.07624
G1 X90.773 Y107.751 E3.09404
G1 X91.187 Y108.087 E3.11177
G1 X91.507 Y108.489 E3.12886
G1 X91.763 Y108.958 E3.14663
G1 X91.922 Y109.474 E3.16459
G1 X91.973 Y109.989 E3.18181
G1 X91.922 Y110.526 E3.19975
G1 X91.761 Y111.046 E3.21785
G1 X91.505 Y111.511 E3.23551
G1 X91.19 Y111.905 E3.25228
G1 X90.771 Y112.252 E3.27038
G1 X90.301 Y112.496 E3.28799
G1 X89.812 Y112.649 E3.30503
G1 X89.268 Y112.7 E3.32321
G1 X88.748 Y112.656 E3.34056
G1 X88.266 Y112.506 E3.35735
G1 X87.773 Y112.255 E3.37575
G1 X87.358 Y111.912 E3.39366
G1 X87.018 Y111.502 E3.41138
G1 X86.814 Y111.12 E3.42578
G1 F1078.7 X86.571 Y110.508 E3.45015
G1 X86.528 Y110.966 E3.46717
G1 F1200 X86.528 Y115 E3.60134
G1 X102.528 Y115 E4.1335
G0 F6000 X102.928 Y115.4
G1 F1200 X102.928 Y104.602 E4.49264
G1 X86.129 Y104.601 E5.05138
G1 X86.128 Y115.4 E5.41056
G1 X102.928 Y115.4 E5.96933
G0 F6000 X103.328 Y115.8
;TYPE:WALL-OUTER
G1 F1200 X103.328 Y104.201 E6.35511
G1 X85.729 Y104.201 E6.94046
G1 X85.728 Y115.8 E7.32624
G1 X103.328 Y115.8 E7.91162
G1 F1500 E1.41162
G0 F6000 X103.06 Y115.53
G0 X97.851 Y114.8
G0 X97.799 Y113.674
G0 X97.851 Y113.38
G0 X97.741 Y112.69
G1 F1500 E7.91162
G1 F1200 X97.281 Y112.686 E7.92692
G1 X96.835 Y112.614 E7.94194
G1 X96.447 Y112.482 E7.95558
G1 X96.012 Y112.246 E7.97204
G1 X95.692 Y111.994 E7.98558
G1 X95.36 Y111.634 E8.00187
G1 X95.135 Y111.291 E8.01552
G1 X94.949 Y110.853 E8.03134
G1 X94.844 Y110.422 E8.0461
G1 X94.808 Y109.967 E8.06128
G1 X94.844 Y109.574 E8.0744
G1 X94.95 Y109.146 E8.08907
G1 X95.132 Y108.72 E8.10448
G1 X95.388 Y108.328 E8.12005
G1 X95.664 Y108.028 E8.13361
G1 X96.011 Y107.751 E8.14837
G1 X96.447 Y107.514 E8.16488
G1 X96.835 Y107.382 E8.17851
G1 X97.281 Y107.31 E8.19354
G1 X97.739 Y107.31 E8.20877
G1 X98.187 Y107.383 E8.22387
G1 X98.603 Y107.531 E8.23855
G1 X98.975 Y107.731 E8.2526
G1 X99.353 Y108.025 E8.26853
G1 X99.629 Y108.329 E8.28219
G1 X99.893 Y108.722 E8.29793
G1 X100.062 Y109.128 E8.31256
G1 X100.176 Y109.566 E8.32761
G1 X100.212 Y110.018 E8.34269
G1 X100.174 Y110.443 E8.35688
G1 X100.06 Y110.897 E8.37245
G1 X99.88 Y111.299 E8.3871
G1 X99.635 Y111.664 E8.40172
G1 X99.324 Y111.998 E8.4169
G1 X98.975 Y112.269 E8.4316
G1 X98.573 Y112.482 E8.44673
G1 X98.153 Y112.622 E8.46146
G1 X97.741 Y112.69 E8.47535
G1 F1500 E1.97535
G0 F6000 X97.851 Y113.38
G0 X96.917 Y113.268
G0 X95.008 Y112.703
G0 X91.67 Y111.624
G0 X89.685 Y112.563
G0 X89.616 Y111.868
G1 F1500 E8.47535
G1 F1200 X89.248 Y111.9 E8.48763
G1 X88.881 Y111.86 E8.49991
G1 X88.546 Y111.756 E8.51158
G1 X88.196 Y111.567 E8.52481
G1 X87.94 Y111.355 E8.53586
G1 X87.675 Y111.035 E8.54968
G1 X87.504 Y110.706 E8.56201
G1 X87.4 Y110.348 E8.57441
G1 X87.368 Y109.98 E8.5867
G1 X87.4 Y109.652 E8.59766
G1 X87.519 Y109.253 E8.61151
G1 X87.675 Y108.961 E8.62252
G1 X87.94 Y108.641 E8.63634
G1 X88.229 Y108.407 E8.64871
G1 X88.557 Y108.236 E8.66101
G1 X88.92 Y108.128 E8.67361
G1 X89.248 Y108.096 E8.68457
G1 X89.654 Y108.14 E8.69815
G1 X90.011 Y108.251 E8.71058
G1 X90.343 Y108.432 E8.72316
G1 X90.628 Y108.669 E8.73549
G1 X90.846 Y108.939 E8.74703
G1 X91.028 Y109.289 E8.76015
G1 X91.136 Y109.652 E8.77275
G1 X91.168 Y109.981 E8.78374
G1 X91.128 Y110.388 E8.79734
G1 X91.027 Y110.715 E8.80873
G1 X90.855 Y111.043 E8.82105
G1 X90.6 Y111.355 E8.83445
G1 X90.344 Y111.567 E8.8455
G1 X90.009 Y111.746 E8.85814
G1 X89.616 Y111.868 E8.87182
G0 F6000 X89.685 Y112.563
G0 X87.673 Y112.381
G0 X86.718 Y111.345
G0 X86.7 Y114.828
G0 X102.356 Y114.828
G0 X102.168 Y114.64
;TYPE:SKIN
G1 F1200 X86.889 Y114.639 E9.38
G1 X86.888 Y111.909 E9.4708
G1 X87.116 Y112.179 E9.48256
G1 X87.548 Y112.535 E9.50118
G1 X88.06 Y112.816 E9.5206
G1 X88.661 Y113.004 E9.54155
G1 X89.246 Y113.06 E9.56109
G1 X89.883 Y113.002 E9.58237
G1 X90.424 Y112.836 E9.60119
G1 X90.846 Y112.616 E9.61702
G1 X91.066 Y112.472 E9.62576
G1 X91.433 Y112.166 E9.64166
G1 X91.81 Y111.7 E9.66159
G1 X92.099 Y111.17 E9.68167
G1 X92.268 Y110.619 E9.70084
G1 X92.336 Y110.014 E9.72109
G1 X92.28 Y109.423 E9.74083
G1 X92.104 Y108.837 E9.76118
G1 X91.797 Y108.27 E9.78263
G1 X91.457 Y107.846 E9.80071
G1 X90.955 Y107.439 E9.8222
G1 X90.455 Y107.171 E9.84107
G1 X89.847 Y106.988 E9.86219
G1 X89.287 Y106.936 E9.88089
G1 X88.649 Y106.99 E9.90219
G1 X88.086 Y107.169 E9.92184
G1 X87.551 Y107.454 E9.942
G1 X87.115 Y107.818 E9.96089
G1 X86.889 Y108.082 E9.97245
G1 X86.888 Y105.36 E10.06298
G1 X102.168 Y105.36 E10.5712
G1 X102.168 Y114.64 E10.87985
G1 F1500 E4.37985
G0 F6000 X102.428 Y114.64
G0 X97.793 Y114.8
G0 X97.799 Y113.674
G0 X97.828 Y113.85
G1 F1500 E10.87985
G1 F1200 X98.424 Y113.754 E10.89993
G1 X99.036 Y113.55 E10.92139
G1 X99.616 Y113.24 E10.94326
G1 X100.116 Y112.85 E10.96435
G1 X100.547 Y112.389 E10.98534
G1 X100.892 Y111.866 E11.00618
G1 X101.163 Y111.266 E11.02808
G1 X101.314 Y110.643 E11.0494
G1 X101.372 Y110.015 E11.07037
G1 X101.318 Y109.339 E11.09293
G1 X101.158 Y108.747 E11.11333
G1 X100.913 Y108.158 E11.13454
G1 X100.562 Y107.635 E11.15549
G1 X100.141 Y107.169 E11.17638
G1 X99.635 Y106.773 E11.19775
G1 X99.068 Y106.464 E11.21923
G1 X98.475 Y106.251 E11.24019
G1 X97.826 Y106.15 E11.26203
G1 X97.189 Y106.15 E11.28322
G1 X96.555 Y106.25 E11.30457
G1 X95.979 Y106.446 E11.3248
G1 X95.396 Y106.76 E11.34683
G1 X94.892 Y107.154 E11.3681
G1 X94.443 Y107.643 E11.39018
G1 X94.104 Y108.175 E11.41117
G1 X93.845 Y108.771 E11.43278
G1 X93.701 Y109.347 E11.45253
G1 X93.64 Y109.956 E11.47288
G1 X93.692 Y110.605 E11.49454
G1 X93.856 Y111.256 E11.51687
G1 X94.119 Y111.852 E11.53853
G1 X94.44 Y112.346 E11.55813
G1 X94.868 Y112.816 E11.57927
G1 X95.367 Y113.217 E11.60056
G1 X95.98 Y113.55 E11.62377
G1 X96.602 Y113.755 E11.64555
G1 X97.213 Y113.845 E11.66609
G1 X97.828 Y113.85 E11.68655
G1 F1500 E5.18655
G0 F6000 X97.793 Y113.593
G0 X99.34 Y112.797
G0 X99.777 Y112.457
G0 X100.149 Y112.052
G0 X100.452 Y111.59
G0 X100.672 Y111.085
G0 X100.809 Y110.549
G0 X100.855 Y109.999
G0 X100.827 Y109.683
G0 X100.412 Y107.733
G0 X102.328 Y107.733
G0 X102.428 Y105.928
G0 X101.968 Y105.928
G1 F1500 E11.68655
G1 F1200 X101.601 Y105.56 E11.70383
G0 F6000 X101.035 Y105.56
G1 F1200 X101.968 Y106.494 E11.74774
G0 F6000 X101.968 Y107.06
G1 F1200 X100.469 Y105.56 E11.81827
G0 F6000 X99.904 Y105.56
G1 F1200 X101.968 Y107.625 E11.91538
G0 F6000 X101.968 Y108.191
G1 F1200 X99.338 Y105.56 E12.03911
G0 F6000 X98.772 Y105.56
G1 F1200 X100.093 Y106.881 E12.10125
G0 F6000 X100.678 Y107.466
G1 F1200 X101.968 Y108.757 E12.16195
G0 F6000 X101.968 Y109.322
G1 F1200 X101.355 Y108.708 E12.19081
G0 F6000 X101.524 Y109.444
G1 F1200 X101.968 Y109.888 E12.21169
G0 F6000 X101.567 Y110.052
G1 F1200 X101.968 Y110.454 E12.23057
G0 F6000 X101.521 Y110.572
G1 F1200 X101.968 Y111.019 E12.2516
G0 F6000 X101.425 Y111.042
G1 F1200 X101.968 Y111.585 E12.27714
G0 F6000 X101.968 Y112.151
G1 F1200 X101.286 Y111.468 E12.30924
G0 F6000 X101.115 Y111.863
G1 F1200 X101.968 Y112.716 E12.34937
G0 F6000 X101.968 Y113.282
G1 F1200 X100.898 Y112.212 E12.3997
G0 F6000 X100.67 Y112.549
G1 F1200 X101.968 Y113.848 E12.46077
G0 F6000 X101.968 Y114.413
G1 F1200 X100.396 Y112.841 E12.53472
G0 F6000 X100.103 Y113.114
G1 F1200 X101.429 Y114.44 E12.59709
G0 F6000 X100.863 Y114.44
G1 F1200 X99.784 Y113.361 E12.64784
G0 F6000 X99.426 Y113.568
G1 F1200 X100.297 Y114.44 E12.68883
G0 F6000 X99.732 Y114.44
G1 F1200 X99.049 Y113.757 E12.72096
G0 F6000 X98.624 Y113.897
G1 F1200 X99.166 Y114.44 E12.74648
G0 F6000 X98.6 Y114.44
G1 F1200 X98.158 Y113.997 E12.76729
G0 F6000 X98.035 Y114.44
G1 F1200 X97.646 Y114.051 E12.78559
G0 F6000 X97.469 Y114.44
G1 F1200 X97.052 Y114.022 E12.80523
G0 F6000 X96.903 Y114.44
G1 F1200 X96.343 Y113.879 E12.83159
G0 F6000 X96.338 Y114.44
G1 F1200 X95.321 Y113.423 E12.87943
G0 F6000 X95.541 Y113.019
G0 X96.033 Y113.376
G0 X96.033 Y114.8
G0 X95.206 Y114.9
G0 X95.206 Y114.44
G1 F1200 X92.19 Y111.424 E13.02129
G0 F6000 X91.989 Y111.788
G1 F1200 X94.641 Y114.44 E13.14603
G0 F6000 X94.074 Y114.439
G1 F1200 X91.741 Y112.105 E13.25579
G0 F6000 X91.468 Y112.398
G1 F1200 X93.509 Y114.439 E13.35179
G0 F6000 X92.943 Y114.439
G1 F1200 X91.156 Y112.652 E13.43585
G0 F6000 X90.802 Y112.864
G1 F1200 X92.377 Y114.439 E13.50993
G0 F6000 X91.811 Y114.439
G1 F1200 X90.419 Y113.047 E13.57541
G0 F6000 X89.986 Y113.179
G1 F1200 X91.246 Y114.439 E13.63467
G0 F6000 X90.68 Y114.439
G1 F1200 X89.482 Y113.24 E13.69105
G0 F6000 X88.906 Y113.23
G1 F1200 X90.114 Y114.439 E13.74789
G0 F6000 X89.549 Y114.439
G1 F1200 X88.175 Y113.065 E13.81252
G0 F6000 X88.312 Y112.626
G0 X86.718 Y111.345
G0 X86.628 Y113.111
G0 X87.089 Y113.111
G1 F1200 X88.417 Y114.439 E13.87499
G0 F6000 X87.852 Y114.439
G1 F1200 X87.089 Y113.677 E13.91085
G0 F6000 X87.089 Y114.242
G1 F1200 X87.286 Y114.439 E13.92012
G0 F6000 X87.286 Y114.9
G0 X88.983 Y114.9
G0 X88.983 Y114.439
G1 F1200 X87.089 Y112.545 E14.00921
G0 F6000 X86.628 Y112.545
G0 X86.773 Y109.505
G0 X87.45 Y107.877
G0 X87.157 Y107.522
G1 F1200 X87.088 Y107.453 E14.01245
G0 F6000 X87.467 Y107.266
G1 F1200 X87.088 Y106.887 E14.03028
G0 F6000 X87.088 Y106.321
G1 F1200 X87.838 Y107.071 E14.06556
G0 F6000 X88.246 Y106.913
G1 F1200 X87.088 Y105.756 E14.12
G0 F6000 X87.459 Y105.56
G1 F1200 X88.685 Y106.787 E14.17769
G0 F6000 X89.209 Y106.745
G1 F1200 X88.024 Y105.56 E14.23343
G0 F6000 X88.59 Y105.56
G1 F1200 X89.813 Y106.784 E14.29098
G0 F6000 X90.636 Y107.041
G1 F1200 X89.156 Y105.56 E14.36062
G0 F6000 X89.721 Y105.56
G1 F1200 X93.502 Y109.341 E14.53847
G0 F6000 X93.61 Y108.884
G1 F1200 X90.287 Y105.56 E14.69479
G0 F6000 X90.853 Y105.56
G1 F1200 X93.76 Y108.468 E14.83155
G0 F6000 X93.933 Y108.076
G1 F1200 X91.418 Y105.56 E14.94987
G0 F6000 X91.984 Y105.56
G1 F1200 X94.156 Y107.732 E15.05204
G0 F6000 X94.392 Y107.402
G1 F1200 X92.55 Y105.56 E15.13868
G0 F6000 X93.115 Y105.56
G1 F1200 X94.664 Y107.109 E15.21154
G0 F6000 X94.964 Y106.844
G1 F1200 X93.681 Y105.56 E15.27191
G0 F6000 X94.247 Y105.56
G1 F1200 X95.283 Y106.597 E15.32067
G0 F6000 X95.647 Y106.395
G1 F1200 X94.812 Y105.56 E15.35994
G0 F6000 X95.378 Y105.56
G1 F1200 X96.037 Y106.219 E15.39094
G0 F6000 X96.456 Y106.072
G1 F1200 X95.944 Y105.56 E15.41502
G0 F6000 X96.509 Y105.56
G1 F1200 X96.937 Y105.988 E15.43515
G0 F6000 X97.075 Y105.56
G1 F1200 X97.467 Y105.952 E15.45359
G0 F6000 X97.641 Y105.56
G1 F1200 X98.064 Y105.983 E15.47349
G0 F6000 X98.207 Y105.56
G1 F1200 X98.804 Y106.158 E15.50159
G0 F6000 X98.652 Y106.591
