;FLAVOR:Marlin
;TIME:1207
;Filament used: 0.489287m
;Layer height: 0.16
;MINX:95.004
;MINY:101.845
;MINZ:0.2
;MAXX:137.468
;MAXY:117.3
;MAXZ:17.92
;TARGET_MACHINE.NAME:Creality Ender-3 Pro
;Generated with Cura_SteamEngine 5.8.1
M82 ;absolute extrusion mode
; Ender 3 Custom Start G-code
G92 E0 ; Reset Extruder
G28 ; Home all axes
G1 Z5.0 F3000 ; Move Z Axis up a bit during heating to not damage bed
M104 S175 ; Start heating up the nozzle most of the way
M190 S67.0 ; Start heating the bed, wait until target temperature reached
M109 S207.0 ; Finish heating the nozzle
G1 Z2.0 F3000 ; Move Z Axis up little to prevent scratching of Heat Bed
G29;
G1 X0.1 Y20 Z0.3 F5000.0 ; Move to start position
G1 X0.1 Y200.0 Z0.3 F1500.0 E15 ; Draw the first line
G1 X0.4 Y200.0 Z0.3 F5000.0 ; Move to side a little
G1 X0.4 Y20 Z0.3 F1500.0 E30 ; Draw the second line
G92 E0 ; Reset Extruder
G1 Z2.0 F3000 ; Move Z Axis up little to prevent scratching of Heat Bed
G1 X5 Y20 Z0.3 F5000.0 ; Move over to prevent blob squish
G92 E0
G92 E0
G1 F1500 E-6.5
;LAYER_COUNT:94
;LAYER:0
M107
;MESH:aligner v3.stl
G0 F6000 X103.286 Y112.292 Z0.2
;TYPE:WALL-INNER
G1 F1500 E0
G1 F1200 X102.855 Y112.292 E0.01434
G1 X102.44 Y112.213 E0.02839
G1 X102.039 Y112.061 E0.04265
G1 X101.655 Y111.814 E0.05784
G1 X101.348 Y111.527 E0.07181
G1 X101.109 Y111.206 E0.08512
G1 X100.923 Y110.839 E0.09881
G1 X100.804 Y110.412 E0.11355
G1 X100.768 Y110 E0.12731
G1 X100.803 Y109.578 E0.14139
G1 X100.922 Y109.165 E0.15569
G1 X101.11 Y108.789 E0.16967
G1 X101.348 Y108.47 E0.18291
G1 X101.653 Y108.184 E0.19681
G1 X102.038 Y107.935 E0.21206
G1 X102.391 Y107.802 E0.22461
G1 X102.85 Y107.704 E0.24022
G1 X103.288 Y107.704 E0.25479
G1 X103.745 Y107.802 E0.27033
G1 X104.104 Y107.943 E0.28316
G1 X104.459 Y108.161 E0.29702
G1 X104.768 Y108.447 E0.31102
G1 X105.023 Y108.783 E0.32505
G1 X105.189 Y109.115 E0.3374
G1 F1165 X105.362 Y109.603 E0.35513
G1 F1126.8 X105.38 Y109.962 E0.36787
G1 F1095.9 X105.363 Y110.379 E0.38307
G1 F1126.8 X105.187 Y110.888 E0.40214
G1 F1200 X104.995 Y111.25 E0.41577
G1 X104.765 Y111.552 E0.4284
G1 X104.472 Y111.822 E0.44165
G1 X104.104 Y112.053 E0.4561
G1 X103.745 Y112.194 E0.46893
G1 X103.286 Y112.292 E0.48454
G0 F6000 X103.34 Y112.587
G0 X105.21 Y111.903
G0 X105.46 Y111.597
G0 X106.798 Y113.485
G0 X107.684 Y114.371
G0 X108.745 Y115.038
G0 X109.926 Y115.45
G0 X111.169 Y115.591
G0 X112.413 Y115.45
G0 X113.594 Y115.038
G0 X114.655 Y114.371
G0 X115.541 Y113.485
G0 X116.207 Y112.426
G0 X116.441 Y111.755
G0 X116.651 Y111.006
G0 X116.598 Y110.394
G1 F824.7 X116.592 Y109.939 E0.50656
G1 F827.6 X116.598 Y109.625 E0.52171
G0 F6000 X116.651 Y108.994
G0 X116.807 Y108.661
G0 X117.09 Y108.288
G0 X117.437 Y107.971
G0 X117.837 Y107.724
G0 X118.274 Y107.554
G0 X118.736 Y107.468
G0 X119.203 Y107.468
G0 X119.665 Y107.554
G0 X120.102 Y107.724
G0 X120.502 Y107.971
G0 X120.849 Y108.288
G0 X121.132 Y108.661
G0 X121.341 Y109.082
G0 X121.47 Y109.534
G0 X121.512 Y110
G0 X121.47 Y110.466
G0 X121.341 Y110.918
G0 X121.132 Y111.339
G0 X120.849 Y111.712
G0 X120.502 Y112.029
G0 X120.102 Y112.276
G0 X119.665 Y112.446
G0 X119.203 Y112.532
G0 X118.736 Y112.532
G0 X118.274 Y112.446
G0 X117.837 Y112.276
G0 X117.437 Y112.029
G0 X116.946 Y111.619
G0 X116.546 Y112.023
G1 F1200 X116.325 Y112.539 E0.54038
G1 X116.033 Y113.064 E0.56036
G1 X115.695 Y113.541 E0.5798
G1 X115.237 Y114.065 E0.60295
G1 X114.712 Y114.524 E0.62614
G1 X114.183 Y114.897 E0.64767
G1 X113.607 Y115.206 E0.66941
G1 X113.12 Y115.406 E0.68692
G1 X112.439 Y115.611 E0.71058
G1 X111.75 Y115.719 E0.73377
G1 X111.168 Y115.748 E0.75315
G1 X110.583 Y115.72 E0.77263
G1 X109.949 Y115.619 E0.79399
G1 X109.315 Y115.441 E0.81589
G1 X108.729 Y115.206 E0.83689
G1 X108.103 Y114.87 E0.86052
G1 X107.543 Y114.459 E0.88362
G1 X107.06 Y114.021 E0.90531
G1 X106.641 Y113.541 E0.9265
G1 X106.303 Y113.064 E0.94594
G1 X106.012 Y112.539 E0.96591
G1 X105.761 Y111.954 E0.98708
G1 X105.513 Y111.126 E1.01583
G1 X105.316 Y111.488 E1.02954
G1 X105.057 Y111.826 E1.0437
G1 X104.693 Y112.161 E1.06015
G1 X104.288 Y112.409 E1.07595
G1 X103.813 Y112.597 E1.09294
G1 X103.319 Y112.692 E1.10967
G1 X102.813 Y112.692 E1.1265
G1 X102.329 Y112.598 E1.1429
G1 X101.865 Y112.423 E1.15939
G1 X101.439 Y112.158 E1.17608
G1 X101.071 Y111.823 E1.19263
G1 X100.772 Y111.424 E1.20922
G1 X100.546 Y110.978 E1.22585
G1 X100.41 Y110.481 E1.24298
G1 X100.368 Y110 E1.25904
G1 X100.407 Y109.506 E1.27552
G1 X100.548 Y109.018 E1.29242
G1 X100.772 Y108.57 E1.30908
G1 X101.096 Y108.152 E1.32667
G1 X101.439 Y107.838 E1.34214
G1 X101.863 Y107.574 E1.35875
G1 X102.33 Y107.398 E1.37535
G1 X102.817 Y107.304 E1.39184
G1 X103.324 Y107.304 E1.40871
G1 X103.809 Y107.399 E1.42514
G1 X104.283 Y107.58 E1.44202
G1 X104.703 Y107.842 E1.45848
G1 X105.061 Y108.175 E1.47475
G1 X105.363 Y108.568 E1.49123
G1 X105.514 Y108.872 E1.50252
G1 X105.722 Y108.153 E1.52741
G1 X105.964 Y107.557 E1.54881
G1 X106.297 Y106.936 E1.57225
G1 X106.708 Y106.371 E1.59548
G1 X107.143 Y105.892 E1.61701
G1 X107.628 Y105.468 E1.63843
G1 X108.056 Y105.164 E1.65589
G1 X108.619 Y104.842 E1.67746
G1 X109.216 Y104.59 E1.69902
G1 X109.949 Y104.381 E1.72437
G1 X110.575 Y104.282 E1.74545
G1 X111.168 Y104.248 E1.7652
G1 X111.862 Y104.293 E1.78833
G1 X112.386 Y104.381 E1.80601
G1 X113.12 Y104.59 E1.83139
G1 X113.717 Y104.842 E1.85294
G1 X114.28 Y105.164 E1.87451
G1 X114.708 Y105.468 E1.89198
G1 X115.238 Y105.931 E1.91538
G1 X115.695 Y106.455 E1.93851
G1 X116.033 Y106.932 E1.95795
G1 X116.341 Y107.488 E1.97909
G1 X116.576 Y108.049 E1.99932
G1 X116.718 Y108.506 E2.01524
G1 X116.969 Y108.175 E2.02906
G1 X117.354 Y107.832 E2.04621
G1 X117.749 Y107.582 E2.06175
G1 X118.23 Y107.398 E2.07888
G1 X118.717 Y107.304 E2.09538
G1 X119.223 Y107.304 E2.11221
G1 X119.707 Y107.398 E2.12861
G1 X120.173 Y107.575 E2.14519
G1 X120.6 Y107.84 E2.1619
G1 X120.975 Y108.183 E2.1788
G1 X121.272 Y108.584 E2.1954
G1 X121.493 Y109.043 E2.21235
G1 X121.625 Y109.509 E2.22845
G1 X121.673 Y109.995 E2.2447
G1 X121.624 Y110.491 E2.26128
G1 X121.49 Y110.978 E2.27807
G1 X121.265 Y111.422 E2.29463
G1 X120.974 Y111.814 E2.31087
G1 X120.6 Y112.156 E2.32772
G1 X120.171 Y112.423 E2.34453
G1 X119.706 Y112.598 E2.36106
G1 X119.219 Y112.692 E2.37755
G1 X118.713 Y112.692 E2.39438
G1 X118.229 Y112.598 E2.41078
G1 X117.749 Y112.414 E2.42788
G1 X117.356 Y112.166 E2.44333
G1 X116.968 Y111.82 E2.46062
G1 X116.719 Y111.49 E2.47437
G1 X116.576 Y111.954 E2.49052
G1 X116.546 Y112.023 E2.49303
G0 F6000 X116.651 Y111.006
G0 X116.64 Y110.472
G1 F916 X116.598 Y110.394 E2.49689
G1 F954.3 X116.453 Y110.801 E2.51496
G1 F1200 X116.392 Y111.156 E2.52694
G1 X116.229 Y111.735 E2.54694
G1 X115.974 Y112.346 E2.56896
G1 X115.677 Y112.877 E2.5892
G1 X115.369 Y113.309 E2.60685
G1 X114.977 Y113.755 E2.6266
G1 X114.527 Y114.161 E2.64675
G1 X113.99 Y114.546 E2.66873
G1 X113.456 Y114.836 E2.68894
G1 X112.968 Y115.036 E2.70648
G1 X112.32 Y115.224 E2.72892
G1 X111.728 Y115.32 E2.74887
G1 X111.136 Y115.348 E2.76858
G1 X110.604 Y115.32 E2.7863
G1 X110.015 Y115.224 E2.80615
G1 X109.427 Y115.057 E2.82648
G1 X108.88 Y114.836 E2.8461
G1 X108.346 Y114.546 E2.86631
G1 X107.809 Y114.161 E2.88829
G1 X107.359 Y113.755 E2.90845
G1 X106.967 Y113.309 E2.9282
G1 X106.641 Y112.85 E2.94692
G1 X106.334 Y112.288 E2.96822
G1 X106.107 Y111.734 E2.98814
G1 X105.944 Y111.155 E3.00814
G1 F1165 X105.814 Y110.449 E3.03274
G1 F1126.8 X105.804 Y110.038 E3.0473
G1 X105.813 Y109.559 E3.06427
G1 F1165 X105.959 Y108.772 E3.09169
G1 F1200 X106.129 Y108.202 E3.11147
G1 X106.362 Y107.65 E3.1314
G1 X106.659 Y107.119 E3.15164
G1 X106.967 Y106.687 E3.16928
G1 X107.409 Y106.191 E3.19138
G1 X107.86 Y105.794 E3.21136
G1 X108.288 Y105.49 E3.22882
G1 X108.88 Y105.16 E3.25137
G1 X109.368 Y104.96 E3.26891
G1 X109.951 Y104.79 E3.28911
G1 X110.535 Y104.688 E3.30882
G1 X111.168 Y104.648 E3.32992
G1 X111.796 Y104.688 E3.35085
G1 X112.385 Y104.79 E3.37073
G1 X112.968 Y104.96 E3.39093
G1 X113.456 Y105.16 E3.40847
G1 X114.048 Y105.49 E3.43101
G1 X114.476 Y105.794 E3.44847
G1 X114.977 Y106.241 E3.47081
G1 X115.369 Y106.687 E3.49056
G1 X115.695 Y107.146 E3.50928
G1 X115.984 Y107.669 E3.52915
G1 X116.207 Y108.202 E3.54837
G1 X116.379 Y108.777 E3.56833
G1 X116.454 Y109.196 E3.58249
G1 F958.1 X116.598 Y109.625 E3.60134
G1 F912.5 X116.74 Y109.359 E3.61453
G1 F1126.8 X116.847 Y109.115 E3.62397
G1 F1200 X117.014 Y108.782 E3.63636
G1 X117.29 Y108.425 E3.65137
G1 X117.59 Y108.155 E3.66479
G1 X117.961 Y107.928 E3.67926
G1 X118.304 Y107.797 E3.69147
G1 X118.751 Y107.704 E3.70665
G1 X119.188 Y107.704 E3.72119
G1 X119.645 Y107.802 E3.73673
G1 X119.993 Y107.934 E3.74911
G1 X120.358 Y108.16 E3.76339
G1 X120.674 Y108.45 E3.77766
G1 X120.928 Y108.791 E3.7918
G1 X121.117 Y109.179 E3.80615
G1 X121.231 Y109.58 E3.82002
G1 X121.268 Y110.027 E3.83494
G1 X121.231 Y110.418 E3.848
G1 X121.113 Y110.84 E3.86258
G1 X120.948 Y111.164 E3.87467
G1 X120.678 Y111.543 E3.89015
G1 X120.358 Y111.835 E3.90455
G1 X119.993 Y112.062 E3.91885
G1 X119.645 Y112.194 E3.93123
G1 X119.186 Y112.292 E3.94684
G1 X118.755 Y112.292 E3.96118
G1 X118.339 Y112.213 E3.97526
G1 X117.961 Y112.068 E3.98872
G1 X117.591 Y111.842 E4.00314
G1 X117.245 Y111.523 E4.0188
G1 X117.011 Y111.209 E4.03182
G1 X116.848 Y110.888 E4.0438
G1 X116.807 Y110.781 E4.04761
G1 F1142.9 X116.64 Y110.472 E4.05987
G1 F1500 E-2.44013
G0 F6000 X116.651 Y111.006
G0 X116.535 Y111.482
G0 X115.762 Y113.746
G0 X115.762 Y116.3
G0 X116.275 Y116.5
G1 F1500 E4.05987
G1 F1200 X131.668 Y116.5 E4.57185
G1 X131.668 Y112.088 E4.71859
G1 X131.742 Y111.708 E4.73147
G1 X131.855 Y111.504 E4.73922
G1 X132.096 Y111.267 E4.75047
G1 X132.339 Y111.143 E4.75954
G1 X132.581 Y111.091 E4.76777
G1 X134.791 Y111.088 E4.84128
G1 X135.015 Y111.149 E4.849
G1 X135.412 Y111.419 E4.86497
G1 X135.598 Y111.718 E4.87668
G1 X135.667 Y112.088 E4.8892
G1 X136.051 Y111.701 E4.90733
G1 X136.249 Y111.592 E4.91485
G1 X136.668 Y111.5 E4.92912
G1 X136.668 Y108.5 E5.0289
G1 X136.248 Y108.408 E5.0432
G1 X135.96 Y108.208 E5.05486
G1 X135.667 Y107.913 E5.06869
G1 X135.597 Y108.282 E5.08118
G1 X135.41 Y108.579 E5.09285
G1 X135.015 Y108.847 E5.10873
G1 X134.791 Y108.908 E5.11645
G1 X132.581 Y108.905 E5.18996
G1 X132.339 Y108.853 E5.19819
G1 X132.096 Y108.729 E5.20726
G1 X131.855 Y108.492 E5.2185
G1 X131.712 Y108.205 E5.22917
G1 X131.67 Y107.984 E5.23665
G1 X131.668 Y103.5 E5.38579
G1 X129.591 Y103.5 E5.45487
G1 X129.305 Y103.851 E5.46993
G1 X129.072 Y104.031 E5.47972
G1 X128.65 Y104.241 E5.4954
G1 X128.389 Y104.312 E5.5044
G1 X127.982 Y104.347 E5.51798
G1 X127.544 Y104.29 E5.53267
G1 X127.118 Y104.103 E5.54815
G1 X126.84 Y103.9 E5.5596
G1 X126.64 Y103.7 E5.569
G1 X126.494 Y103.5 E5.57724
G1 X99.705 Y103.501 E6.46825
G1 X99.294 Y103.524 E6.48194
G1 X98.952 Y103.586 E6.4935
G1 X98.609 Y103.693 E6.50545
G1 X98.267 Y103.847 E6.51792
G1 X97.976 Y104.023 E6.52923
G1 X97.684 Y104.254 E6.54162
G1 X97.421 Y104.515 E6.55394
G1 X97.197 Y104.801 E6.56602
G1 X97.017 Y105.1 E6.57763
G1 X96.869 Y105.433 E6.58975
G1 X96.754 Y105.792 E6.60229
G1 X96.695 Y106.127 E6.6136
G1 X96.668 Y106.54 E6.62737
G1 X96.668 Y113.456 E6.8574
G1 X96.695 Y113.872 E6.87126
G1 X96.753 Y114.203 E6.88244
G1 X96.869 Y114.563 E6.89502
G1 X97.017 Y114.896 E6.90714
G1 X97.197 Y115.195 E6.91875
G1 X97.421 Y115.481 E6.93083
G1 X97.684 Y115.742 E6.94315
G1 X97.976 Y115.973 E6.95554
G1 X98.267 Y116.149 E6.96685
G1 X98.609 Y116.303 E6.97932
G1 X98.952 Y116.41 E6.99127
G1 X99.298 Y116.473 E7.00297
G1 X99.708 Y116.5 E7.01664
G1 X116.275 Y116.5 E7.56766
G0 F6000 X116.251 Y116.9
G1 F1200 X132.068 Y116.9 E8.09373
G1 X132.071 Y112.021 E8.25601
G1 X132.18 Y111.737 E8.26613
G1 X132.325 Y111.595 E8.27288
G1 X132.615 Y111.49 E8.28314
G1 X134.745 Y111.488 E8.35398
G1 X134.876 Y111.525 E8.35851
G1 X135.114 Y111.687 E8.36808
G1 X135.226 Y111.866 E8.37511
G1 X135.268 Y112.088 E8.38262
G1 X135.268 Y112.9 E8.40963
G1 X135.419 Y112.9 E8.41465
G1 X136.243 Y112.075 E8.45343
G1 X136.416 Y111.955 E8.46044
G1 X136.668 Y111.9 E8.46901
G1 X137.068 Y111.9 E8.48232
G1 X137.068 Y108.1 E8.60871
G1 X136.668 Y108.1 E8.62201
G1 X136.416 Y108.045 E8.63059
G1 X136.243 Y107.925 E8.63759
G1 X135.419 Y107.1 E8.67637
G1 X135.268 Y107.1 E8.6814
G1 X135.268 Y107.908 E8.70827
G1 X135.225 Y108.133 E8.71589
G1 X135.113 Y108.311 E8.72288
G1 X134.876 Y108.471 E8.7324
G1 X134.745 Y108.508 E8.73692
G1 X132.615 Y108.506 E8.80777
G1 X132.47 Y108.475 E8.8127
G1 X132.234 Y108.324 E8.82202
G1 X132.126 Y108.168 E8.82833
G1 X132.069 Y107.954 E8.83569
G1 X132.068 Y103.1 E8.99714
G1 X129.354 Y103.1 E9.08741
G1 X129.258 Y103.283 E9.09428
G1 X129.042 Y103.549 E9.10568
G1 X128.83 Y103.711 E9.11455
G1 X128.429 Y103.905 E9.12937
G1 X128.053 Y103.948 E9.14195
G1 X127.675 Y103.906 E9.1546
G1 X127.3 Y103.743 E9.1682
G1 X127.08 Y103.58 E9.17731
G1 X126.828 Y103.284 E9.19024
G1 X126.731 Y103.1 E9.19716
G1 X99.693 Y103.101 E10.09645
G1 X99.247 Y103.126 E10.1113
G1 X98.856 Y103.196 E10.12451
G1 X98.466 Y103.318 E10.13811
G1 X98.08 Y103.493 E10.1522
G1 X97.748 Y103.694 E10.16511
G1 X97.419 Y103.954 E10.17906
G1 X97.122 Y104.248 E10.19296
G1 X96.867 Y104.574 E10.20672
G1 X96.661 Y104.915 E10.21997
G1 X96.494 Y105.29 E10.23363
G1 X96.364 Y105.696 E10.24781
G1 X96.297 Y106.08 E10.26077
G1 X96.268 Y106.528 E10.2757
G1 X96.268 Y113.469 E10.50656
G1 X96.297 Y113.92 E10.52159
G1 X96.364 Y114.299 E10.53439
G1 X96.494 Y114.706 E10.5486
G1 X96.661 Y115.081 E10.56226
G1 X96.867 Y115.422 E10.57551
G1 X97.122 Y115.748 E10.58927
G1 X97.419 Y116.042 E10.60317
G1 X97.748 Y116.302 E10.61712
G1 X98.08 Y116.503 E10.63003
G1 X98.466 Y116.678 E10.64413
G1 X98.856 Y116.8 E10.65772
G1 X99.249 Y116.871 E10.671
G1 X99.696 Y116.9 E10.6859
G1 X116.251 Y116.9 E11.23652
G0 F6000 X116.226 Y117.3
;TYPE:WALL-OUTER
G1 F1200 X132.468 Y117.3 E11.77673
G1 X132.47 Y112.056 E11.95115
G1 X132.553 Y111.923 E11.95636
G1 X132.65 Y111.888 E11.95979
G1 X134.725 Y111.891 E12.02881
G1 X134.817 Y111.954 E12.03251
G1 X134.868 Y112.088 E12.03728
G1 X134.868 Y113.3 E12.07759
G1 X135.585 Y113.3 E12.10144
G1 X136.584 Y112.3 E12.14846
G1 X137.468 Y112.3 E12.17786
G1 X137.468 Y107.7 E12.33085
G1 X136.584 Y107.7 E12.36026
G1 X135.585 Y106.7 E12.40727
G1 X134.868 Y106.7 E12.43112
G1 X134.868 Y107.96 E12.47303
G1 X134.817 Y108.043 E12.47627
G1 X134.705 Y108.105 E12.48052
G1 X132.65 Y108.108 E12.54887
G1 X132.553 Y108.073 E12.5523
G1 X132.469 Y107.937 E12.55762
G1 X132.468 Y102.7 E12.7318
G1 X129.091 Y102.7 E12.84412
G1 X128.937 Y103.044 E12.85666
G1 X128.78 Y103.247 E12.86519
G1 X128.546 Y103.417 E12.87481
G1 X128.286 Y103.519 E12.8841
G1 X128.031 Y103.548 E12.89264
G1 X127.764 Y103.512 E12.9016
G1 X127.51 Y103.403 E12.91079
G1 X127.28 Y103.22 E12.92057
G1 X127.123 Y103.002 E12.9295
G1 X127.016 Y102.7 E12.94016
G1 X99.682 Y102.701 E13.84929
G1 X99.2 Y102.728 E13.86535
G1 X98.76 Y102.807 E13.88022
G1 X98.324 Y102.944 E13.89542
G1 X97.894 Y103.138 E13.91111
G1 X97.519 Y103.365 E13.92569
G1 X97.153 Y103.654 E13.9412
G1 X96.822 Y103.982 E13.9567
G1 X96.537 Y104.346 E13.97207
G1 X96.306 Y104.729 E13.98695
G1 X96.12 Y105.148 E14.0022
G1 X95.975 Y105.6 E14.01798
G1 X95.899 Y106.032 E14.03257
G1 X95.868 Y106.515 E14.04867
G1 X95.868 Y113.481 E14.28036
G1 X95.899 Y113.968 E14.29659
G1 X95.975 Y114.395 E14.31102
G1 X96.12 Y114.848 E14.32684
G1 X96.306 Y115.267 E14.34208
G1 X96.537 Y115.65 E14.35696
G1 X96.822 Y116.014 E14.37234
G1 X97.153 Y116.342 E14.38784
G1 X97.519 Y116.631 E14.40335
G1 X97.894 Y116.858 E14.41793
G1 X98.324 Y117.052 E14.43362
G1 X98.76 Y117.189 E14.44882
G1 X99.201 Y117.269 E14.46372
G1 X99.683 Y117.3 E14.47979
