;FLAVOR:Marlin
;TIME:4805
;Filament used: 3.97984m
;Layer height: 0.28
;MINX:30.395
;MINY:87.961
;MINZ:0.28
;MAXX:188.752
;MAXY:132.915
;MAXZ:8.96
;TARGET_MACHINE.NAME:Creality Ender-3 Pro
;Generated with Cura_SteamEngine 5.8.1
M82 ;absolute extrusion mode
; Ender 3 Custom Start G-code
G92 E0 ; Reset Extruder
G28 ; Home all axes
G1 Z5.0 F3000 ; Move Z Axis up a bit during heating to not damage bed
M104 S175 ; Start heating up the nozzle most of the way
M190 S67.0 ; Start heating the bed, wait until target temperature reached
M109 S207.0 ; Finish heating the nozzle
G1 Z2.0 F3000 ; Move Z Axis up little to prevent scratching of Heat Bed
G29;
G1 X0.1 Y20 Z0.3 F5000.0 ; Move to start position
G1 X0.1 Y200.0 Z0.3 F1500.0 E15 ; Draw the first line
G1 X0.4 Y200.0 Z0.3 F5000.0 ; Move to side a little
G1 X0.4 Y20 Z0.3 F1500.0 E30 ; Draw the second line
G92 E0 ; Reset Extruder
G1 Z2.0 F3000 ; Move Z Axis up little to prevent scratching of Heat Bed
G1 X5 Y20 Z0.3 F5000.0 ; Move over to prevent blob squish
G92 E0
G92 E0
G1 F1500 E-6.5
;LAYER_COUNT:32
;LAYER:0
M107
;MESH:ArcRadius v3.stl
G0 F6000 X73.448 Y131.648 Z0.28
;TYPE:WALL-INNER
G1 F1500 E0
G1 F1200 X73.448 Y129.848 E0.08382
G1 X51.924 Y129.848 E1.08606
G1 X51.535 Y129.705 E1.10536
G1 X51.425 Y129.582 E1.11305
G1 X51.331 Y129.345 E1.12492
G1 X51.263 Y128.927 E1.14464
G1 X50.945 Y127.403 E1.21713
G1 X50.623 Y126.235 E1.27355
G1 X50.252 Y125.136 E1.32756
G1 X49.806 Y124.033 E1.38296
G1 X49.309 Y122.976 E1.43734
G1 X48.723 Y121.908 E1.49407
G1 X48.104 Y120.917 E1.54848
G1 X47.402 Y119.927 E1.60499
G1 X46.667 Y119.005 E1.65989
G1 X45.885 Y118.134 E1.7144
G1 X45.048 Y117.306 E1.76922
G1 X44.167 Y116.525 E1.82404
G1 X43.211 Y115.775 E1.88062
G1 X42.267 Y115.115 E1.93426
G1 X41.211 Y114.471 E1.99185
G1 X40.199 Y113.928 E2.04533
G1 X39.115 Y113.428 E2.10091
G1 X38.017 Y112.992 E2.15593
G1 X36.897 Y112.62 E2.21088
G1 X35.639 Y112.285 E2.2715
G1 X35.633 Y112.29 E2.27186
G1 X34.565 Y112.074 E2.3226
G1 X33.393 Y111.904 E2.37774
G1 X32.241 Y111.804 E2.43159
G1 X31.65 Y111.787 E2.45912
G1 X31.65 Y112.744 E2.50368
G1 X32.189 Y112.761 E2.52879
G1 X33.297 Y112.859 E2.58058
G1 X34.444 Y113.027 E2.63456
G1 X35.54 Y113.252 E2.68666
G1 X36.643 Y113.549 E2.73985
G1 X37.701 Y113.898 E2.79173
G1 X38.765 Y114.319 E2.84501
G1 X39.78 Y114.791 E2.89713
G1 X40.765 Y115.319 E2.94917
G1 X41.746 Y115.923 E3.00282
G1 X42.676 Y116.568 E3.05552
G1 X43.554 Y117.263 E3.10766
G1 X44.403 Y118.013 E3.16041
G1 X45.179 Y118.781 E3.21125
G1 X45.963 Y119.655 E3.26592
G1 X46.654 Y120.526 E3.31769
G1 X47.315 Y121.458 E3.37089
G1 X47.912 Y122.417 E3.42349
G1 X48.459 Y123.427 E3.47698
G1 X48.937 Y124.439 E3.52909
G1 X49.346 Y125.451 E3.57992
G1 X49.723 Y126.573 E3.63503
G1 X50.007 Y127.609 E3.68505
G1 X50.255 Y128.765 E3.74011
G1 X50.323 Y129.31 E3.76568
G1 X50.215 Y129.582 E3.77931
G1 X50.105 Y129.705 E3.78699
G1 X49.801 Y129.848 E3.80263
G1 X46.648 Y129.848 E3.94945
G1 X46.648 Y131.648 E4.03327
G1 X73.448 Y131.648 E5.28119
G0 F6000 X73.848 Y132.048
;TYPE:WALL-OUTER
G1 F1200 X73.848 Y129.448 E5.40225
G1 X51.924 Y129.448 E6.42313
G1 X51.794 Y129.401 E6.42956
G1 X51.726 Y129.281 E6.43599
G1 X51.655 Y128.845 E6.45656
G1 X51.331 Y127.298 E6.53015
G1 X51.02 Y126.163 E6.58495
G1 X50.623 Y124.986 E6.64279
G1 X50.162 Y123.851 E6.69984
G1 X49.678 Y122.82 E6.75287
G1 X49.063 Y121.697 E6.81249
G1 X48.445 Y120.707 E6.86683
G1 X47.715 Y119.679 E6.92554
G1 X46.983 Y118.758 E6.98032
G1 X46.175 Y117.858 E7.03664
G1 X45.314 Y117.007 E7.09301
G1 X44.423 Y116.218 E7.14843
G1 X43.441 Y115.447 E7.20657
G1 X42.486 Y114.78 E7.26081
G1 X41.436 Y114.138 E7.31811
G1 X40.39 Y113.576 E7.3734
G1 X39.273 Y113.06 E7.4307
G1 X38.167 Y112.62 E7.48612
G1 X37.026 Y112.24 E7.54212
G1 X35.68 Y111.882 E7.60698
G1 X35.669 Y111.892 E7.60767
G1 X34.649 Y111.682 E7.65616
G1 X33.452 Y111.507 E7.71249
G1 X32.264 Y111.404 E7.76802
G1 X31.249 Y111.375 E7.8153
G1 X31.249 Y113.133 E7.89716
G1 X32.154 Y113.16 E7.93932
G1 X33.257 Y113.258 E7.99088
G1 X34.364 Y113.419 E8.04297
G1 X35.436 Y113.638 E8.09392
G1 X36.519 Y113.929 E8.14614
G1 X37.554 Y114.27 E8.19688
G1 X38.597 Y114.682 E8.2491
G1 X39.591 Y115.143 E8.30012
G1 X40.577 Y115.673 E8.35224
G1 X41.518 Y116.251 E8.40366
G1 X42.428 Y116.882 E8.45523
G1 X43.289 Y117.562 E8.50631
G1 X44.133 Y118.309 E8.5588
G1 X44.905 Y119.074 E8.6094
G1 X45.649 Y119.903 E8.66127
G1 X46.344 Y120.78 E8.71338
G1 X46.983 Y121.68 E8.76477
G1 X47.56 Y122.608 E8.81566
G1 X48.097 Y123.598 E8.8681
G1 X48.566 Y124.589 E8.91915
G1 X48.978 Y125.612 E8.97051
G1 X49.337 Y126.679 E9.02293
G1 X49.624 Y127.726 E9.07348
G1 X49.859 Y128.82 E9.12558
G1 X49.914 Y129.281 E9.1472
G1 X49.846 Y129.401 E9.15362
G1 X49.751 Y129.445 E9.1585
G1 X46.248 Y129.448 E9.32161
G1 X46.248 Y132.048 E9.44268
G1 X73.848 Y132.048 E10.72785
G1 F1500 E4.22785
G0 F6000 X73.578 Y131.78
G0 X73.276 Y130.02
G0 X51.557 Y129.68
G0 X49.443 Y122.886
G0 X46.548 Y119.114
G0 X44.942 Y117.427
G0 X43.12 Y115.907
G0 X41.135 Y114.613
G0 X39.027 Y113.566
G0 X36.856 Y112.775
G0 X34.542 Y112.233
G0 X32.223 Y111.965
G0 X31.823 Y111.966
G0 X31.75 Y112.279
G0 X32.126 Y112.279
;TYPE:SKIN
G1 F1500 E10.72785
G1 F752.4 X33.366 Y112.383 E10.82027
G1 F754.7 X34.564 Y112.561 E10.90994
G1 X35.548 Y112.76 E10.98427
G1 F750 X36.804 Y113.096 E11.08113
G1 F751.2 X37.875 Y113.449 E11.16501
G1 F755.9 X38.97 Y113.885 E11.25214
G1 X39.975 Y114.351 E11.33403
G1 F751.2 X41.007 Y114.907 E11.42123
G1 F750 X42.011 Y115.521 E11.5089
G1 F752.4 X42.922 Y116.156 E11.59138
G1 F755.9 X43.861 Y116.892 E11.67957
G1 F754.7 X44.752 Y117.686 E11.76793
G1 F752.4 X45.533 Y118.457 E11.84944
G1 F753.5 X46.297 Y119.309 E11.9343
G1 F755.9 X47.031 Y120.233 E12.02153
G1 F754.7 X47.7 Y121.176 E12.10713
G1 F752.4 X48.313 Y122.157 E12.19304
G1 X48.897 Y123.228 E12.28364
G1 X49.376 Y124.249 E12.3674
G1 F748.8 X49.808 Y125.321 E12.45365
G1 F746.5 X50.161 Y126.37 E12.53649
G1 X50.476 Y127.512 E12.62517
G1 F750 X50.714 Y128.639 E12.71098
G1 F733.9 X50.812 Y129.247 E12.75787
G0 F6000 X51.204 Y129.185
G0 X51.557 Y129.68
G0 X73.276 Y130.02
G0 X73.276 Y131.476
G0 X73.088 Y131.288
G1 F1200 X47.008 Y131.288 E13.97226
G1 X47.008 Y130.208 E14.02255
G1 X49.871 Y130.206 E14.15587
G1 X50.338 Y129.977 E14.18008
G1 X50.491 Y129.808 E14.1907
G1 F895.5 X50.812 Y129.247 E14.23103
G1 X51.14 Y129.804 E14.27136
G1 F1200 X51.316 Y129.992 E14.28335
G1 X51.894 Y130.208 E14.31209
G1 X73.088 Y130.208 E15.29897
G1 X73.088 Y131.288 E15.34926
G0 F6000 X72.708 Y130.408
G1 F1200 X72.888 Y130.588 E15.36111
G0 F6000 X72.822 Y131.088
G1 F1200 X72.143 Y130.408 E15.40586
G0 F6000 X71.577 Y130.408
G1 F1200 X72.256 Y131.088 E15.4506
G0 F6000 X71.691 Y131.088
G1 F1200 X71.011 Y130.408 E15.49538
G0 F6000 X70.446 Y130.408
G1 F1200 X71.125 Y131.088 E15.54013
G0 F6000 X70.559 Y131.088
G1 F1200 X69.88 Y130.408 E15.58487
G0 F6000 X69.314 Y130.408
G1 F1200 X69.994 Y131.088 E15.62965
G0 F6000 X69.428 Y131.088
G1 F1200 X68.748 Y130.408 E15.67443
G0 F6000 X68.183 Y130.408
G1 F1200 X68.862 Y131.088 E15.71918
G0 F6000 X68.297 Y131.088
G1 F1200 X67.617 Y130.408 E15.76396
G0 F6000 X67.051 Y130.408
G1 F1200 X67.731 Y131.088 E15.80874
G0 F6000 X67.165 Y131.088
G1 F1200 X66.486 Y130.408 E15.85348
G0 F6000 X65.92 Y130.408
G1 F1200 X66.6 Y131.088 E15.89826
G0 F6000 X66.034 Y131.088
G1 F1200 X65.354 Y130.408 E15.94304
G0 F6000 X64.789 Y130.408
G1 F1200 X65.468 Y131.088 E15.98779
G0 F6000 X64.903 Y131.088
G1 F1200 X64.223 Y130.408 E16.03257
G0 F6000 X63.657 Y130.408
G1 F1200 X64.337 Y131.088 E16.07735
G0 F6000 X63.771 Y131.088
G1 F1200 X63.092 Y130.408 E16.12209
G0 F6000 X62.526 Y130.408
G1 F1200 X63.205 Y131.088 E16.16684
G0 F6000 X62.64 Y131.088
G1 F1200 X61.96 Y130.408 E16.21162
G0 F6000 X61.395 Y130.408
G1 F1200 X62.074 Y131.088 E16.25636
G0 F6000 X61.508 Y131.088
G1 F1200 X60.829 Y130.408 E16.30111
G0 F6000 X60.263 Y130.408
G1 F1200 X60.943 Y131.088 E16.34589
G0 F6000 X60.377 Y131.088
G1 F1200 X59.697 Y130.408 E16.39067
G0 F6000 X59.132 Y130.408
G1 F1200 X59.811 Y131.088 E16.43541
G0 F6000 X59.246 Y131.088
G1 F1200 X58.566 Y130.408 E16.48019
G0 F6000 X58 Y130.408
G1 F1200 X58.68 Y131.088 E16.52497
G0 F6000 X58.114 Y131.088
G1 F1200 X57.435 Y130.408 E16.56972
G0 F6000 X56.869 Y130.408
G1 F1200 X57.549 Y131.088 E16.6145
G0 F6000 X56.983 Y131.088
G1 F1200 X56.303 Y130.408 E16.65928
G0 F6000 X55.738 Y130.408
G1 F1200 X56.417 Y131.088 E16.70402
G0 F6000 X55.852 Y131.088
G1 F1200 X55.172 Y130.408 E16.7488
G0 F6000 X54.606 Y130.408
G1 F1200 X55.286 Y131.088 E16.79358
G0 F6000 X54.72 Y131.088
G1 F1200 X54.041 Y130.408 E16.83833
G0 F6000 X53.475 Y130.408
G1 F1200 X54.154 Y131.088 E16.88307
G0 F6000 X53.589 Y131.088
G1 F1200 X52.909 Y130.408 E16.92785
G0 F6000 X52.344 Y130.408
G1 F1200 X53.023 Y131.088 E16.9726
G0 F6000 X52.457 Y131.088
G1 F1200 X51.73 Y130.36 E17.02051
G0 F6000 X51.892 Y131.088
G1 F1200 X50.69 Y129.886 E17.09966
G0 F6000 X50.41 Y130.172
G1 F1200 X51.326 Y131.088 E17.15998
G0 F6000 X50.76 Y131.088
G1 F1200 X50.027 Y130.354 E17.20828
G0 F6000 X49.511 Y130.404
G1 F1200 X50.195 Y131.088 E17.25333
G0 F6000 X49.629 Y131.088
G1 F1200 X48.947 Y130.405 E17.29827
G0 F6000 X48.382 Y130.406
G1 F1200 X49.063 Y131.088 E17.34315
G0 F6000 X48.498 Y131.088
G1 F1200 X47.817 Y130.407 E17.38799
G0 F6000 X47.252 Y130.407
G1 F1200 X47.932 Y131.088 E17.4328
G0 F6000 X47.366 Y131.088
G1 F1200 X47.208 Y130.929 E17.44324
G1 F1500 E10.94324
G0 F6000 X47.208 Y131.548
G0 X73.628 Y131.548
G0 X74.713 Y131.548
G0 X85.383 Y131.548
G0 X110 Y131.648
;TYPE:WALL-INNER
G1 F1500 E17.44324
G1 F1200 X113.448 Y131.648 E17.6038
G1 X113.448 Y129.848 E17.68761
G1 X91.992 Y129.848 E18.68669
G1 X91.605 Y129.707 E18.70587
G1 X91.488 Y129.575 E18.71409
G1 X91.395 Y129.316 E18.7269
G1 X91.32 Y128.65 E18.75811
G1 X91.226 Y127.965 E18.7903
G1 X90.996 Y126.595 E18.85499
G1 X90.681 Y125.117 E18.92536
G1 X90.307 Y123.713 E18.99301
G1 X89.83 Y122.221 E19.06595
G1 X89.293 Y120.792 E19.13703
G1 X88.702 Y119.435 E19.20595
G1 X88.022 Y118.058 E19.27746
G1 X87.294 Y116.757 E19.34688
G1 X86.508 Y115.492 E19.41623
G1 X85.604 Y114.194 E19.48989
G1 X84.723 Y113.054 E19.55697
G1 X83.745 Y111.909 E19.62709
G1 X82.707 Y110.809 E19.69752
G1 X81.683 Y109.813 E19.76403
G1 X80.505 Y108.789 E19.83671
G1 X79.295 Y107.834 E19.90849
G1 X78.091 Y106.98 E19.97722
G1 X76.782 Y106.146 E20.0495
G1 X75.512 Y105.42 E20.11761
G1 X74.167 Y104.738 E20.18783
G1 X72.79 Y104.122 E20.25808
G1 X71.377 Y103.573 E20.32866
G1 X69.959 Y103.102 E20.39824
G1 X68.496 Y102.692 E20.46899
G1 X67.035 Y102.363 E20.53872
G1 X65.547 Y102.102 E20.60906
G1 X64.065 Y101.922 E20.67858
G1 X62.52 Y101.807 E20.75072
G1 X61.649 Y101.785 E20.79129
G1 X61.649 Y102.742 E20.83585
G1 X62.526 Y102.765 E20.8767
G1 X63.97 Y102.874 E20.94413
G1 X65.416 Y103.052 E21.01197
G1 X66.857 Y103.306 E21.08011
G1 X68.287 Y103.629 E21.14837
G1 X69.698 Y104.026 E21.21662
G1 X71.081 Y104.488 E21.28452
G1 X72.442 Y105.016 E21.3525
G1 X73.76 Y105.608 E21.41978
G1 X75.078 Y106.278 E21.48862
G1 X76.332 Y106.995 E21.55588
G1 X77.549 Y107.774 E21.62317
G1 X78.746 Y108.622 E21.69147
G1 X79.894 Y109.53 E21.75963
G1 X80.982 Y110.474 E21.8267
G1 X82.057 Y111.515 E21.89638
G1 X83.049 Y112.568 E21.96375
G1 X83.992 Y113.678 E22.03157
G1 X84.893 Y114.849 E22.10037
G1 X85.71 Y116.025 E22.16704
G1 X86.497 Y117.289 E22.23638
G1 X87.194 Y118.549 E22.30343
G1 X87.843 Y119.861 E22.37158
G1 X88.417 Y121.185 E22.43878
G1 X88.94 Y122.586 E22.50841
G1 X89.375 Y123.961 E22.57557
G1 X89.751 Y125.366 E22.64329
G1 X90.056 Y126.793 E22.71124
G1 X90.295 Y128.233 E22.77921
G1 X90.333 Y128.704 E22.80121
G1 X90.41 Y129.279 E22.82822
G1 X90.304 Y129.575 E22.84286
G1 X90.187 Y129.707 E22.85108
G1 X89.885 Y129.848 E22.8666
G1 X86.648 Y129.848 E23.01733
G1 X86.648 Y131.648 E23.10114
G1 X110 Y131.648 E24.18851
G0 F6000 X110 Y132.048
;TYPE:WALL-OUTER
G1 F1200 X113.848 Y132.048 E24.36769
G1 X113.848 Y129.448 E24.48875
G1 X91.992 Y129.448 E25.50646
G1 X91.863 Y129.401 E25.51285
G1 X91.793 Y129.271 E25.51973
G1 X91.716 Y128.596 E25.55136
G1 X91.62 Y127.899 E25.58413
G1 X91.388 Y126.512 E25.64961
G1 X91.068 Y125.014 E25.72093
G1 X90.678 Y123.558 E25.79112
G1 X90.205 Y122.081 E25.86334
G1 X89.678 Y120.675 E25.93326
G1 X89.07 Y119.277 E26.00424
G1 X88.372 Y117.864 E26.07763
G1 X87.634 Y116.546 E26.14796
G1 X86.836 Y115.264 E26.21828
G1 X85.921 Y113.95 E26.29284
G1 X85.04 Y112.81 E26.35993
G1 X84.037 Y111.635 E26.43186
G1 X83.001 Y110.537 E26.50215
G1 X81.964 Y109.528 E26.56953
G1 X80.752 Y108.474 E26.64432
G1 X79.527 Y107.508 E26.71696
G1 X78.307 Y106.643 E26.7866
G1 X77.024 Y105.824 E26.85748
G1 X75.693 Y105.063 E26.92887
G1 X74.331 Y104.373 E26.99996
G1 X72.954 Y103.757 E27.0702
G1 X71.524 Y103.201 E27.14165
G1 X70.077 Y102.72 E27.21265
G1 X68.606 Y102.307 E27.2838
G1 X67.105 Y101.969 E27.35544
G1 X65.606 Y101.706 E27.4263
G1 X64.104 Y101.524 E27.49676
G1 X62.565 Y101.408 E27.56862
G1 X61.249 Y101.374 E27.62992
G1 X61.249 Y103.132 E27.71178
G1 X62.496 Y103.164 E27.76986
G1 X63.933 Y103.273 E27.83697
G1 X65.347 Y103.446 E27.9033
G1 X66.769 Y103.696 E27.97053
G1 X68.179 Y104.015 E28.03785
G1 X69.572 Y104.406 E28.10522
G1 X70.937 Y104.861 E28.17222
G1 X72.278 Y105.381 E28.23919
G1 X73.579 Y105.965 E28.30559
G1 X74.88 Y106.626 E28.37354
G1 X76.116 Y107.331 E28.4398
G1 X77.34 Y108.116 E28.50751
G1 X78.516 Y108.951 E28.57467
G1 X79.632 Y109.832 E28.64087
G1 X80.728 Y110.784 E28.70847
G1 X81.766 Y111.79 E28.77578
G1 X82.745 Y112.826 E28.84215
G1 X83.675 Y113.922 E28.90909
G1 X84.565 Y115.077 E28.97698
G1 X85.386 Y116.262 E29.04411
G1 X86.147 Y117.483 E29.1111
G1 X86.836 Y118.727 E29.17732
G1 X87.476 Y120.02 E29.2445
G1 X88.048 Y121.341 E29.31153
G1 X88.559 Y122.707 E29.37944
G1 X88.989 Y124.064 E29.44573
G1 X89.36 Y125.45 E29.51254
G1 X89.662 Y126.859 E29.57963
G1 X89.9 Y128.3 E29.64764
G1 X89.935 Y128.746 E29.66847
G1 X89.999 Y129.271 E29.6931
G1 X89.929 Y129.401 E29.69998
G1 X89.835 Y129.445 E29.70481
G1 X86.248 Y129.448 E29.87183
G1 X86.248 Y132.048 E29.9929
G1 X110 Y132.048 E31.09889
G1 F1500 E24.59889
G0 F6000 X110 Y131.548
G0 X113.276 Y131.476
G0 X113.276 Y130.02
G0 X91.609 Y129.679
G0 X89.463 Y120.784
G0 X86.376 Y115.585
G0 X84.606 Y113.163
G0 X82.595 Y110.924
G0 X81.579 Y109.935
G0 X79.202 Y107.965
G0 X76.727 Y106.3
G0 X74.102 Y104.884
G0 X71.326 Y103.726
G0 X68.461 Y102.849
G0 X65.817 Y102.32
G0 X62.136 Y101.898
G0 X62.127 Y102.274
;TYPE:SKIN
G1 F1500 E31.09889
G1 F754.7 X62.564 Y102.287 E31.13126
G1 F753.5 X64.031 Y102.399 E31.24036
G1 F751.2 X65.465 Y102.573 E31.34781
G1 F750 X66.949 Y102.834 E31.46007
G1 F752.4 X68.398 Y103.16 E31.57038
G1 F755.9 X69.803 Y103.556 E31.67829
G1 F753.5 X71.267 Y104.046 E31.79277
G1 X72.63 Y104.573 E31.90113
G1 F754.7 X73.971 Y105.176 E32.00999
G1 F748.8 X75.315 Y105.861 E32.12255
G1 X76.572 Y106.58 E32.23061
G1 X77.814 Y107.373 E32.34056
G1 F747.7 X79.03 Y108.237 E32.45205
G1 F750 X80.214 Y109.171 E32.5644
G1 F747.7 X81.354 Y110.165 E32.67744
G1 X82.384 Y111.165 E32.78473
G1 F751.2 X83.391 Y112.23 E32.89375
G1 X84.354 Y113.361 E33.00425
G1 X85.29 Y114.582 E33.11869
G1 X86.126 Y115.787 E33.22779
G1 F754.7 X86.893 Y117.019 E33.33523
G1 X87.62 Y118.33 E33.44622
G1 F750 X88.272 Y119.646 E33.55564
G1 F747.7 X88.846 Y120.969 E33.66342
G1 F750 X89.388 Y122.412 E33.77826
G1 F748.8 X89.839 Y123.835 E33.88965
G1 F743 X90.211 Y125.223 E33.99771
G1 F747.7 X90.527 Y126.708 E34.11118
G1 F750 X90.771 Y128.185 E34.22271
G1 F738.5 X90.902 Y129.302 E34.30781
G0 F6000 X90.514 Y129.28
G0 X90.293 Y129.828
G0 X86.82 Y130.02
G0 X86.82 Y131.476
G0 X110 Y131.548
G0 X110 Y131.288
