;FLAVOR:Marlin
;TIME:2046
;Filament used: 1.20202m
;Layer height: 0.16
;MINX:68.2
;MINY:81.62
;MINZ:0.2
;MAXX:151.8
;MAXY:113.5
;MAXZ:3.8
;TARGET_MACHINE.NAME:Creality Ender-3 Pro
;Generated with Cura_SteamEngine 5.8.1
M82 ;absolute extrusion mode
; Ender 3 Custom Start G-code
G92 E0 ; Reset Extruder
G28 ; Home all axes
G1 Z5.0 F3000 ; Move Z Axis up a bit during heating to not damage bed
M104 S175 ; Start heating up the nozzle most of the way
M190 S67.0 ; Start heating the bed, wait until target temperature reached
M109 S215.0 ; Finish heating the nozzle
G1 Z2.0 F3000 ; Move Z Axis up little to prevent scratching of Heat Bed
G29;
G1 X0.1 Y20 Z0.3 F5000.0 ; Move to start position
G1 X0.1 Y200.0 Z0.3 F1500.0 E15 ; Draw the first line
G1 X0.4 Y200.0 Z0.3 F5000.0 ; Move to side a little
G1 X0.4 Y20 Z0.3 F1500.0 E30 ; Draw the second line
G92 E0 ; Reset Extruder
G1 Z2.0 F3000 ; Move Z Axis up little to prevent scratching of Heat Bed
G1 X5 Y20 Z0.3 F5000.0 ; Move over to prevent blob squish
G92 E0
G92 E0
G1 F1500 E-6.5
;LAYER_COUNT:19
;LAYER:0
M107
;MESH:nema 17 mount.stl(1)
G0 F6000 X69.957 Y83.371 Z0.2
;TYPE:WALL-INNER
G1 F1500 E0
G1 F1176.5 X70.409 Y82.948 E0.021
G1 F1179.4 X70.728 Y82.757 E0.03358
G1 F1194 X71.138 Y82.572 E0.04862
G1 X71.637 Y82.448 E0.06581
G1 F1170.7 X72.016 Y82.43 E0.07874
G1 F1173.6 X72.393 Y82.447 E0.09158
G1 F1188.1 X72.947 Y82.585 E0.11076
G1 F1182.3 X73.299 Y82.754 E0.12394
G1 F1179.4 X73.617 Y82.944 E0.13647
G1 X74.064 Y83.359 E0.15712
G0 F6000 X74.488 Y84.514
G0 X74.564 Y85.123
G0 X74.503 Y85.616
G0 X74.062 Y86.885
G1 F1182.3 X73.623 Y87.293 E0.17735
G1 F1176.5 X73.299 Y87.487 E0.19016
G1 F1182.3 X72.938 Y87.661 E0.20369
G1 X72.399 Y87.796 E0.22245
G1 F1167.9 X72.016 Y87.814 E0.23555
G1 X71.64 Y87.797 E0.24841
G1 F1188.1 X71.089 Y87.66 E0.26749
G1 X70.728 Y87.487 E0.28093
G1 F1182.3 X70.414 Y87.299 E0.29329
G1 X69.97 Y86.886 E0.31376
G0 F6000 X69.924 Y86.831
G1 F1025.6 X69.652 Y86.506 E0.33025
G1 F983.6 X69.517 Y86.246 E0.34214
G1 F1034.5 X69.392 Y85.774 E0.36098
G1 F1200 X69.337 Y85.12 E0.38281
G1 F1283.4 X69.393 Y84.454 E0.40359
G1 F1088.4 X69.534 Y83.961 E0.42239
G1 F977.6 X69.652 Y83.737 E0.43273
G1 F1021.3 X69.923 Y83.412 E0.44927
G1 X69.573 Y83.626 E0.4653
G1 F977.6 X69.322 Y83.665 E0.47567
G1 F1030 X69.064 Y83.665 E0.48567
G1 F1159.4 X68.994 Y84.562 E0.51664
G1 F1283.4 X68.979 Y85.12 E0.534
G1 F1276.6 X68.996 Y85.734 E0.5532
G1 F1148.3 X69.064 Y86.576 E0.58256
G1 F1034.5 X69.322 Y86.576 E0.59252
G1 F983.6 X69.574 Y86.615 E0.60287
G1 F1025.6 X69.924 Y86.831 E0.61887
G0 F6000 X71.115 Y87.503
G0 X71.712 Y87.65
G0 X72.896 Y87.572
G0 X72.826 Y87.28
G1 F1200 X72.276 Y87.406 E0.63764
G1 X71.76 Y87.406 E0.6548
G1 X71.205 Y87.281 E0.67372
G1 X70.724 Y87.027 E0.69181
G1 X70.3 Y86.658 E0.71051
G1 X69.97 Y86.186 E0.72966
G1 X69.783 Y85.676 E0.74773
G1 X69.71 Y85.121 E0.76635
G1 X69.782 Y84.565 E0.785
G1 X69.976 Y84.05 E0.8033
G1 X70.28 Y83.615 E0.82095
G1 X70.697 Y83.231 E0.8398
G1 X71.205 Y82.963 E0.85891
G1 X71.76 Y82.838 E0.87783
G1 X72.276 Y82.838 E0.89499
G1 X72.827 Y82.963 E0.91378
G1 X73.31 Y83.217 E0.93193
G1 X73.731 Y83.585 E0.95053
G1 X74.054 Y84.048 E0.96931
G1 X74.252 Y84.571 E0.98791
G1 X74.316 Y85.12 E1.00629
G1 X74.252 Y85.673 E1.02481
G1 X74.054 Y86.197 E1.04344
G1 X73.752 Y86.63 E1.061
G1 X73.336 Y87.008 E1.07969
G1 X72.826 Y87.28 E1.09892
G0 F6000 X72.896 Y87.572
G0 X74.418 Y86.786
G0 X100.617 Y86.786
G0 X100.947 Y86.852
G1 F1197 X100.624 Y86.389 E1.11774
G1 F1200 X100.391 Y85.775 E1.13958
G1 X100.308 Y85.121 E1.16151
G1 X100.391 Y84.464 E1.18353
G1 F1197 X100.618 Y83.867 E1.20483
G1 F1188.1 X100.941 Y83.395 E1.22404
G1 F1194 X100.56 Y83.583 E1.23825
G1 F1200 X100.321 Y83.62 E1.24629
G1 X74.714 Y83.62 E2.09798
G1 X74.472 Y83.583 E2.10612
G1 F1194 X74.087 Y83.393 E2.12048
G1 F1191.1 X74.413 Y83.864 E2.13967
G1 F1197 X74.641 Y84.47 E2.16126
G1 F1200 X74.725 Y85.122 E2.18312
G1 X74.64 Y85.776 E2.20506
G1 X74.409 Y86.388 E2.22682
G1 F1194 X74.086 Y86.851 E2.24569
G1 X74.47 Y86.657 E2.26007
G1 F1200 X74.712 Y86.62 E2.26821
G1 X100.32 Y86.62 E3.11994
G1 X100.562 Y86.657 E3.12808
G1 F1197 X100.947 Y86.852 E3.14247
G0 F6000 X100.97 Y86.885
G1 F1188.1 X101.407 Y87.294 E3.16257
G1 F1182.3 X101.733 Y87.489 E3.1754
G1 F1188.1 X102.089 Y87.66 E3.18867
G1 F1185.2 X102.644 Y87.797 E3.20792
G1 F1167.9 X103.016 Y87.814 E3.22064
G1 X103.399 Y87.796 E3.23375
G1 F1182.3 X103.938 Y87.661 E3.2525
G1 X104.299 Y87.487 E3.26603
G1 F1176.5 X104.623 Y87.293 E3.27884
G1 F1182.3 X105.062 Y86.885 E3.29908
G0 F6000 X104.139 Y87.385
G0 X103.276 Y87.711
G0 X103.276 Y87.406
G1 F1200 X102.729 Y87.406 E3.31727
G1 X102.198 Y87.277 E3.33545
G1 X101.724 Y87.028 E3.35325
G1 X101.3 Y86.658 E3.37197
G1 X100.978 Y86.197 E3.39067
G1 X100.779 Y85.668 E3.40947
G1 X100.716 Y85.12 E3.42782
G1 X100.78 Y84.568 E3.4463
G1 X100.976 Y84.05 E3.46472
G1 X101.28 Y83.615 E3.48237
G1 X101.696 Y83.232 E3.50118
G1 X102.206 Y82.963 E3.52036
G1 X102.76 Y82.838 E3.53925
G1 X103.276 Y82.838 E3.55641
G1 X103.827 Y82.963 E3.5752
G1 X104.31 Y83.217 E3.59335
G1 X104.731 Y83.585 E3.61195
G1 X105.054 Y84.048 E3.63073
G1 X105.252 Y84.571 E3.64933
G1 X105.316 Y85.12 E3.66771
G1 X105.252 Y85.673 E3.68622
G1 X105.054 Y86.197 E3.70486
G1 X104.752 Y86.63 E3.72241
G1 X104.336 Y87.008 E3.74111
G1 X103.826 Y87.28 E3.76033
G1 X103.276 Y87.406 E3.7791
G0 F6000 X103.276 Y87.711
G0 X103.922 Y87.503
G0 X104.463 Y87.217
G0 X104.922 Y86.812
G0 X105.272 Y86.305
G0 X105.488 Y85.732
G0 X105.564 Y85.123
G0 X105.503 Y84.63
G0 X105.064 Y83.359
G1 F1179.4 X104.617 Y82.944 E3.79974
G1 X104.299 Y82.754 E3.81228
G1 F1182.3 X103.947 Y82.585 E3.82546
G1 F1188.1 X103.393 Y82.447 E3.84464
G1 F1173.6 X103.016 Y82.43 E3.85747
G1 F1170.7 X102.638 Y82.448 E3.87038
G1 F1182.3 X102.088 Y82.584 E3.8895
G1 F1179.4 X101.733 Y82.754 E3.90282
G1 F1176.5 X101.417 Y82.942 E3.9153
G1 X100.957 Y83.371 E3.93664
G0 F6000 X102.116 Y82.743
G0 X102.712 Y82.597
G0 X103.324 Y82.597
G0 X103.921 Y82.743
G0 X104.463 Y83.029
G0 X104.922 Y83.435
G0 X105.272 Y83.94
G0 X105.816 Y85.673
G0 X105.58 Y86.442
G0 X110 Y86.62
G1 F1200 X110.5 Y86.62 E3.95327
G1 X110.843 Y86.68 E3.96485
G1 F1165 X111.233 Y86.922 E3.98057
G1 F975.6 X111.466 Y87.133 E3.99343
G1 X111.488 Y86.82 E4.00627
G1 F1165 X111.5 Y86.22 E4.02683
G1 F1200 X111.5 Y84.02 E4.1
G1 F1165 X111.488 Y83.42 E4.12056
G1 F975.6 X111.466 Y83.107 E4.13339
G1 X111.233 Y83.318 E4.14625
G1 F1165 X110.843 Y83.56 E4.16198
G1 F1200 X110.5 Y83.62 E4.17356
G1 X105.714 Y83.62 E4.33274
G1 X105.472 Y83.583 E4.34088
G1 F1194 X105.087 Y83.393 E4.35523
G1 F1191.1 X105.413 Y83.864 E4.37443
G1 F1197 X105.641 Y84.47 E4.39602
G1 F1200 X105.725 Y85.122 E4.41788
G1 X105.64 Y85.776 E4.43982
G1 X105.409 Y86.388 E4.46158
G1 F1194 X105.086 Y86.851 E4.48045
G1 X105.47 Y86.657 E4.49483
G1 F1200 X105.712 Y86.62 E4.50297
G1 X110 Y86.62 E4.64559
G0 F6000 X111.328 Y86.795
G0 X111.466 Y87.133
G1 F737.3 X111.672 Y87.648 E4.67561
G1 F731.7 X112.086 Y87.734 E4.69868
G1 F987.7 X112.5 Y87.82 E4.71577
G1 F1194 X131.073 Y87.82 E5.33659
G1 F1182.3 X149.646 Y87.82 E5.9636
G1 F975.6 X149.987 Y87.734 E5.97799
G1 F727.3 X150.328 Y87.648 E5.99729
G1 F733.9 X150.534 Y87.133 E6.02745
G1 F895.5 X150.839 Y86.815 E6.04709
G1 F1004.2 X150.975 Y86.77 E6.05278
G1 F1066.7 X150.975 Y83.47 E6.17626
G1 F1004.2 X150.839 Y83.425 E6.18195
G1 F895.5 X150.534 Y83.107 E6.20159
G1 F946.7 X150.525 Y83.62 E6.22322
G1 F1066.7 X150.525 Y86.62 E6.33548
G1 F946.7 X150.534 Y87.133 E6.35711
G0 F6000 X150.534 Y83.107
G1 F733.9 X150.328 Y82.592 E6.38727
G1 F729.5 X149.914 Y82.506 E6.4104
G1 F987.7 X149.5 Y82.42 E6.42749
G1 F1194 X130.927 Y82.42 E7.04832
G1 F1182.3 X112.354 Y82.42 E7.67533
G1 F975.6 X112.013 Y82.506 E7.68971
G1 F729.5 X111.672 Y82.592 E7.70895
G1 F737.3 X111.466 Y83.107 E7.73898
G0 F6000 X111.319 Y86.782
G0 X110 Y86.723
G0 X110 Y87.02
G1 F1200 X110.5 Y87.02 E7.75561
G1 X110.706 Y87.056 E7.76257
G1 X110.935 Y87.206 E7.77167
G1 X111.037 Y87.349 E7.77751
G1 X111.1 Y87.62 E7.78677
G1 X111.101 Y88.219 E7.80669
G1 X150.9 Y88.22 E9.13041
G1 X150.9 Y87.62 E9.15037
G1 X150.964 Y87.349 E9.15963
G1 X151.14 Y87.14 E9.16871
G1 X151.4 Y87.053 E9.17783
G1 X151.4 Y83.187 E9.30642
G1 X151.14 Y83.1 E9.31554
G1 X150.964 Y82.891 E9.32462
G1 X150.9 Y82.62 E9.33389
G1 X150.9 Y82.02 E9.35384
G1 X111.101 Y82.021 E10.67756
G1 X111.1 Y82.62 E10.69748
G1 X111.037 Y82.891 E10.70674
G1 X110.935 Y83.034 E10.71258
G1 X110.706 Y83.184 E10.72169
G1 X110.5 Y83.22 E10.72864
G1 X105.623 Y83.22 E10.89085
G1 X105.375 Y83.094 E10.9001
G1 X104.921 Y82.679 E10.92056
G1 X104.492 Y82.398 E10.93762
G1 X104.028 Y82.194 E10.95448
G1 X103.52 Y82.066 E10.9719
G1 X103.016 Y82.023 E10.98872
G1 X102.512 Y82.067 E11.00555
G1 X102.004 Y82.194 E11.02297
G1 X101.54 Y82.397 E11.03981
G1 X101.111 Y82.68 E11.05691
G1 X100.657 Y83.094 E11.07734
G1 X100.409 Y83.22 E11.08659
G1 X74.623 Y83.22 E11.94424
G1 X74.375 Y83.094 E11.95349
G1 X73.921 Y82.679 E11.97395
G1 X73.492 Y82.398 E11.99101
G1 X73.028 Y82.194 E12.00787
G1 X72.52 Y82.066 E12.02529
G1 X72.016 Y82.023 E12.04211
G1 X71.512 Y82.067 E12.05894
G1 X71.008 Y82.194 E12.07623
G1 X70.535 Y82.401 E12.0934
G1 X70.11 Y82.679 E12.11029
G1 X69.657 Y83.094 E12.13072
G1 X69.409 Y83.22 E12.13998
G1 X68.6 Y83.22 E12.16688
G1 X68.6 Y87.02 E12.29327
G1 X69.409 Y87.02 E12.32018
G1 X69.658 Y87.147 E12.32948
G1 X70.111 Y87.565 E12.34998
G1 X70.536 Y87.842 E12.36685
G1 X71.008 Y88.05 E12.38401
G1 X71.513 Y88.178 E12.40133
G1 X72.016 Y88.222 E12.41813
G1 X72.52 Y88.178 E12.43495
G1 X73.027 Y88.05 E12.45235
G1 X73.492 Y87.843 E12.46928
G1 X73.925 Y87.561 E12.48646
G1 X74.374 Y87.147 E12.50678
G1 X74.623 Y87.02 E12.51607
G1 X100.409 Y87.02 E13.37372
G1 X100.658 Y87.147 E13.38302
G1 X101.107 Y87.561 E13.40333
G1 X101.54 Y87.843 E13.42051
G1 X102.005 Y88.05 E13.43744
G1 X102.512 Y88.177 E13.45483
G1 X103.016 Y88.222 E13.47166
G1 X103.52 Y88.178 E13.48848
G1 X104.027 Y88.05 E13.50588
G1 X104.492 Y87.843 E13.52281
G1 X104.925 Y87.561 E13.53999
G1 X105.374 Y87.147 E13.56031
G1 X105.623 Y87.02 E13.5696
G1 X110 Y87.02 E13.71518
G0 F6000 X110 Y86.723
G0 X111.328 Y86.795
G0 X111.6 Y87.245
G0 X112.075 Y87.245
G1 F1200 X111.964 Y87.091 E13.7215
G1 X111.9 Y86.82 E13.73076
G1 X111.9 Y83.42 E13.84384
G1 X111.964 Y83.149 E13.8531
G1 X112.075 Y82.995 E13.85942
G1 X112.411 Y82.82 E13.87202
G1 X149.5 Y82.82 E15.1056
G1 X149.924 Y82.996 E15.12087
G1 X150.037 Y83.149 E15.1272
G1 X150.1 Y83.42 E15.13645
G1 X150.1 Y86.82 E15.24954
G1 X150.037 Y87.091 E15.25879
G1 X149.924 Y87.244 E15.26512
G1 X149.589 Y87.42 E15.2777
G1 X112.5 Y87.42 E16.51129
G1 X112.075 Y87.245 E16.52657
G0 F6000 X112.358 Y86.962
;TYPE:WALL-OUTER
G1 F1200 X112.3 Y86.865 E16.53033
G1 X112.3 Y83.42 E16.64491
G1 X112.358 Y83.278 E16.65002
G1 X112.465 Y83.222 E16.65403
G1 X149.5 Y83.22 E17.88582
G1 X149.642 Y83.278 E17.89092
G1 X149.7 Y83.375 E17.89468
G1 X149.7 Y86.82 E18.00926
G1 X149.642 Y86.962 E18.01437
G1 X149.535 Y87.018 E18.01838
G1 X112.5 Y87.02 E19.25017
G1 X112.358 Y86.962 E19.25527
G1 F1500 E12.75527
G0 F6000 X111.6 Y86.962
G0 X111.38 Y86.827
G0 X110 Y86.723
G0 X110 Y87.42
G1 F1500 E19.25527
G1 F1200 X110.551 Y87.42 E19.2736
G1 X110.7 Y87.576 E19.28077
G1 X110.701 Y88.619 E19.31547
G1 X151.3 Y88.62 E20.66579
G1 X151.3 Y87.554 E20.70125
G1 X151.38 Y87.46 E20.70535
G1 X151.5 Y87.42 E20.70956
G1 X151.8 Y87.42 E20.71954
G1 X151.8 Y82.82 E20.87254
G1 X151.5 Y82.82 E20.88251
G1 X151.38 Y82.78 E20.88672
G1 X151.3 Y82.686 E20.89083
G1 X151.3 Y81.62 E20.92628
G1 X110.701 Y81.621 E22.27661
G1 X110.7 Y82.693 E22.31226
G1 X110.551 Y82.82 E22.31878
G1 X105.667 Y82.82 E22.48122
G1 X105.168 Y82.363 E22.50372
G1 X104.684 Y82.045 E22.52299
G1 X104.158 Y81.814 E22.54209
G1 X103.586 Y81.67 E22.56171
G1 X103.016 Y81.621 E22.58074
G1 X102.446 Y81.671 E22.59977
G1 X101.874 Y81.814 E22.61938
G1 X101.348 Y82.045 E22.63849
G1 X100.864 Y82.363 E22.65775
G1 X100.365 Y82.82 E22.68026
G1 X74.667 Y82.82 E23.53498
G1 X74.168 Y82.363 E23.55748
G1 X73.684 Y82.045 E23.57674
G1 X73.158 Y81.814 E23.59585
G1 X72.586 Y81.67 E23.61547
G1 X72.016 Y81.621 E23.6345
G1 X71.446 Y81.671 E23.65353
G1 X70.878 Y81.814 E23.67301
G1 X70.344 Y82.049 E23.69241
G1 X69.864 Y82.363 E23.71149
G1 X69.365 Y82.82 E23.734
G1 X68.2 Y82.82 E23.77274
G1 X68.2 Y87.42 E23.92574
G1 X69.367 Y87.42 E23.96456
G1 X69.864 Y87.881 E23.9871
G1 X70.344 Y88.195 E24.00618
G1 X70.878 Y88.43 E24.02558
G1 X71.446 Y88.574 E24.04507
G1 X72.016 Y88.623 E24.0641
G1 X72.586 Y88.574 E24.08313
G1 X73.158 Y88.43 E24.10275
G1 X73.684 Y88.195 E24.12191
G1 X74.172 Y87.877 E24.14128
G1 X74.665 Y87.42 E24.16364
G1 X100.367 Y87.42 E25.01849
G1 X100.86 Y87.877 E25.04085
G1 X101.348 Y88.195 E25.06022
G1 X101.874 Y88.43 E25.07939
G1 X102.446 Y88.573 E25.099
G1 X103.016 Y88.623 E25.11803
G1 X103.586 Y88.574 E25.13706
G1 X104.158 Y88.43 E25.15667
G1 X104.684 Y88.195 E25.17584
G1 X105.172 Y87.877 E25.19521
G1 X105.665 Y87.42 E25.21757
G1 X110 Y87.42 E25.36175
G1 F1500 E18.86175
G0 F6000 X110 Y86.723
G0 X105.418 Y86.786
G0 X104.962 Y87.197
G0 X103.242 Y87.711
G0 X103.242 Y87.008
G1 F1500 E25.36175
G1 F1200 X102.794 Y87.008 E25.37665
G1 X102.356 Y86.905 E25.39162
G1 X101.942 Y86.692 E25.4071
G1 X101.589 Y86.376 E25.42286
G1 X101.324 Y85.983 E25.43862
G1 X101.169 Y85.554 E25.4538
G1 X101.117 Y85.094 E25.46919
G1 X101.18 Y84.641 E25.4844
G1 X101.347 Y84.218 E25.49953
G1 X101.589 Y83.869 E25.51366
G1 X101.942 Y83.552 E25.52944
G1 X102.331 Y83.348 E25.54404
G1 X102.794 Y83.236 E25.55989
G1 X103.242 Y83.236 E25.57479
G1 X103.701 Y83.348 E25.5905
G1 X104.09 Y83.552 E25.60511
G1 X104.445 Y83.871 E25.62099
G1 X104.708 Y84.261 E25.63663
G1 X104.863 Y84.69 E25.6518
G1 X104.915 Y85.146 E25.66707
G1 X104.852 Y85.599 E25.68228
G1 X104.708 Y85.983 E25.69592
G1 X104.443 Y86.376 E25.71169
G1 X104.09 Y86.688 E25.72736
G1 X103.673 Y86.905 E25.74299
G1 X103.242 Y87.008 E25.75773
G1 F1500 E19.25773
G0 F6000 X103.242 Y87.711
G0 X101.256 Y87.374
G0 X100.617 Y86.786
G0 X74.418 Y86.786
G0 X72.839 Y87.586
G0 X72.673 Y86.905
G1 F1500 E25.75773
G1 F1200 X72.242 Y87.008 E25.77247
G1 X71.794 Y87.008 E25.78737
G1 X71.331 Y86.896 E25.80321
G1 X70.942 Y86.692 E25.81782
G1 X70.589 Y86.376 E25.83358
G1 X70.324 Y85.983 E25.84934
G1 X70.169 Y85.554 E25.86452
G1 X70.117 Y85.094 E25.87991
G1 X70.169 Y84.686 E25.89359
G1 X70.324 Y84.261 E25.90864
G1 X70.579 Y83.882 E25.92383
G1 X70.942 Y83.552 E25.94015
G1 X71.331 Y83.348 E25.95476
G1 X71.794 Y83.236 E25.9706
G1 X72.242 Y83.236 E25.9855
G1 X72.701 Y83.348 E26.00122
G1 X73.09 Y83.552 E26.01583
G1 X73.445 Y83.871 E26.0317
G1 X73.708 Y84.261 E26.04735
G1 X73.863 Y84.69 E26.06252
G1 X73.915 Y85.146 E26.07778
G1 X73.852 Y85.599 E26.09299
G1 X73.708 Y85.983 E26.10663
G1 X73.443 Y86.376 E26.1224
G1 X73.09 Y86.688 E26.13807
G1 X72.673 Y86.905 E26.1537
G0 F6000 X72.839 Y87.586
G0 X74.418 Y86.786
G0 X100.187 Y86.52
G0 X100.187 Y86.26
;TYPE:SKIN
G1 F1200 X74.842 Y86.26 E26.99668
G1 X74.94 Y86.003 E27.00583
G1 X75.011 Y85.702 E27.01612
G1 X75.086 Y85.115 E27.0358
G1 X75.011 Y84.541 E27.05505
G1 X74.943 Y84.256 E27.0648
G1 X74.841 Y83.98 E27.07458
G1 X100.188 Y83.98 E27.91763
G1 X100.093 Y84.223 E27.92631
G1 X100.017 Y84.538 E27.93708
G1 X99.944 Y85.117 E27.95649
G1 X100.017 Y85.713 E27.97647
G1 X100.092 Y86.007 E27.98656
G1 X100.187 Y86.26 E27.99555
G0 F6000 X100.187 Y86.52
G0 X100.272 Y84.601
G0 X99.817 Y84.543
G1 F1200 X99.455 Y84.181 E28.01257
G0 F6000 X98.889 Y84.181
G1 F1200 X99.754 Y85.046 E28.05326
G0 F6000 X99.809 Y85.667
G1 F1200 X98.323 Y84.181 E28.12316
G0 F6000 X97.758 Y84.181
G1 F1200 X99.636 Y86.06 E28.21152
