;FLAVOR:Marlin
;TIME:429
;Filament used: 0.269592m
;Layer height: 0.28
;MINX:95.847
;MINY:104.335
;MINZ:0.28
;MAXX:123.3
;MAXY:115.665
;MAXZ:7
;TARGET_MACHINE.NAME:Creality Ender-3 Pro
;Generated with Cura_SteamEngine 5.8.1
M82 ;absolute extrusion mode
; Ender 3 Custom Start G-code
G92 E0 ; Reset Extruder
G28 ; Home all axes
G1 Z5.0 F3000 ; Move Z Axis up a bit during heating to not damage bed
M104 S175 ; Start heating up the nozzle most of the way
M190 S67.0 ; Start heating the bed, wait until target temperature reached
M109 S207.0 ; Finish heating the nozzle
G1 Z2.0 F3000 ; Move Z Axis up little to prevent scratching of Heat Bed
G29;
G1 X0.1 Y20 Z0.3 F5000.0 ; Move to start position
G1 X0.1 Y200.0 Z0.3 F1500.0 E15 ; Draw the first line
G1 X0.4 Y200.0 Z0.3 F5000.0 ; Move to side a little
G1 X0.4 Y20 Z0.3 F1500.0 E30 ; Draw the second line
G92 E0 ; Reset Extruder
G1 Z2.0 F3000 ; Move Z Axis up little to prevent scratching of Heat Bed
G1 X5 Y20 Z0.3 F5000.0 ; Move over to prevent blob squish
G92 E0
G92 E0
G1 F1500 E-6.5
;LAYER_COUNT:25
;LAYER:0
M107
;MESH:pegTest v1.stl
G0 F6000 X110 Y114.4 Z0.28
;TYPE:WALL-INNER
G1 F1500 E0
G1 F1200 X122.9 Y114.4 E0.60068
G1 X122.9 Y105.6 E1.01044
G1 X97.1 Y105.6 E2.2118
G1 X97.1 Y114.4 E2.62156
G1 X110 Y114.4 E3.22224
G0 F6000 X110 Y114.8
;TYPE:WALL-OUTER
G1 F1200 X123.3 Y114.8 E3.84155
G1 X123.3 Y105.2 E4.28856
G1 X96.7 Y105.2 E5.52717
G1 X96.7 Y114.8 E5.97419
G1 X110 Y114.8 E6.59349
G0 F6000 X110 Y114.04
;TYPE:SKIN
G1 F1200 X97.46 Y114.04 E7.1774
G1 X97.46 Y105.96 E7.55364
G1 X122.54 Y105.96 E8.72147
G1 X122.54 Y114.04 E9.09771
G1 X110 Y114.04 E9.68163
G0 F6000 X110 Y114.3
G0 X97.272 Y114.228
G0 X97.2 Y113.499
G0 X97.66 Y113.499
G1 F1200 X98.001 Y113.84 E9.70408
G0 F6000 X98.566 Y113.84
G1 F1200 X97.66 Y112.933 E9.76378
G0 F6000 X97.66 Y112.368
G1 F1200 X99.132 Y113.84 E9.86071
G0 F6000 X99.698 Y113.84
G1 F1200 X97.66 Y111.802 E9.99492
G0 F6000 X97.66 Y111.236
G1 F1200 X100.263 Y113.84 E10.16636
G0 F6000 X100.829 Y113.84
G1 F1200 X97.66 Y110.671 E10.37504
G0 F6000 X97.66 Y110.105
G1 F1200 X101.395 Y113.84 E10.621
G0 F6000 X101.961 Y113.84
G1 F1200 X97.66 Y109.539 E10.90423
G0 F6000 X97.66 Y108.974
G1 F1200 X102.526 Y113.84 E11.22466
G0 F6000 X103.092 Y113.84
G1 F1200 X97.66 Y108.408 E11.58237
G0 F6000 X97.66 Y107.842
G1 F1200 X103.658 Y113.84 E11.97735
G0 F6000 X104.223 Y113.84
G1 F1200 X97.66 Y107.277 E12.40953
G0 F6000 X97.66 Y106.711
G1 F1200 X104.789 Y113.84 E12.87899
G0 F6000 X105.355 Y113.84
G1 F1200 X97.675 Y106.16 E13.38473
G0 F6000 X98.24 Y106.16
G1 F1200 X105.92 Y113.84 E13.89047
G0 F6000 X106.486 Y113.84
G1 F1200 X98.806 Y106.16 E14.39621
G0 F6000 X99.372 Y106.16
G1 F1200 X107.052 Y113.84 E14.90195
G0 F6000 X107.617 Y113.84
G1 F1200 X99.938 Y106.16 E15.40766
G0 F6000 X100.503 Y106.16
G1 F1200 X108.183 Y113.84 E15.9134
G0 F6000 X108.749 Y113.84
G1 F1200 X101.069 Y106.16 E16.41914
G0 F6000 X101.635 Y106.16
G1 F1200 X109.314 Y113.84 E16.92485
G0 F6000 X109.88 Y113.84
G1 F1200 X102.2 Y106.16 E17.43059
G0 F6000 X102.766 Y106.16
G1 F1200 X110.446 Y113.84 E17.93634
G0 F6000 X111.012 Y113.84
G1 F1200 X103.332 Y106.16 E18.44208
G0 F6000 X103.897 Y106.16
G1 F1200 X111.577 Y113.84 E18.94782
G0 F6000 X112.143 Y113.84
G1 F1200 X104.463 Y106.16 E19.45356
G0 F6000 X105.029 Y106.16
G1 F1200 X112.709 Y113.84 E19.9593
G0 F6000 X113.274 Y113.84
G1 F1200 X105.594 Y106.16 E20.46504
G0 F6000 X106.16 Y106.16
G1 F1200 X113.84 Y113.84 E20.97078
G0 F6000 X114.406 Y113.84
G1 F1200 X106.726 Y106.16 E21.47652
G0 F6000 X107.291 Y106.16
G1 F1200 X114.971 Y113.84 E21.98226
G0 F6000 X115.537 Y113.84
G1 F1200 X107.857 Y106.16 E22.48801
G0 F6000 X108.423 Y106.16
G1 F1200 X116.103 Y113.84 E22.99375
G0 F6000 X116.668 Y113.84
G1 F1200 X108.988 Y106.16 E23.49949
G0 F6000 X109.554 Y106.16
G1 F1200 X117.234 Y113.84 E24.00523
G0 F6000 X117.8 Y113.84
G1 F1200 X110.12 Y106.16 E24.51097
G0 F6000 X110.686 Y106.16
G1 F1200 X118.365 Y113.84 E25.01668
G0 F6000 X118.931 Y113.84
G1 F1200 X111.251 Y106.16 E25.52242
G0 F6000 X111.817 Y106.16
G1 F1200 X119.497 Y113.84 E26.02816
G0 F6000 X120.062 Y113.84
G1 F1200 X112.383 Y106.16 E26.53387
G0 F6000 X112.948 Y106.16
G1 F1200 X120.628 Y113.84 E27.03961
G0 F6000 X121.194 Y113.84
G1 F1200 X113.514 Y106.16 E27.54535
G0 F6000 X114.08 Y106.16
G1 F1200 X121.76 Y113.84 E28.05109
G0 F6000 X122.325 Y113.84
G1 F1200 X114.645 Y106.16 E28.55683
G0 F6000 X115.211 Y106.16
G1 F1200 X122.34 Y113.289 E29.02629
G0 F6000 X122.34 Y112.723
G1 F1200 X115.777 Y106.16 E29.45847
G0 F6000 X116.342 Y106.16
G1 F1200 X122.34 Y112.158 E29.85345
G0 F6000 X122.34 Y111.592
G1 F1200 X116.908 Y106.16 E30.21116
G0 F6000 X117.474 Y106.16
G1 F1200 X122.34 Y111.026 E30.53159
G0 F6000 X122.34 Y110.461
G1 F1200 X118.039 Y106.16 E30.81482
G0 F6000 X118.605 Y106.16
G1 F1200 X122.34 Y109.895 E31.06078
G0 F6000 X122.34 Y109.329
G1 F1200 X119.171 Y106.16 E31.26946
G0 F6000 X119.737 Y106.16
G1 F1200 X122.34 Y108.764 E31.44091
G0 F6000 X122.34 Y108.198
G1 F1200 X120.302 Y106.16 E31.57511
G0 F6000 X120.868 Y106.16
G1 F1200 X122.34 Y107.632 E31.67205
G0 F6000 X122.34 Y107.067
G1 F1200 X121.434 Y106.16 E31.73174
G0 F6000 X121.999 Y106.16
G1 F1200 X122.34 Y106.501 E31.7542
M104 S207
;MESH:NONMESH
G0 F300 X122.34 Y106.501 Z0.56
G0 F6000 X122.8 Y106.501
G0 X122.728 Y114.228
G0 X110 Y114.4
;TIME_ELAPSED:44.001635
;LAYER:1
M106 S85
;TYPE:WALL-INNER
;MESH:pegTest v1.stl
G1 F1350 X122.9 Y114.4 E32.35487
G1 X122.9 Y105.6 E32.76464
G1 X97.1 Y105.6 E33.966
G1 X97.1 Y114.4 E34.37576
G1 X110 Y114.4 E34.97644
G0 F7500 X110 Y114.8
;TYPE:WALL-OUTER
G1 F1350 X123.3 Y114.8 E35.59574
G1 X123.3 Y105.2 E36.04276
G1 X96.7 Y105.2 E37.28137
G1 X96.7 Y114.8 E37.72838
G1 X110 Y114.8 E38.34769
G0 F7500 X110 Y114.04
;TYPE:SKIN
G1 F1350 X97.46 Y114.04 E38.9316
G1 X97.46 Y105.96 E39.30784
G1 X122.54 Y105.96 E40.47567
G1 X122.54 Y114.04 E40.85191
G1 X110 Y114.04 E41.43582
G0 F7500 X110 Y114.3
G0 X122.051 Y114.3
G0 X122.051 Y113.84
G1 F1350 X122.339 Y113.551 E41.45482
G0 F7500 X122.339 Y112.986
G1 F1350 X121.485 Y113.84 E41.51106
G0 F7500 X120.92 Y113.84
G1 F1350 X122.339 Y112.42 E41.60454
G0 F7500 X122.339 Y111.854
G1 F1350 X120.354 Y113.84 E41.73528
G0 F7500 X119.788 Y113.84
G1 F1350 X122.339 Y111.289 E41.90327
G0 F7500 X122.339 Y110.723
G1 F1350 X119.222 Y113.84 E42.10853
G0 F7500 X118.657 Y113.84
G1 F1350 X122.339 Y110.157 E42.35103
G0 F7500 X122.339 Y109.592
G1 F1350 X118.091 Y113.84 E42.63077
G0 F7500 X117.525 Y113.84
G1 F1350 X122.339 Y109.026 E42.94778
G0 F7500 X122.339 Y108.46
G1 F1350 X116.96 Y113.84 E43.30203
G0 F7500 X116.394 Y113.84
G1 F1350 X122.339 Y107.895 E43.69352
G0 F7500 X122.339 Y107.329
G1 F1350 X115.828 Y113.84 E44.12228
G0 F7500 X115.263 Y113.84
G1 F1350 X122.339 Y106.763 E44.58828
G0 F7500 X122.339 Y106.198
G1 F1350 X114.697 Y113.84 E45.09151
G0 F7500 X114.131 Y113.84
G1 F1350 X121.811 Y106.16 E45.59726
G0 F7500 X121.245 Y106.16
G1 F1350 X113.566 Y113.84 E46.10296
G0 F7500 X113 Y113.84
G1 F1350 X120.68 Y106.16 E46.60871
G0 F7500 X120.114 Y106.16
G1 F1350 X112.434 Y113.84 E47.11445
G0 F7500 X111.869 Y113.84
G1 F1350 X119.548 Y106.16 E47.62015
G0 F7500 X118.983 Y106.16
G1 F1350 X111.303 Y113.84 E48.1259
G0 F7500 X110.737 Y113.84
G1 F1350 X118.417 Y106.16 E48.63164
G0 F7500 X117.851 Y106.16
G1 F1350 X110.171 Y113.84 E49.13738
G0 F7500 X109.606 Y113.84
G1 F1350 X117.286 Y106.16 E49.64312
G0 F7500 X116.72 Y106.16
G1 F1350 X109.04 Y113.84 E50.14886
G0 F7500 X108.474 Y113.84
G1 F1350 X116.154 Y106.16 E50.6546
G0 F7500 X115.589 Y106.16
G1 F1350 X107.909 Y113.84 E51.16034
G0 F7500 X107.343 Y113.84
G1 F1350 X115.023 Y106.16 E51.66608
G0 F7500 X114.457 Y106.16
G1 F1350 X106.777 Y113.84 E52.17182
G0 F7500 X106.212 Y113.84
G1 F1350 X113.892 Y106.16 E52.67757
G0 F7500 X113.326 Y106.16
G1 F1350 X105.646 Y113.84 E53.18331
G0 F7500 X105.08 Y113.84
G1 F1350 X112.76 Y106.16 E53.68905
G0 F7500 X112.195 Y106.16
G1 F1350 X104.515 Y113.84 E54.19479
G0 F7500 X103.949 Y113.84
G1 F1350 X111.629 Y106.16 E54.70053
G0 F7500 X111.063 Y106.16
G1 F1350 X103.383 Y113.84 E55.20627
G0 F7500 X102.818 Y113.84
G1 F1350 X110.497 Y106.16 E55.71198
G0 F7500 X109.932 Y106.16
G1 F1350 X102.252 Y113.84 E56.21772
G0 F7500 X101.686 Y113.84
G1 F1350 X109.366 Y106.16 E56.72346
G0 F7500 X108.8 Y106.16
G1 F1350 X101.121 Y113.84 E57.22917
G0 F7500 X100.555 Y113.84
G1 F1350 X108.235 Y106.16 E57.73491
G0 F7500 X107.669 Y106.16
G1 F1350 X99.989 Y113.84 E58.24065
G0 F7500 X99.423 Y113.84
G1 F1350 X107.103 Y106.16 E58.74639
G0 F7500 X106.538 Y106.16
G1 F1350 X98.858 Y113.84 E59.25213
G0 F7500 X98.292 Y113.84
G1 F1350 X105.972 Y106.16 E59.75788
G0 F7500 X105.406 Y106.16
G1 F1350 X97.726 Y113.84 E60.26362
G0 F7500 X97.661 Y113.34
G1 F1350 X104.841 Y106.16 E60.73643
G0 F7500 X104.275 Y106.16
G1 F1350 X97.661 Y112.774 E61.17197
G0 F7500 X97.661 Y112.209
G1 F1350 X103.709 Y106.16 E61.57028
G0 F7500 X103.144 Y106.16
G1 F1350 X97.661 Y111.643 E61.93134
G0 F7500 X97.661 Y111.077
G1 F1350 X102.578 Y106.16 E62.25514
G0 F7500 X102.012 Y106.16
G1 F1350 X97.661 Y110.512 E62.54169
G0 F7500 X97.661 Y109.946
G1 F1350 X101.446 Y106.16 E62.79097
G0 F7500 X100.881 Y106.16
G1 F1350 X97.661 Y109.38 E63.00301
G0 F7500 X97.661 Y108.815
G1 F1350 X100.315 Y106.16 E63.17782
G0 F7500 X99.749 Y106.16
G1 F1350 X97.661 Y108.249 E63.31535
G0 F7500 X97.661 Y107.683
G1 F1350 X99.184 Y106.16 E63.41564
G0 F7500 X98.618 Y106.16
G1 F1350 X97.661 Y107.117 E63.47866
G0 F7500 X97.661 Y106.552
G1 F1350 X98.052 Y106.16 E63.50444
;MESH:NONMESH
G0 F300 X98.052 Y106.16 Z0.84
G0 F7500 X98.052 Y105.7
G0 X97.272 Y105.772
G0 X97.272 Y114.228
G0 X110 Y114.4
;TIME_ELAPSED:80.056148
;LAYER:2
M106 S170
;TYPE:WALL-INNER
;MESH:pegTest v1.stl
G1 F1500 X122.9 Y114.4 E64.10512
G1 X122.9 Y105.6 E64.51489
G1 X97.1 Y105.6 E65.71624
G1 X97.1 Y114.4 E66.12601
G1 X110 Y114.4 E66.72668
G0 F9000 X110 Y114.8
;TYPE:WALL-OUTER
G1 F1500 X123.3 Y114.8 E67.34599
G1 X123.3 Y105.2 E67.793
G1 X96.7 Y105.2 E69.03161
G1 X96.7 Y114.8 E69.47863
G1 X110 Y114.8 E70.09793
G0 F9000 X110 Y114.04
;TYPE:SKIN
G1 F1500 X97.46 Y114.04 E70.68185
G1 X97.46 Y105.96 E71.05809
G1 X122.54 Y105.96 E72.22591
G1 X122.54 Y114.04 E72.60215
G1 X110 Y114.04 E73.18607
G0 F9000 X110 Y114.3
G0 X97.272 Y114.228
G0 X97.2 Y113.499
G0 X97.66 Y113.499
G1 F1500 X98.001 Y113.84 E73.20852
G0 F9000 X98.566 Y113.84
G1 F1500 X97.66 Y112.933 E73.26822
G0 F9000 X97.66 Y112.368
G1 F1500 X99.132 Y113.84 E73.36515
G0 F9000 X99.698 Y113.84
G1 F1500 X97.66 Y111.802 E73.49936
G0 F9000 X97.66 Y111.236
G1 F1500 X100.263 Y113.84 E73.6708
G0 F9000 X100.829 Y113.84
G1 F1500 X97.66 Y110.671 E73.87949
G0 F9000 X97.66 Y110.105
G1 F1500 X101.395 Y113.84 E74.12544
G0 F9000 X101.961 Y113.84
G1 F1500 X97.66 Y109.539 E74.40867
G0 F9000 X97.66 Y108.974
G1 F1500 X102.526 Y113.84 E74.72911
G0 F9000 X103.092 Y113.84
G1 F1500 X97.66 Y108.408 E75.08681
G0 F9000 X97.66 Y107.842
G1 F1500 X103.658 Y113.84 E75.48179
G0 F9000 X104.223 Y113.84
G1 F1500 X97.66 Y107.277 E75.91398
G0 F9000 X97.66 Y106.711
G1 F1500 X104.789 Y113.84 E76.38343
G0 F9000 X105.355 Y113.84
G1 F1500 X97.675 Y106.16 E76.88917
G0 F9000 X98.24 Y106.16
G1 F1500 X105.92 Y113.84 E77.39491
G0 F9000 X106.486 Y113.84
G1 F1500 X98.806 Y106.16 E77.90066
G0 F9000 X99.372 Y106.16
G1 F1500 X107.052 Y113.84 E78.4064
G0 F9000 X107.617 Y113.84
G1 F1500 X99.938 Y106.16 E78.91211
G0 F9000 X100.503 Y106.16
G1 F1500 X108.183 Y113.84 E79.41785
G0 F9000 X108.749 Y113.84
G1 F1500 X101.069 Y106.16 E79.92359
G0 F9000 X101.635 Y106.16
G1 F1500 X109.314 Y113.84 E80.4293
G0 F9000 X109.88 Y113.84
G1 F1500 X102.2 Y106.16 E80.93504
G0 F9000 X102.766 Y106.16
G1 F1500 X110.446 Y113.84 E81.44078
G0 F9000 X111.012 Y113.84
G1 F1500 X103.332 Y106.16 E81.94652
G0 F9000 X103.897 Y106.16
G1 F1500 X111.577 Y113.84 E82.45226
G0 F9000 X112.143 Y113.84
G1 F1500 X104.463 Y106.16 E82.958
G0 F9000 X105.029 Y106.16
G1 F1500 X112.709 Y113.84 E83.46374
G0 F9000 X113.274 Y113.84
G1 F1500 X105.594 Y106.16 E83.96948
G0 F9000 X106.16 Y106.16
G1 F1500 X113.84 Y113.84 E84.47522
G0 F9000 X114.406 Y113.84
G1 F1500 X106.726 Y106.16 E84.98097
G0 F9000 X107.291 Y106.16
G1 F1500 X114.971 Y113.84 E85.48671
G0 F9000 X115.537 Y113.84
G1 F1500 X107.857 Y106.16 E85.99245
G0 F9000 X108.423 Y106.16
G1 F1500 X116.103 Y113.84 E86.49819
G0 F9000 X116.668 Y113.84
G1 F1500 X108.988 Y106.16 E87.00393
G0 F9000 X109.554 Y106.16
G1 F1500 X117.234 Y113.84 E87.50967
G0 F9000 X117.8 Y113.84
G1 F1500 X110.12 Y106.16 E88.01541
G0 F9000 X110.686 Y106.16
G1 F1500 X118.365 Y113.84 E88.52112
G0 F9000 X118.931 Y113.84
G1 F1500 X111.251 Y106.16 E89.02686
G0 F9000 X111.817 Y106.16
G1 F1500 X119.497 Y113.84 E89.5326
G0 F9000 X120.062 Y113.84
G1 F1500 X112.383 Y106.16 E90.03831
G0 F9000 X112.948 Y106.16
G1 F1500 X120.628 Y113.84 E90.54405
G0 F9000 X121.194 Y113.84
G1 F1500 X113.514 Y106.16 E91.04979
G0 F9000 X114.08 Y106.16
G1 F1500 X121.76 Y113.84 E91.55553
G0 F9000 X122.325 Y113.84
G1 F1500 X114.645 Y106.16 E92.06128
G0 F9000 X115.211 Y106.16
G1 F1500 X122.34 Y113.289 E92.53073
G0 F9000 X122.34 Y112.723
G1 F1500 X115.777 Y106.16 E92.96292
G0 F9000 X116.342 Y106.16
G1 F1500 X122.34 Y112.158 E93.3579
G0 F9000 X122.34 Y111.592
G1 F1500 X116.908 Y106.16 E93.7156
G0 F9000 X117.474 Y106.16
G1 F1500 X122.34 Y111.026 E94.03604
G0 F9000 X122.34 Y110.461
G1 F1500 X118.039 Y106.16 E94.31926
G0 F9000 X118.605 Y106.16
G1 F1500 X122.34 Y109.895 E94.56522
G0 F9000 X122.34 Y109.329
G1 F1500 X119.171 Y106.16 E94.7739
G0 F9000 X119.737 Y106.16
G1 F1500 X122.34 Y108.764 E94.94535
G0 F9000 X122.34 Y108.198
G1 F1500 X120.302 Y106.16 E95.07956
G0 F9000 X120.868 Y106.16
G1 F1500 X122.34 Y107.632 E95.17649
G0 F9000 X122.34 Y107.067
G1 F1500 X121.434 Y106.16 E95.23618
G0 F9000 X121.999 Y106.16
G1 F1500 X122.34 Y106.501 E95.25864
;MESH:NONMESH
G0 F300 X122.34 Y106.501 Z1.12
G0 F9000 X122.8 Y106.501
G0 X122.728 Y114.228
G0 X110 Y114.4
;TIME_ELAPSED:113.432750
;LAYER:3
M106 S255
;TYPE:WALL-INNER
;MESH:pegTest v1.stl
G1 F1500 X122.9 Y114.4 E95.85932
G1 X122.9 Y105.6 E96.26908
G1 X97.1 Y105.6 E97.47044
G1 X97.1 Y114.4 E97.8802
G1 X110 Y114.4 E98.48088
G0 F9000 X110 Y114.8
;TYPE:WALL-OUTER
G1 F1500 X123.3 Y114.8 E99.10018
G1 X123.3 Y105.2 E99.5472
G1 X96.7 Y105.2 E100.78581
G1 X96.7 Y114.8 E101.23282
G1 X110 Y114.8 E101.85213
G0 F9000 X110 Y114.04
;TYPE:SKIN
G1 F1500 X97.46 Y114.04 E102.43604
G1 X97.46 Y105.96 E102.81228
G1 X122.54 Y105.96 E103.98011
G1 X122.54 Y114.04 E104.35635
G1 X110 Y114.04 E104.94027
G0 F9000 X110 Y114.3
G0 X122.051 Y114.3
G0 X122.051 Y113.84
G1 F1500 X122.339 Y113.551 E104.95926
G0 F9000 X122.339 Y112.986
G1 F1500 X121.485 Y113.84 E105.0155
G0 F9000 X120.92 Y113.84
G1 F1500 X122.339 Y112.42 E105.10898
G0 F9000 X122.339 Y111.854
G1 F1500 X120.354 Y113.84 E105.23973
G0 F9000 X119.788 Y113.84
G1 F1500 X122.339 Y111.289 E105.40771
G0 F9000 X122.339 Y110.723
G1 F1500 X119.222 Y113.84 E105.61297
G0 F9000 X118.657 Y113.84
G1 F1500 X122.339 Y110.157 E105.85547
G0 F9000 X122.339 Y109.592
G1 F1500 X118.091 Y113.84 E106.13521
G0 F9000 X117.525 Y113.84
G1 F1500 X122.339 Y109.026 E106.45222
G0 F9000 X122.339 Y108.46
G1 F1500 X116.96 Y113.84 E106.80647
G0 F9000 X116.394 Y113.84
G1 F1500 X122.339 Y107.895 E107.19796
G0 F9000 X122.339 Y107.329
G1 F1500 X115.828 Y113.84 E107.62672
G0 F9000 X115.263 Y113.84
G1 F1500 X122.339 Y106.763 E108.09272
G0 F9000 X122.339 Y106.198
G1 F1500 X114.697 Y113.84 E108.59596
G0 F9000 X114.131 Y113.84
G1 F1500 X121.811 Y106.16 E109.1017
G0 F9000 X121.245 Y106.16
G1 F1500 X113.566 Y113.84 E109.60741
G0 F9000 X113 Y113.84
G1 F1500 X120.68 Y106.16 E110.11315
G0 F9000 X120.114 Y106.16
