;FLAVOR:Marlin
;TIME:10412
;Filament used: 7.00615m
;Layer height: 0.16
;MINX:72.7
;MINY:87.7
;MINZ:0.2
;MAXX:147.3
;MAXY:132.3
;MAXZ:17.96
;TARGET_MACHINE.NAME:Creality Ender-3 Pro
;Generated with Cura_SteamEngine 5.8.1
M82 ;absolute extrusion mode
; Ender 3 Custom Start G-code
G92 E0 ; Reset Extruder
G28 ; Home all axes
G1 Z5.0 F3000 ; Move Z Axis up a bit during heating to not damage bed
M104 S175 ; Start heating up the nozzle most of the way
M190 S67.0 ; Start heating the bed, wait until target temperature reached
M109 S215.0 ; Finish heating the nozzle
G1 Z2.0 F3000 ; Move Z Axis up little to prevent scratching of Heat Bed
G29;
G1 X0.1 Y20 Z0.3 F5000.0 ; Move to start position
G1 X0.1 Y200.0 Z0.3 F1500.0 E15 ; Draw the first line
G1 X0.4 Y200.0 Z0.3 F5000.0 ; Move to side a little
G1 X0.4 Y20 Z0.3 F1500.0 E30 ; Draw the second line
G92 E0 ; Reset Extruder
G1 Z2.0 F3000 ; Move Z Axis up little to prevent scratching of Heat Bed
G1 X5 Y20 Z0.3 F5000.0 ; Move over to prevent blob squish
G92 E0
G92 E0
G1 F1500 E-6.5
;LAYER_COUNT:105
;LAYER:0
M107
;MESH:vortex cannon.stl
G0 F6000 X110 Y120.992 Z0.2
;TYPE:WALL-INNER
G1 F1500 E0
G1 F1203 X108.79 Y120.932 E0.04019
G1 F1200 X107.762 Y120.768 E0.07482
G1 X106.645 Y120.475 E0.11323
G1 X105.574 Y120.071 E0.1513
G1 X104.456 Y119.5 E0.19305
G1 X103.485 Y118.864 E0.23166
G1 X102.596 Y118.136 E0.26988
G1 X101.86 Y117.4 E0.30449
G1 X101.134 Y116.509 E0.34272
G1 X100.469 Y115.495 E0.38305
G1 X99.95 Y114.471 E0.42124
G1 X99.521 Y113.351 E0.46113
G1 X99.237 Y112.283 E0.49788
G1 X99.061 Y111.152 E0.53595
G1 X99 Y110.001 E0.57429
G1 X99.061 Y108.844 E0.61282
G1 X99.237 Y107.713 E0.65089
G1 X99.521 Y106.645 E0.68765
G1 X99.95 Y105.525 E0.72754
G1 X100.469 Y104.501 E0.76572
G1 X101.134 Y103.487 E0.80606
G1 X101.86 Y102.596 E0.84428
G1 X102.596 Y101.86 E0.8789
G1 X103.487 Y101.134 E0.91713
G1 X104.548 Y100.443 E0.95924
G1 X105.571 Y99.931 E0.99729
G1 X106.645 Y99.522 E1.03551
G1 X107.747 Y99.23 E1.07343
G1 X108.794 Y99.067 E1.10867
G1 X110 Y99 E1.14885
G1 X111.202 Y99.067 E1.18889
G1 X112.23 Y99.227 E1.22349
G1 X113.453 Y99.555 E1.26561
G1 X114.516 Y99.971 E1.30357
G1 X115.448 Y100.443 E1.33832
G1 X116.509 Y101.134 E1.38043
G1 X117.4 Y101.86 E1.41866
G1 X118.136 Y102.596 E1.45328
G1 X118.928 Y103.572 E1.49508
G1 X119.5 Y104.456 E1.53011
G1 X120.05 Y105.526 E1.57012
G1 X120.475 Y106.645 E1.60993
G1 X120.759 Y107.711 E1.64662
G1 X120.939 Y108.844 E1.68478
G1 X120.996 Y110.001 E1.72331
G1 X120.939 Y111.152 E1.76164
G1 X120.759 Y112.285 E1.79979
G1 X120.475 Y113.351 E1.83649
G1 X120.071 Y114.422 E1.87456
G1 X119.5 Y115.54 E1.91631
G1 X118.865 Y116.511 E1.9549
G1 X118.136 Y117.4 E1.99314
G1 X117.4 Y118.136 E2.02776
G1 X116.424 Y118.928 E2.06956
G1 X115.54 Y119.5 E2.10458
G1 X114.519 Y120.027 E2.1428
G1 X113.351 Y120.474 E2.18439
G1 X112.249 Y120.766 E2.22231
G1 X111.098 Y120.943 E2.26104
G1 X110.05 Y120.995 E2.29594
G1 F1203 X110 Y120.992 E2.29761
G0 F6000 X110 Y120.594
G1 F1200 X108.853 Y120.537 E2.3358
G1 X107.764 Y120.36 E2.3725
G1 X106.689 Y120.069 E2.40954
G1 X105.659 Y119.671 E2.44627
G1 X104.727 Y119.195 E2.48107
G1 X103.737 Y118.554 E2.5203
G1 X102.879 Y117.853 E2.55715
G1 X102.143 Y117.117 E2.59177
G1 X101.445 Y116.258 E2.62858
G1 X100.815 Y115.296 E2.66683
G1 X100.328 Y114.336 E2.70263
G1 X99.924 Y113.299 E2.73965
G1 X99.628 Y112.2 E2.77751
G1 X99.456 Y111.081 E2.81516
G1 X99.4 Y109.968 E2.85223
G1 X99.456 Y108.916 E2.88726
G1 X99.628 Y107.796 E2.92495
G1 X99.916 Y106.722 E2.96194
G1 X100.328 Y105.66 E2.99982
G1 X100.8 Y104.728 E3.03457
G1 X101.445 Y103.738 E3.07387
G1 X102.143 Y102.879 E3.11068
G1 X102.879 Y102.143 E3.1453
G1 X103.738 Y101.445 E3.18212
G1 X104.728 Y100.8 E3.22142
G1 X105.66 Y100.328 E3.25616
G1 X106.748 Y99.908 E3.29495
G1 X107.816 Y99.624 E3.33171
G1 X108.916 Y99.456 E3.36872
G1 X110.033 Y99.4 E3.40592
G1 X111.08 Y99.456 E3.44079
G1 X112.232 Y99.636 E3.47957
G1 X113.309 Y99.928 E3.51669
G1 X114.336 Y100.328 E3.55334
G1 X115.268 Y100.8 E3.58809
G1 X116.258 Y101.445 E3.62739
G1 X117.117 Y102.143 E3.6642
G1 X117.853 Y102.879 E3.69882
G1 X118.554 Y103.737 E3.73567
G1 X119.195 Y104.727 E3.7749
G1 X119.685 Y105.688 E3.81078
G1 X120.081 Y106.722 E3.8476
G1 X120.367 Y107.794 E3.88451
G1 X120.544 Y108.918 E3.92235
G1 X120.596 Y110.03 E3.95938
G1 X120.537 Y111.143 E3.99645
G1 X120.372 Y112.18 E4.03137
G1 X120.081 Y113.274 E4.06902
G1 X119.685 Y114.308 E4.10585
G1 X119.195 Y115.269 E4.14173
G1 X118.554 Y116.259 E4.18096
G1 X117.853 Y117.117 E4.21781
G1 X117.117 Y117.853 E4.25243
G1 X116.259 Y118.554 E4.28928
G1 X115.269 Y119.195 E4.3285
G1 X114.279 Y119.697 E4.36542
G1 X113.307 Y120.069 E4.40004
G1 X112.171 Y120.373 E4.43915
G1 X111.078 Y120.544 E4.47595
G1 X110.03 Y120.596 E4.51085
G1 X110 Y120.594 E4.51185
G1 F1500 E-1.98815
G0 F6000 X109.984 Y120.899
G0 X110.06 Y121.175
G0 X110.06 Y131.3
G0 X110 Y131.5
G1 F1500 E4.51185
G1 F1200 X145.081 Y131.5 E5.67865
G1 X146.5 Y130.081 E5.74539
G1 X146.5 Y89.915 E7.08132
G1 X145.082 Y88.5 E7.14795
G1 X74.915 Y88.5 E9.48171
G1 X73.5 Y89.915 E9.54827
G1 X73.5 Y130.082 E10.88423
G1 X74.915 Y131.5 E10.95085
G1 X110 Y131.5 E12.11779
G0 F6000 X110 Y131.9
G1 F1200 X145.247 Y131.9 E13.29011
G1 X146.9 Y130.247 E13.36786
G1 X146.9 Y89.749 E14.71483
G1 X145.247 Y88.1 E14.79248
G1 X74.749 Y88.1 E17.13726
G1 X73.1 Y89.749 E17.21482
G1 X73.1 Y130.247 E18.56179
G1 X74.749 Y131.9 E18.63945
G1 X110 Y131.9 E19.8119
G0 F6000 X110 Y132.3
;TYPE:WALL-OUTER
G1 F1200 X145.413 Y132.3 E20.98974
G1 X147.3 Y130.413 E21.0785
G1 X147.3 Y89.583 E22.43651
G1 X145.413 Y87.7 E22.52518
G1 X74.583 Y87.7 E24.88099
G1 X72.7 Y89.583 E24.96956
G1 X72.7 Y130.413 E26.32757
G1 X74.583 Y132.3 E26.41624
G1 X110 Y132.3 E27.59421
G1 F1500 E21.09421
G0 F6000 X110 Y131.6
G0 X109.963 Y131.3
G0 X110.06 Y121.175
G0 X109.963 Y120.898
G0 X110 Y120.196
G1 F1500 E27.59421
G1 F1200 X108.916 Y120.142 E27.63031
G1 X107.868 Y119.974 E27.66561
G1 X106.852 Y119.702 E27.7006
G1 X105.841 Y119.315 E27.7366
G1 X104.909 Y118.839 E27.77141
G1 X103.989 Y118.244 E27.80785
G1 X103.177 Y117.584 E27.84265
G1 X102.426 Y116.834 E27.87795
G1 X101.744 Y115.99 E27.91405
G1 X101.157 Y115.087 E27.94987
G1 X100.677 Y114.137 E27.98527
G1 X100.294 Y113.144 E28.02067
G1 X100.018 Y112.107 E28.05636
G1 X99.856 Y111.059 E28.09163
G1 X99.8 Y109.989 E28.12727
G1 X99.858 Y108.917 E28.16297
G1 X100.022 Y107.868 E28.19829
G1 X100.301 Y106.831 E28.234
G1 X100.685 Y105.841 E28.26932
G1 X101.168 Y104.89 E28.3048
G1 X101.744 Y104.006 E28.33989
G1 X102.426 Y103.162 E28.37598
G1 X103.162 Y102.426 E28.4106
G1 X104.006 Y101.744 E28.44669
G1 X104.909 Y101.157 E28.48251
G1 X105.859 Y100.677 E28.51792
G1 X106.852 Y100.294 E28.55331
G1 X107.885 Y100.018 E28.58888
G1 X108.917 Y99.858 E28.62361
G1 X110.011 Y99.8 E28.66005
G1 X111.079 Y99.858 E28.69562
G1 X112.128 Y100.022 E28.73094
G1 X113.165 Y100.301 E28.76665
G1 X114.155 Y100.685 E28.80197
G1 X115.106 Y101.168 E28.83745
G1 X115.99 Y101.744 E28.87254
G1 X116.834 Y102.426 E28.90863
G1 X117.584 Y103.177 E28.94393
G1 X118.244 Y103.989 E28.97874
G1 X118.839 Y104.909 E29.01518
G1 X119.323 Y105.86 E29.05067
G1 X119.702 Y106.852 E29.08599
G1 X119.978 Y107.888 E29.12165
G1 X120.144 Y108.938 E29.157
G1 X120.196 Y110.01 E29.1927
G1 X120.142 Y111.08 E29.22834
G1 X119.974 Y112.128 E29.26364
G1 X119.695 Y113.164 E29.29932
G1 X119.315 Y114.155 E29.33462
G1 X118.839 Y115.087 E29.36943
G1 X118.244 Y116.007 E29.40587
G1 X117.584 Y116.819 E29.44067
G1 X116.819 Y117.584 E29.47666
G1 X116.007 Y118.244 E29.51146
G1 X115.087 Y118.839 E29.5479
G1 X114.155 Y119.315 E29.58271
G1 X113.144 Y119.702 E29.61872
G1 X112.108 Y119.978 E29.65437
G1 X111.08 Y120.142 E29.689
G1 X110.01 Y120.196 E29.72463
G1 X110 Y120.196 E29.72496
G1 F1500 E23.22496
G0 F6000 X109.963 Y120.898
G0 X110.06 Y121.175
G0 X110.06 Y131.3
G0 X110 Y131.14
;TYPE:SKIN
G1 F1500 E29.72496
G1 F1200 X75.064 Y131.14 E30.88694
G1 X73.86 Y129.929 E30.94374
G1 X73.86 Y90.063 E32.26969
G1 X75.063 Y88.86 E32.32627
G1 X144.929 Y88.86 E34.65002
G1 X146.14 Y90.064 E34.70682
G1 X146.14 Y129.929 E36.03274
G1 X144.929 Y131.14 E36.0897
G1 X110 Y131.14 E37.25144
G1 F1500 E30.75144
G0 F6000 X110 Y131.4
G0 X110.06 Y121.175
G0 X110 Y121.35
G1 F1500 E37.25144
G1 F1200 X110.047 Y121.352 E37.25301
G1 X111.201 Y121.294 E37.29144
G1 X112.42 Y121.094 E37.33252
G1 X113.444 Y120.822 E37.36776
G1 X114.603 Y120.384 E37.40897
G1 X115.608 Y119.871 E37.4465
G1 X116.672 Y119.193 E37.48846
G1 X117.561 Y118.475 E37.52647
G1 X118.389 Y117.655 E37.56523
G1 X119.175 Y116.695 E37.6065
G1 X119.81 Y115.717 E37.64528
G1 X120.374 Y114.629 E37.68604
G1 X120.799 Y113.52 E37.72554
G1 X121.118 Y112.324 E37.76671
G1 X121.294 Y111.199 E37.80459
G1 X121.352 Y110.067 E37.84229
G1 X121.296 Y108.814 E37.884
G1 X121.11 Y107.644 E37.9234
G1 X120.806 Y106.496 E37.9629
G1 X120.383 Y105.392 E38.00223
G1 X119.871 Y104.385 E38.0398
G1 X119.193 Y103.32 E38.08179
G1 X118.403 Y102.356 E38.12324
G1 X117.561 Y101.521 E38.16268
G1 X116.734 Y100.852 E38.19806
G1 X115.691 Y100.161 E38.23968
G1 X114.565 Y99.6 E38.28152
G1 X113.452 Y99.174 E38.32116
G1 X112.412 Y98.894 E38.35698
G1 X111.256 Y98.71 E38.39591
G1 X110.02 Y98.636 E38.43709
G1 X108.869 Y98.696 E38.47543
G1 X107.669 Y98.878 E38.5158
G1 X106.545 Y99.174 E38.55446
G1 X105.444 Y99.593 E38.59364
G1 X104.338 Y100.145 E38.63475
G1 X103.355 Y100.783 E38.67373
G1 X102.399 Y101.543 E38.71435
G1 X101.521 Y102.435 E38.75598
G1 X100.856 Y103.254 E38.79107
G1 X100.164 Y104.301 E38.83281
G1 X99.621 Y105.373 E38.87278
G1 X99.193 Y106.471 E38.91197
G1 X98.882 Y107.632 E38.95195
G1 X98.702 Y108.801 E38.99129
G1 X98.636 Y109.989 E39.03086
G1 X98.7 Y111.172 E39.07027
G1 X98.878 Y112.339 E39.10953
G1 X99.212 Y113.565 E39.15179
G1 X99.617 Y114.609 E39.18904
G1 X100.145 Y115.655 E39.22801
G1 X100.783 Y116.642 E39.2671
G1 X101.507 Y117.546 E39.30562
G1 X102.341 Y118.389 E39.34506
G1 X103.297 Y119.175 E39.38622
G1 X104.276 Y119.81 E39.42503
G1 X105.389 Y120.384 E39.46669
G1 X106.533 Y120.816 E39.50736
G1 X107.685 Y121.118 E39.54697
G1 X108.857 Y121.298 E39.58641
G1 X110 Y121.35 E39.62446
G1 F1500 E33.12446
G0 F6000 X110.011 Y121.094
G0 X107.734 Y120.947
G0 X107.734 Y131.3
G0 X75.503 Y131.4
G0 X75.503 Y130.94
G1 F1500 E39.62446
G1 F1200 X74.06 Y129.497 E39.69234
G0 F6000 X74.06 Y128.931
G1 F1200 X76.068 Y130.94 E39.78681
G0 F6000 X76.634 Y130.94
G1 F1200 X74.06 Y128.365 E39.90791
G0 F6000 X74.06 Y127.8
G1 F1200 X77.2 Y130.94 E40.0556
G0 F6000 X77.765 Y130.94
G1 F1200 X74.06 Y127.234 E40.2299
G0 F6000 X74.06 Y126.668
G1 F1200 X78.331 Y130.94 E40.43082
G0 F6000 X78.897 Y130.94
G1 F1200 X74.06 Y126.103 E40.65833
G0 F6000 X74.06 Y125.537
G1 F1200 X79.463 Y130.94 E40.91247
G0 F6000 X80.028 Y130.94
G1 F1200 X74.06 Y124.971 E41.19321
G0 F6000 X74.06 Y124.406
G1 F1200 X80.594 Y130.94 E41.50055
G0 F6000 X81.16 Y130.94
G1 F1200 X74.06 Y123.84 E41.83452
G0 F6000 X74.06 Y123.274
G1 F1200 X81.725 Y130.94 E42.19508
G0 F6000 X82.291 Y130.94
G1 F1200 X74.06 Y122.708 E42.58226
G0 F6000 X74.06 Y122.143
G1 F1200 X82.857 Y130.94 E42.99605
G0 F6000 X83.422 Y130.94
G1 F1200 X74.06 Y121.577 E43.43643
G0 F6000 X74.06 Y121.011
G1 F1200 X83.988 Y130.94 E43.90344
G0 F6000 X84.554 Y130.94
G1 F1200 X74.06 Y120.446 E44.39704
G0 F6000 X74.06 Y119.88
G1 F1200 X85.119 Y130.94 E44.91725
G0 F6000 X85.685 Y130.94
G1 F1200 X74.06 Y119.314 E45.46407
G0 F6000 X74.06 Y118.749
G1 F1200 X86.251 Y130.94 E46.0375
G0 F6000 X86.816 Y130.94
G1 F1200 X74.06 Y118.183 E46.63753
G0 F6000 X74.06 Y117.617
G1 F1200 X87.382 Y130.94 E47.26418
G0 F6000 X87.948 Y130.94
G1 F1200 X74.06 Y117.052 E47.91743
G0 F6000 X74.06 Y116.486
G1 F1200 X88.514 Y130.94 E48.5973
G0 F6000 X89.079 Y130.94
G1 F1200 X74.06 Y115.92 E49.30377
G0 F6000 X74.06 Y115.355
G1 F1200 X89.645 Y130.94 E50.03684
G0 F6000 X90.211 Y130.94
G1 F1200 X74.06 Y114.789 E50.79653
G0 F6000 X74.06 Y114.223
G1 F1200 X90.776 Y130.94 E51.58283
G0 F6000 X91.342 Y130.94
G1 F1200 X74.06 Y113.658 E52.39572
G0 F6000 X74.06 Y113.092
G1 F1200 X91.908 Y130.94 E53.23523
G0 F6000 X92.473 Y130.94
G1 F1200 X74.06 Y112.526 E54.10135
G0 F6000 X74.06 Y111.96
G1 F1200 X93.039 Y130.94 E54.99409
G0 F6000 X93.605 Y130.94
G1 F1200 X74.06 Y111.395 E55.91342
G0 F6000 X74.06 Y110.829
G1 F1200 X94.17 Y130.94 E56.85936
G0 F6000 X94.736 Y130.94
G1 F1200 X74.06 Y110.263 E57.83192
G0 F6000 X74.06 Y109.698
G1 F1200 X95.302 Y130.94 E58.83108
G0 F6000 X95.867 Y130.94
G1 F1200 X74.06 Y109.132 E59.85684
G0 F6000 X74.06 Y108.566
G1 F1200 X96.433 Y130.94 E60.90922
G0 F6000 X96.999 Y130.94
G1 F1200 X74.06 Y108.001 E61.9882
G0 F6000 X74.06 Y107.435
G1 F1200 X97.564 Y130.94 E63.09378
G0 F6000 X98.13 Y130.94
G1 F1200 X74.06 Y106.869 E64.22598
G0 F6000 X74.06 Y106.304
G1 F1200 X98.696 Y130.94 E65.38478
G0 F6000 X99.262 Y130.94
G1 F1200 X74.06 Y105.738 E66.57021
G0 F6000 X74.06 Y105.172
G1 F1200 X99.827 Y130.94 E67.78223
G0 F6000 X100.393 Y130.94
G1 F1200 X74.06 Y104.607 E69.02085
G0 F6000 X74.06 Y104.041
G1 F1200 X100.959 Y130.94 E70.2861
G0 F6000 X101.524 Y130.94
G1 F1200 X74.06 Y103.475 E71.57795
G0 F6000 X74.06 Y102.909
G1 F1200 X102.09 Y130.94 E72.89641
G0 F6000 X102.656 Y130.94
G1 F1200 X74.06 Y102.344 E74.24148
G0 F6000 X74.06 Y101.778
G1 F1200 X103.221 Y130.94 E75.61315
G0 F6000 X103.787 Y130.94
G1 F1200 X74.06 Y101.212 E77.01144
G0 F6000 X74.06 Y100.647
G1 F1200 X104.353 Y130.94 E78.43633
G0 F6000 X104.918 Y130.94
G1 F1200 X74.06 Y100.081 E79.88782
G0 F6000 X74.06 Y99.515
G1 F1200 X105.484 Y130.94 E81.36593
G0 F6000 X106.05 Y130.94
G1 F1200 X74.06 Y98.95 E82.87064
G0 F6000 X74.06 Y98.384
G1 F1200 X106.615 Y130.94 E84.40195
G0 F6000 X107.181 Y130.94
G1 F1200 X74.06 Y97.818 E85.95989
G0 F6000 X74.06 Y97.253
G1 F1200 X107.747 Y130.94 E87.54442
G0 F6000 X108.312 Y130.94
G1 F1200 X74.06 Y96.687 E89.15555
G0 F6000 X74.06 Y96.121
G1 F1200 X108.878 Y130.94 E90.79331
G0 F6000 X109.444 Y130.94
G1 F1200 X74.06 Y95.556 E92.45766
G0 F6000 X74.06 Y94.99
G1 F1200 X110.01 Y130.94 E94.14864
G0 F6000 X110.575 Y130.94
G1 F1200 X74.06 Y94.424 E95.86622
G0 F6000 X74.06 Y93.859
G1 F1200 X111.141 Y130.94 E97.6104
G0 F6000 X111.707 Y130.94
G1 F1200 X74.06 Y93.293 E99.38119
G0 F6000 X74.06 Y92.727
G1 F1200 X112.272 Y130.94 E101.17859
G0 F6000 X112.838 Y130.94
G1 F1200 X74.06 Y92.161 E103.00262
G0 F6000 X74.06 Y91.596
G1 F1200 X113.404 Y130.94 E104.85324
G0 F6000 X113.969 Y130.94
G1 F1200 X74.06 Y91.03 E106.73046
G0 F6000 X74.06 Y90.464
G1 F1200 X114.535 Y130.94 E108.6343
G0 F6000 X115.101 Y130.94
G1 F1200 X104.084 Y119.923 E109.15251
G0 F6000 X104.333 Y119.54
G0 X105.482 Y120.143
G0 X105.281 Y120.555
G1 F1200 X115.666 Y130.94 E109.64099
G0 F6000 X116.232 Y130.94
G1 F1200 X106.191 Y120.899 E110.11328
G0 F6000 X107.006 Y121.149
G1 F1200 X116.798 Y130.94 E110.57385
G0 F6000 X117.363 Y130.94
G1 F1200 X107.755 Y121.331 E111.0258
G0 F6000 X108.423 Y121.434
G1 F1200 X117.929 Y130.94 E111.47293
G0 F6000 X118.495 Y130.94
G1 F1200 X109.062 Y121.507 E111.91663
G0 F6000 X109.655 Y121.535
G1 F1200 X119.061 Y130.94 E112.35904
G0 F6000 X119.626 Y130.94
G1 F1200 X110.229 Y121.543 E112.80104
G0 F6000 X110.769 Y121.517
G1 F1200 X120.192 Y130.94 E113.24427
G0 F6000 X120.758 Y130.94
G1 F1200 X111.296 Y121.479 E113.68931
G0 F6000 X111.784 Y121.4
G1 F1200 X121.323 Y130.94 E114.13802
G0 F6000 X121.889 Y130.94
G1 F1200 X112.271 Y121.322 E114.59042
G0 F6000 X112.732 Y121.217
G1 F1200 X122.455 Y130.94 E115.04776
G0 F6000 X123.02 Y130.94
G1 F1200 X113.18 Y121.099 E115.51063
G0 F6000 X113.616 Y120.97
G1 F1200 X123.586 Y130.94 E115.97959
G0 F6000 X124.152 Y130.94
G1 F1200 X114.027 Y120.815 E116.45584
G0 F6000 X114.437 Y120.66
